(G-CODE GENERATED BY FLATCAM v8.994 - www.flatcam.org - Version Date: 2020/11/7)

(Name: Drill_PTH_Through.DRL_edit_cnc)
(Type: G-code from Geometry)
(Units: MM)

(Created on Wednesday, 18 September 2024 at 09:15)

(This preprocessor is the default preprocessor used by FlatCAM.)
(It is made to work with MACH3 compatible motion controllers.)


(TOOLS DIAMETER: )
(Tool: 1 -> Dia: 0.9)

(FEEDRATE Z: )
(Tool: 1 -> Feedrate: 25.0)

(FEEDRATE RAPIDS: )
(Tool: 1 -> Feedrate Rapids: 1500)

(Z_CUT: )
(Tool: 1 -> Z_Cut: -2.4)

(Tools Offset: )
(Tool: 1 -> Offset Z: 0.0)

(Z_MOVE: )
(Tool: 1 -> Z_Move: 1.0)

(Z Toolchange: 15 mm)
(X,Y Toolchange: 0.0000, 0.0000 mm)
(Z Start: None mm)
(Z End: 15.0 mm)
(X,Y End: 0.0000, 0.0000 mm)
(Steps per circle: 64)
(Preprocessor Excellon: default)

(X range:    1.1019 ...   28.9259  mm)
(Y range:    0.9470 ...   71.4030  mm)

(Spindle Speed: 1000 RPM)
G21
G90
G94

G01 F25.00

M5
G00 Z15.0000
T1
G00 X0.0000 Y0.0000                
M6
(MSG, Change to Tool Dia = 0.9000 ||| Total drills for tool T1 = 77)
M0
G00 Z15.0000

G01 F25.00
M03 S1000
G00 X18.4179 Y63.6930
G01 Z-2.4000
G01 Z0
G00 Z1.0000
G00 X15.8779 Y63.6930
G01 Z-2.4000
G01 Z0
G00 Z1.0000
G00 X13.3379 Y63.6930
G01 Z-2.4000
G01 Z0
G00 Z1.0000
G00 X10.7979 Y63.6930
G01 Z-2.4000
G01 Z0
G00 Z1.0000
G00 X4.5059 Y70.9530
G01 Z-2.4000
G01 Z0
G00 Z1.0000
G00 X9.4259 Y69.7230
G01 Z-2.4000
G01 Z0
G00 Z1.0000
G00 X11.9659 Y69.7230
G01 Z-2.4000
G01 Z0
G00 Z1.0000
G00 X14.5059 Y69.7230
G01 Z-2.4000
G01 Z0
G00 Z1.0000
G00 X17.0459 Y69.7230
G01 Z-2.4000
G01 Z0
G00 Z1.0000
G00 X17.0459 Y69.7230
G01 Z-2.4000
G01 Z0
G00 Z1.0000
G00 X19.5859 Y69.7230
G01 Z-2.4000
G01 Z0
G00 Z1.0000
G00 X24.5059 Y70.9530
G01 Z-2.4000
G01 Z0
G00 Z1.0000
G00 X28.4759 Y49.7840
G01 Z-2.4000
G01 Z0
G00 Z1.0000
G00 X28.4759 Y47.2440
G01 Z-2.4000
G01 Z0
G00 Z1.0000
G00 X28.4759 Y44.7040
G01 Z-2.4000
G01 Z0
G00 Z1.0000
G00 X28.4759 Y42.1640
G01 Z-2.4000
G01 Z0
G00 Z1.0000
G00 X28.4759 Y39.6240
G01 Z-2.4000
G01 Z0
G00 Z1.0000
G00 X28.4759 Y37.0840
G01 Z-2.4000
G01 Z0
G00 Z1.0000
G00 X28.4759 Y34.5440
G01 Z-2.4000
G01 Z0
G00 Z1.0000
G00 X28.4759 Y32.0040
G01 Z-2.4000
G01 Z0
G00 Z1.0000
G00 X28.4759 Y29.4640
G01 Z-2.4000
G01 Z0
G00 Z1.0000
G00 X28.4759 Y26.9240
G01 Z-2.4000
G01 Z0
G00 Z1.0000
G00 X28.4759 Y24.3840
G01 Z-2.4000
G01 Z0
G00 Z1.0000
G00 X28.4759 Y21.8440
G01 Z-2.4000
G01 Z0
G00 Z1.0000
G00 X28.4759 Y19.3040
G01 Z-2.4000
G01 Z0
G00 Z1.0000
G00 X28.4759 Y16.7640
G01 Z-2.4000
G01 Z0
G00 Z1.0000
G00 X28.4759 Y14.2240
G01 Z-2.4000
G01 Z0
G00 Z1.0000
G00 X28.4759 Y11.6840
G01 Z-2.4000
G01 Z0
G00 Z1.0000
G00 X28.4759 Y9.1440
G01 Z-2.4000
G01 Z0
G00 Z1.0000
G00 X28.4759 Y6.6040
G01 Z-2.4000
G01 Z0
G00 Z1.0000
G00 X28.4759 Y4.0640
G01 Z-2.4000
G01 Z0
G00 Z1.0000
G00 X28.4759 Y1.5240
G01 Z-2.4000
G01 Z0
G00 Z1.0000
G00 X24.2849 Y16.8910
G01 Z-2.4000
G01 Z0
G00 Z1.0000
G00 X24.2849 Y19.4310
G01 Z-2.4000
G01 Z0
G00 Z1.0000
G00 X24.2849 Y21.9710
G01 Z-2.4000
G01 Z0
G00 Z1.0000
G00 X24.2849 Y24.5110
G01 Z-2.4000
G01 Z0
G00 Z1.0000
G00 X24.2849 Y27.0510
G01 Z-2.4000
G01 Z0
G00 Z1.0000
G00 X24.2849 Y29.5910
G01 Z-2.4000
G01 Z0
G00 Z1.0000
G00 X22.9949 Y35.5600
G01 Z-2.4000
G01 Z0
G00 Z1.0000
G00 X20.4949 Y35.5600
G01 Z-2.4000
G01 Z0
G00 Z1.0000
G00 X19.7139 Y43.4330
G01 Z-2.4000
G01 Z0
G00 Z1.0000
G00 X19.7139 Y45.9730
G01 Z-2.4000
G01 Z0
G00 Z1.0000
G00 X19.7139 Y48.5130
G01 Z-2.4000
G01 Z0
G00 Z1.0000
G00 X19.7139 Y51.0530
G01 Z-2.4000
G01 Z0
G00 Z1.0000
G00 X19.7139 Y53.5930
G01 Z-2.4000
G01 Z0
G00 Z1.0000
G00 X9.5539 Y51.0530
G01 Z-2.4000
G01 Z0
G00 Z1.0000
G00 X9.5539 Y48.5130
G01 Z-2.4000
G01 Z0
G00 Z1.0000
G00 X9.5539 Y45.9730
G01 Z-2.4000
G01 Z0
G00 Z1.0000
G00 X9.5539 Y43.4330
G01 Z-2.4000
G01 Z0
G00 Z1.0000
G00 X9.5539 Y40.8930
G01 Z-2.4000
G01 Z0
G00 Z1.0000
G00 X8.6669 Y11.5570
G01 Z-2.4000
G01 Z0
G00 Z1.0000
G00 X8.6669 Y9.0170
G01 Z-2.4000
G01 Z0
G00 Z1.0000
G00 X8.6669 Y6.4770
G01 Z-2.4000
G01 Z0
G00 Z1.0000
G00 X8.6669 Y3.9370
G01 Z-2.4000
G01 Z0
G00 Z1.0000
G00 X8.6669 Y1.3970
G01 Z-2.4000
G01 Z0
G00 Z1.0000
G00 X1.5519 Y1.5240
G01 Z-2.4000
G01 Z0
G00 Z1.0000
G00 X1.5519 Y4.0640
G01 Z-2.4000
G01 Z0
G00 Z1.0000
G00 X1.5519 Y6.6040
G01 Z-2.4000
G01 Z0
G00 Z1.0000
G00 X1.5519 Y9.1440
G01 Z-2.4000
G01 Z0
G00 Z1.0000
G00 X1.5519 Y11.6840
G01 Z-2.4000
G01 Z0
G00 Z1.0000
G00 X1.5519 Y14.2240
G01 Z-2.4000
G01 Z0
G00 Z1.0000
G00 X1.5519 Y16.7640
G01 Z-2.4000
G01 Z0
G00 Z1.0000
G00 X1.5519 Y19.3040
G01 Z-2.4000
G01 Z0
G00 Z1.0000
G00 X1.5519 Y21.8440
G01 Z-2.4000
G01 Z0
G00 Z1.0000
G00 X1.5519 Y24.3840
G01 Z-2.4000
G01 Z0
G00 Z1.0000
G00 X1.5519 Y26.9240
G01 Z-2.4000
G01 Z0
G00 Z1.0000
G00 X1.5519 Y29.4640
G01 Z-2.4000
G01 Z0
G00 Z1.0000
G00 X1.5519 Y32.0040
G01 Z-2.4000
G01 Z0
G00 Z1.0000
G00 X1.5519 Y34.5440
G01 Z-2.4000
G01 Z0
G00 Z1.0000
G00 X1.5519 Y37.0840
G01 Z-2.4000
G01 Z0
G00 Z1.0000
G00 X1.5519 Y39.6240
G01 Z-2.4000
G01 Z0
G00 Z1.0000
G00 X1.5519 Y42.1640
G01 Z-2.4000
G01 Z0
G00 Z1.0000
G00 X1.5519 Y44.7040
G01 Z-2.4000
G01 Z0
G00 Z1.0000
G00 X1.5519 Y47.2440
G01 Z-2.4000
G01 Z0
G00 Z1.0000
G00 X1.5519 Y49.7840
G01 Z-2.4000
G01 Z0
G00 Z1.0000
G00 X9.5539 Y53.5930
G01 Z-2.4000
G01 Z0
G00 Z1.0000
G00 X9.5539 Y56.1330
G01 Z-2.4000
G01 Z0
G00 Z1.0000
M05
G00 Z15.00
G00 X0.0 Y0.0


