(G-CODE GENERATED BY FLATCAM v8.994 - www.flatcam.org - Version Date: 2020/11/7)

(Name: Drill_PTH_Through_Via.DRL_cnc)
(Type: G-code from Geometry)
(Units: MM)

(Created on Wednesday, 18 September 2024 at 09:14)

(This preprocessor is the default preprocessor used by FlatCAM.)
(It is made to work with MACH3 compatible motion controllers.)


(TOOLS DIAMETER: )
(Tool: 1 -> Dia: 0.6)

(FEEDRATE Z: )
(Tool: 1 -> Feedrate: 20.0)

(FEEDRATE RAPIDS: )
(Tool: 1 -> Feedrate Rapids: 1500)

(Z_CUT: )
(Tool: 1 -> Z_Cut: -2.4)

(Tools Offset: )
(Tool: 1 -> Offset Z: 0.0)

(Z_MOVE: )
(Tool: 1 -> Z_Move: 1.0)

(Z Toolchange: 15 mm)
(X,Y Toolchange: 0.0000, 0.0000 mm)
(Z Start: None mm)
(Z End: 15.0 mm)
(X,Y End: 0.0000, 0.0000 mm)
(Steps per circle: 64)
(Preprocessor Excellon: default)

(X range:   -1.1611 ...   16.0759  mm)
(Y range:   29.1640 ...   72.0550  mm)

(Spindle Speed: 1000 RPM)
G21
G90
G94

G01 F20.00

M5
G00 Z15.0000
T1
G00 X0.0000 Y0.0000                
M6
(MSG, Change to Tool Dia = 0.6000 ||| Total drills for tool T1 = 4)
M0
G00 Z15.0000

G01 F20.00
M03 S1000
G00 X15.7759 Y71.7550
G01 Z-2.4000
G01 Z0
G00 Z1.0000
G00 X12.1539 Y40.8330
G01 Z-2.4000
G01 Z0
G00 Z1.0000
G00 X13.2359 Y36.5760
G01 Z-2.4000
G01 Z0
G00 Z1.0000
G00 X-0.8611 Y29.4640
G01 Z-2.4000
G01 Z0
G00 Z1.0000
M05
G00 Z15.00
G00 X0.0 Y0.0


