(G-CODE GENERATED BY FLATCAM v8.994 - www.flatcam.org - Version Date: 2020/11/7)

(Name: Gerber_BottomLayer.GBL_ncc_cnc)
(Type: G-code from Geometry)
(Units: MM)

(Created on Wednesday, 18 September 2024 at 09:24)

(This preprocessor is the default preprocessor used by FlatCAM.)
(It is made to work with MACH3 compatible motion controllers.)

(TOOL DIAMETER: 0.1667 mm)
(Feedrate_XY: 120.0 mm/min)
(Feedrate_Z: 25.0 mm/min)
(Feedrate rapids 1500.0 mm/min)

(Z_Cut: -0.1 mm)
(Z_Move: 1.0 mm)
(Z Start: None mm)
(Z End: 15.0 mm)
(X,Y End: 0.0000, 0.0000 mm)
(Steps per circle: 64)
(Preprocessor Geometry: default)

(X range:   -1.6576 ...   30.9575  mm)
(Y range:    0.5915 ...   73.7006  mm)

(Spindle Speed: 1000.0 RPM)
G21
G90
G94

G01 F120.00

M5
G00 Z15.0000
G00 X0.0000 Y0.0000
T1
M6    
(MSG, Change to Tool Dia = 0.1667)
M0
G00 Z15.0000

M03 S1000.0
G01 F120.00
G00 X0.7067 Y1.5281
G01 F25.00
G01 Z-0.1000
G01 F120.00
G01 X0.7067 Y1.5199
G01 X0.7107 Y1.4411
G01 X0.7228 Y1.3591
G01 X0.7430 Y1.2786
G01 X0.7709 Y1.2005
G01 X0.8064 Y1.1255
G01 X0.8491 Y1.0543
G01 X0.8985 Y0.9877
G01 X0.9542 Y0.9262
G01 X1.0157 Y0.8705
G01 X1.0823 Y0.8211
G01 X1.1534 Y0.7785
G01 X1.2284 Y0.7430
G01 X1.3065 Y0.7151
G01 X1.3870 Y0.6949
G01 X1.4691 Y0.6827
G01 X1.5519 Y0.6787
G01 X1.6348 Y0.6827
G01 X1.7169 Y0.6949
G01 X1.7973 Y0.7151
G01 X1.8754 Y0.7430
G01 X1.9504 Y0.7785
G01 X2.0216 Y0.8211
G01 X2.0882 Y0.8705
G01 X2.1497 Y0.9262
G01 X2.2054 Y0.9877
G01 X2.2548 Y1.0543
G01 X2.2975 Y1.1255
G01 X2.3329 Y1.2005
G01 X2.3609 Y1.2786
G01 X2.3810 Y1.3591
G01 X2.3932 Y1.4411
G01 X2.3973 Y1.5240
G01 X2.3932 Y1.6069
G01 X2.3810 Y1.6889
G01 X2.3609 Y1.7694
G01 X2.3329 Y1.8475
G01 X2.2975 Y1.9225
G01 X2.2548 Y1.9937
G01 X2.2054 Y2.0603
G01 X2.1497 Y2.1218
G01 X2.0882 Y2.1775
G01 X2.0216 Y2.2269
G01 X1.9504 Y2.2695
G01 X1.8754 Y2.3050
G01 X1.7973 Y2.3329
G01 X1.7169 Y2.3531
G01 X1.6348 Y2.3653
G01 X1.5519 Y2.3693
G01 X1.4691 Y2.3653
G01 X1.3870 Y2.3531
G01 X1.3065 Y2.3329
G01 X1.2284 Y2.3050
G01 X1.1534 Y2.2695
G01 X1.0823 Y2.2269
G01 X1.0157 Y2.1775
G01 X0.9542 Y2.1218
G01 X0.8985 Y2.0603
G01 X0.8491 Y1.9937
G01 X0.8064 Y1.9225
G01 X0.7709 Y1.8475
G01 X0.7430 Y1.7694
G01 X0.7228 Y1.6889
G01 X0.7107 Y1.6069
G01 X0.7067 Y1.5281
G00 Z1.0000
G00 X1.5832 Y0.5915
G01 F25.00
G01 Z-0.1000
G01 F120.00
G01 X1.4586 Y0.5952
G01 X1.3356 Y0.6162
G01 X1.2167 Y0.6530
G01 X1.1035 Y0.7057
G01 X0.9985 Y0.7729
G01 X0.9034 Y0.8531
G01 X0.8194 Y0.9459
G01 X0.7490 Y1.0484
G01 X0.6926 Y1.1598
G01 X0.6520 Y1.2774
G01 X0.6268 Y1.3996
G01 X0.6185 Y1.5240
G01 X0.6268 Y1.6484
G01 X0.6520 Y1.7706
G01 X0.6926 Y1.8882
G01 X0.7490 Y1.9996
G01 X0.8194 Y2.1021
G01 X0.9034 Y2.1949
G01 X0.9985 Y2.2751
G01 X1.1035 Y2.3423
G01 X1.2167 Y2.3950
G01 X1.3355 Y2.4318
G01 X1.4586 Y2.4523
G01 X1.5833 Y2.4565
G01 X1.7073 Y2.4444
G01 X1.8285 Y2.4155
G01 X1.9450 Y2.3708
G01 X2.0540 Y2.3107
G01 X2.1544 Y2.2364
G01 X2.2439 Y2.1501
G01 X2.3213 Y2.0523
G01 X2.3847 Y1.9450
G01 X2.4336 Y1.8303
G01 X2.4663 Y1.7101
G01 X2.4831 Y1.5864
G01 X2.4831 Y1.4616
G01 X2.4663 Y1.3379
G01 X2.4336 Y1.2176
G01 X2.3847 Y1.1030
G01 X2.3213 Y0.9957
G01 X2.2439 Y0.8979
G01 X2.1544 Y0.8116
G01 X2.0540 Y0.7373
G01 X1.9450 Y0.6772
G01 X1.8285 Y0.6325
G01 X1.7073 Y0.6036
G01 X1.5832 Y0.5915
G00 Z1.0000
G00 X1.5832 Y3.1315
G01 F25.00
G01 Z-0.1000
G01 F120.00
G01 X1.4586 Y3.1352
G01 X1.3356 Y3.1562
G01 X1.2167 Y3.1930
G01 X1.1035 Y3.2457
G01 X0.9985 Y3.3129
G01 X0.9034 Y3.3931
G01 X0.8194 Y3.4859
G01 X0.7490 Y3.5884
G01 X0.6926 Y3.6998
G01 X0.6520 Y3.8174
G01 X0.6268 Y3.9396
G01 X0.6185 Y4.0640
G01 X0.6268 Y4.1884
G01 X0.6520 Y4.3106
G01 X0.6926 Y4.4282
G01 X0.7490 Y4.5396
G01 X0.8194 Y4.6421
G01 X0.9034 Y4.7349
G01 X0.9985 Y4.8151
G01 X1.1035 Y4.8823
G01 X1.2167 Y4.9350
G01 X1.3355 Y4.9718
G01 X1.4586 Y4.9923
G01 X1.5833 Y4.9965
G01 X1.7073 Y4.9844
G01 X1.8285 Y4.9555
G01 X1.9450 Y4.9108
G01 X2.0540 Y4.8507
G01 X2.1544 Y4.7764
G01 X2.2439 Y4.6901
G01 X2.3213 Y4.5923
G01 X2.3847 Y4.4850
G01 X2.4336 Y4.3703
G01 X2.4663 Y4.2501
G01 X2.4831 Y4.1264
G01 X2.4831 Y4.0016
G01 X2.4663 Y3.8779
G01 X2.4336 Y3.7576
G01 X2.3847 Y3.6430
G01 X2.3213 Y3.5357
G01 X2.2439 Y3.4379
G01 X2.1544 Y3.3516
G01 X2.0540 Y3.2773
G01 X1.9450 Y3.2172
G01 X1.8285 Y3.1725
G01 X1.7073 Y3.1436
G01 X1.5832 Y3.1315
G00 Z1.0000
G00 X0.7067 Y4.0681
G01 F25.00
G01 Z-0.1000
G01 F120.00
G01 X0.7067 Y4.0599
G01 X0.7107 Y3.9811
G01 X0.7228 Y3.8991
G01 X0.7430 Y3.8186
G01 X0.7709 Y3.7405
G01 X0.8064 Y3.6655
G01 X0.8491 Y3.5943
G01 X0.8985 Y3.5277
G01 X0.9542 Y3.4662
G01 X1.0157 Y3.4105
G01 X1.0823 Y3.3611
G01 X1.1534 Y3.3185
G01 X1.2284 Y3.2830
G01 X1.3065 Y3.2551
G01 X1.3870 Y3.2349
G01 X1.4691 Y3.2227
G01 X1.5519 Y3.2187
G01 X1.6348 Y3.2227
G01 X1.7169 Y3.2349
G01 X1.7973 Y3.2551
G01 X1.8754 Y3.2830
G01 X1.9504 Y3.3185
G01 X2.0216 Y3.3611
G01 X2.0882 Y3.4105
G01 X2.1497 Y3.4662
G01 X2.2054 Y3.5277
G01 X2.2548 Y3.5943
G01 X2.2975 Y3.6655
G01 X2.3329 Y3.7405
G01 X2.3609 Y3.8186
G01 X2.3810 Y3.8991
G01 X2.3932 Y3.9811
G01 X2.3973 Y4.0640
G01 X2.3932 Y4.1469
G01 X2.3810 Y4.2289
G01 X2.3609 Y4.3094
G01 X2.3329 Y4.3875
G01 X2.2975 Y4.4625
G01 X2.2548 Y4.5337
G01 X2.2054 Y4.6003
G01 X2.1497 Y4.6618
G01 X2.0882 Y4.7175
G01 X2.0216 Y4.7669
G01 X1.9504 Y4.8095
G01 X1.8754 Y4.8450
G01 X1.7973 Y4.8729
G01 X1.7169 Y4.8931
G01 X1.6348 Y4.9053
G01 X1.5519 Y4.9093
G01 X1.4691 Y4.9053
G01 X1.3870 Y4.8931
G01 X1.3065 Y4.8729
G01 X1.2284 Y4.8450
G01 X1.1534 Y4.8095
G01 X1.0823 Y4.7669
G01 X1.0157 Y4.7175
G01 X0.9542 Y4.6618
G01 X0.8985 Y4.6003
G01 X0.8491 Y4.5337
G01 X0.8064 Y4.4625
G01 X0.7709 Y4.3875
G01 X0.7430 Y4.3094
G01 X0.7228 Y4.2289
G01 X0.7107 Y4.1469
G01 X0.7067 Y4.0681
G00 Z1.0000
G00 X0.7067 Y6.6081
G01 F25.00
G01 Z-0.1000
G01 F120.00
G01 X0.7067 Y6.5999
G01 X0.7107 Y6.5211
G01 X0.7228 Y6.4391
G01 X0.7430 Y6.3586
G01 X0.7709 Y6.2805
G01 X0.8064 Y6.2055
G01 X0.8491 Y6.1343
G01 X0.8985 Y6.0677
G01 X0.9542 Y6.0062
G01 X1.0157 Y5.9505
G01 X1.0823 Y5.9011
G01 X1.1534 Y5.8585
G01 X1.2284 Y5.8230
G01 X1.3065 Y5.7951
G01 X1.3870 Y5.7749
G01 X1.4691 Y5.7627
G01 X1.5519 Y5.7587
G01 X1.6348 Y5.7627
G01 X1.7169 Y5.7749
G01 X1.7973 Y5.7951
G01 X1.8754 Y5.8230
G01 X1.9504 Y5.8585
G01 X2.0216 Y5.9011
G01 X2.0882 Y5.9505
G01 X2.1497 Y6.0062
G01 X2.2054 Y6.0677
G01 X2.2548 Y6.1343
G01 X2.2975 Y6.2055
G01 X2.3329 Y6.2805
G01 X2.3609 Y6.3586
G01 X2.3810 Y6.4391
G01 X2.3932 Y6.5211
G01 X2.3973 Y6.6040
G01 X2.3932 Y6.6869
G01 X2.3810 Y6.7689
G01 X2.3609 Y6.8494
G01 X2.3329 Y6.9275
G01 X2.2975 Y7.0025
G01 X2.2548 Y7.0737
G01 X2.2054 Y7.1403
G01 X2.1497 Y7.2018
G01 X2.0882 Y7.2575
G01 X2.0216 Y7.3069
G01 X1.9504 Y7.3495
G01 X1.8754 Y7.3850
G01 X1.7973 Y7.4129
G01 X1.7169 Y7.4331
G01 X1.6348 Y7.4453
G01 X1.5519 Y7.4493
G01 X1.4691 Y7.4453
G01 X1.3870 Y7.4331
G01 X1.3065 Y7.4129
G01 X1.2284 Y7.3850
G01 X1.1534 Y7.3495
G01 X1.0823 Y7.3069
G01 X1.0157 Y7.2575
G01 X0.9542 Y7.2018
G01 X0.8985 Y7.1403
G01 X0.8491 Y7.0737
G01 X0.8064 Y7.0025
G01 X0.7709 Y6.9275
G01 X0.7430 Y6.8494
G01 X0.7228 Y6.7689
G01 X0.7107 Y6.6869
G01 X0.7067 Y6.6081
G00 Z1.0000
G00 X0.9141 Y7.4573
G01 F25.00
G01 Z-0.1000
G01 F120.00
G01 X0.9215 Y7.4571
G01 X1.1858 Y7.4571
G01 X1.1133 Y7.4226
G01 X1.0420 Y7.3800
G01 X1.0293 Y7.3715
G01 X0.9684 Y7.3263
G01 X0.9576 Y7.3175
G01 X0.9569 Y7.3309
G01 X0.9552 Y7.3431
G01 X0.9470 Y7.3861
G01 X0.9429 Y7.4016
G01 X0.9382 Y7.4147
G01 X0.9324 Y7.4274
G01 X0.9266 Y7.4379
G01 X0.9141 Y7.4573
G00 Z1.0000
G00 X1.1859 Y8.2908
G01 F25.00
G01 Z-0.1000
G01 F120.00
G01 X1.0942 Y8.2908
G01 X0.9239 Y8.4611
G01 X0.9573 Y8.4308
G01 X0.9652 Y8.4242
G01 X1.0293 Y8.3765
G01 X1.0386 Y8.3701
G01 X1.1133 Y8.3254
G01 X1.1859 Y8.2908
G01 X0.8690 Y8.5159
G01 X0.4381 Y8.9468
G01 X0.4494 Y8.9474
G01 X0.4594 Y8.9485
G01 X0.5074 Y8.9568
G01 X0.5230 Y8.9608
G01 X0.5400 Y8.9671
G01 X0.5492 Y8.9713
G01 X0.5580 Y8.9762
G01 X0.6008 Y9.0030
G01 X0.6090 Y9.0090
G01 X0.6168 Y9.0155
G01 X0.6242 Y9.0224
G01 X0.6310 Y9.0296
G01 X0.6413 Y8.9618
G01 X0.6618 Y8.8793
G01 X0.6658 Y8.8666
G01 X0.6910 Y8.7962
G01 X0.6968 Y8.7820
G01 X0.7334 Y8.7053
G01 X0.7781 Y8.6306
G01 X0.7845 Y8.6214
G01 X0.8321 Y8.5572
G01 X0.8387 Y8.5494
G01 X0.8690 Y8.5159
G00 Z1.0000
G00 X0.7067 Y9.1481
G01 F25.00
G01 Z-0.1000
G01 F120.00
G01 X0.7067 Y9.1399
G01 X0.7107 Y9.0611
G01 X0.7228 Y8.9791
G01 X0.7430 Y8.8986
G01 X0.7709 Y8.8205
G01 X0.8064 Y8.7455
G01 X0.8491 Y8.6743
G01 X0.8985 Y8.6077
G01 X0.9542 Y8.5462
G01 X1.0157 Y8.4905
G01 X1.0823 Y8.4411
G01 X1.1534 Y8.3985
G01 X1.2284 Y8.3630
G01 X1.3065 Y8.3351
G01 X1.3870 Y8.3149
G01 X1.4691 Y8.3027
G01 X1.5519 Y8.2987
G01 X1.6348 Y8.3027
G01 X1.7169 Y8.3149
G01 X1.7973 Y8.3351
G01 X1.8754 Y8.3630
G01 X1.9504 Y8.3985
G01 X2.0216 Y8.4411
G01 X2.0882 Y8.4905
G01 X2.1497 Y8.5462
G01 X2.2054 Y8.6077
G01 X2.2548 Y8.6743
G01 X2.2975 Y8.7455
G01 X2.3329 Y8.8205
G01 X2.3609 Y8.8986
G01 X2.3810 Y8.9791
G01 X2.3932 Y9.0611
G01 X2.3973 Y9.1440
G01 X2.3932 Y9.2269
G01 X2.3810 Y9.3089
G01 X2.3609 Y9.3894
G01 X2.3329 Y9.4675
G01 X2.2975 Y9.5425
G01 X2.2548 Y9.6137
G01 X2.2054 Y9.6803
G01 X2.1497 Y9.7418
G01 X2.0882 Y9.7975
G01 X2.0216 Y9.8469
G01 X1.9504 Y9.8895
G01 X1.8754 Y9.9250
G01 X1.7973 Y9.9529
G01 X1.7169 Y9.9731
G01 X1.6348 Y9.9853
G01 X1.5519 Y9.9893
G01 X1.4691 Y9.9853
G01 X1.3870 Y9.9731
G01 X1.3065 Y9.9529
G01 X1.2284 Y9.9250
G01 X1.1534 Y9.8895
G01 X1.0823 Y9.8469
G01 X1.0157 Y9.7975
G01 X0.9542 Y9.7418
G01 X0.8985 Y9.6803
G01 X0.8491 Y9.6137
G01 X0.8064 Y9.5425
G01 X0.7709 Y9.4675
G01 X0.7430 Y9.3894
G01 X0.7228 Y9.3089
G01 X0.7107 Y9.2269
G01 X0.7067 Y9.1481
G00 Z1.0000
G00 X0.4183 Y9.0320
G01 F25.00
G01 Z-0.1000
G01 F120.00
G01 X0.4242 Y9.0310
G01 X0.4322 Y9.0303
G01 X0.4402 Y9.0303
G01 X0.4481 Y9.0311
G01 X0.4941 Y9.0392
G01 X0.5037 Y9.0423
G01 X0.5129 Y9.0464
G01 X0.5524 Y9.0709
G01 X0.5573 Y9.0744
G01 X0.5635 Y9.0797
G01 X0.5692 Y9.0855
G01 X0.5730 Y9.0903
G01 X0.5976 Y9.1229
G01 X0.6030 Y9.1315
G01 X0.6066 Y9.1389
G01 X0.6100 Y9.1485
G01 X0.6215 Y9.1933
G01 X0.6227 Y9.2032
G01 X0.6269 Y9.2685
G01 X0.6520 Y9.3906
G01 X0.6926 Y9.5082
G01 X0.7490 Y9.6196
G01 X0.8194 Y9.7221
G01 X0.8782 Y9.7871
G01 X0.8832 Y9.7931
G01 X0.8885 Y9.8013
G01 X0.9113 Y9.8410
G01 X0.9161 Y9.8522
G01 X0.9192 Y9.8640
G01 X0.9246 Y9.9123
G01 X0.9251 Y9.9206
G01 X0.9247 Y9.9290
G01 X0.9239 Y9.9353
G01 X0.9221 Y9.9435
G01 X0.9087 Y9.9875
G01 X0.9059 Y9.9949
G01 X0.9023 Y10.0021
G01 X0.8981 Y10.0088
G01 X0.8932 Y10.0152
G01 X0.8610 Y10.0513
G01 X0.8530 Y10.0585
G01 X0.8074 Y10.0924
G01 X0.7784 Y10.1187
G01 X0.1270 Y10.7703
G01 X0.1186 Y10.7766
G01 X0.0804 Y10.8017
G01 X0.0693 Y10.8069
G01 X0.0576 Y10.8104
G01 X0.0145 Y10.8188
G01 X0.0085 Y10.8195
G01 X0.0004 Y10.8199
G01 X-0.0076 Y10.8195
G01 X-0.0136 Y10.8187
G01 X-0.0602 Y10.8093
G01 X-0.0698 Y10.8061
G01 X-0.0789 Y10.8016
G01 X-0.1171 Y10.7766
G01 X-0.1221 Y10.7731
G01 X-0.1283 Y10.7678
G01 X-0.1326 Y10.7634
G01 X-0.1378 Y10.7571
G01 X-0.1636 Y10.7191
G01 X-0.1678 Y10.7118
G01 X-0.1704 Y10.7061
G01 X-0.1726 Y10.7002
G01 X-0.1749 Y10.6921
G01 X-0.1829 Y10.6509
G01 X-0.1841 Y10.6430
G01 X-0.1844 Y10.6350
G01 X-0.1844 Y9.6530
G01 X-0.1842 Y9.6470
G01 X-0.1833 Y9.6390
G01 X-0.1738 Y9.5918
G01 X-0.1704 Y9.5819
G01 X-0.1648 Y9.5707
G01 X-0.1390 Y9.5325
G01 X-0.1314 Y9.5234
G01 X0.3087 Y9.0832
G01 X0.3177 Y9.0758
G01 X0.3513 Y9.0528
G01 X0.3564 Y9.0496
G01 X0.3635 Y9.0459
G01 X0.3710 Y9.0429
G01 X0.3787 Y9.0406
G01 X0.4183 Y9.0320
G00 Z1.0000
G00 X0.9899 Y10.0071
G01 F25.00
G01 Z-0.1000
G01 F120.00
G01 X1.0063 Y10.0038
G01 X1.0336 Y9.9998
G01 X1.0468 Y9.9986
G01 X1.0785 Y9.9972
G01 X1.1859 Y9.9972
G01 X1.1205 Y9.9663
G01 X1.1097 Y9.9606
G01 X1.0386 Y9.9179
G01 X1.0301 Y9.9121
G01 X1.0065 Y9.8946
G01 X1.0080 Y9.9085
G01 X1.0085 Y9.9211
G01 X1.0080 Y9.9337
G01 X1.0066 Y9.9462
G01 X1.0047 Y9.9565
G01 X1.0027 Y9.9646
G01 X0.9899 Y10.0071
G01 X1.9180 Y9.9972
G01 X2.2620 Y9.9972
G01 X2.2530 Y9.9889
G01 X2.2445 Y9.9797
G01 X2.2379 Y9.9715
G01 X2.2307 Y9.9613
G01 X2.2224 Y9.9468
G01 X2.1990 Y9.8986
G01 X2.1957 Y9.8908
G01 X2.1922 Y9.8809
G01 X2.1899 Y9.8729
G01 X2.1875 Y9.8626
G01 X2.1861 Y9.8544
G01 X2.1849 Y9.8439
G01 X2.1844 Y9.8355
G01 X2.1843 Y9.8230
G01 X2.1465 Y9.8572
G01 X2.1387 Y9.8638
G01 X2.0670 Y9.9167
G01 X1.9906 Y9.9626
G01 X1.9180 Y9.9972
G00 Z1.0000
G00 X1.9180 Y10.8308
G01 F25.00
G01 Z-0.1000
G01 F120.00
G01 X1.9906 Y10.8654
G01 X2.0670 Y10.9113
G01 X2.1387 Y10.9642
G01 X2.1465 Y10.9708
G01 X2.1843 Y11.0050
G01 X2.1844 Y10.9924
G01 X2.1849 Y10.9841
G01 X2.1861 Y10.9736
G01 X2.1875 Y10.9653
G01 X2.1899 Y10.9551
G01 X2.1922 Y10.9470
G01 X2.1957 Y10.9372
G01 X2.1990 Y10.9294
G01 X2.2224 Y10.8812
G01 X2.2307 Y10.8667
G01 X2.2379 Y10.8565
G01 X2.2445 Y10.8483
G01 X2.2530 Y10.8391
G01 X2.2620 Y10.8308
G01 X1.9180 Y10.8308
G00 Z1.0000
G00 X0.6454 Y11.4847
G01 F25.00
G01 Z-0.1000
G01 F120.00
G01 X0.6612 Y11.4218
G01 X0.6454 Y11.4375
G01 X0.6454 Y11.4847
G01 X0.6454 Y12.3502
G01 X0.6519 Y12.3442
G01 X0.6599 Y12.3377
G01 X0.6990 Y12.3095
G01 X0.7127 Y12.3012
G01 X0.7289 Y12.2934
G01 X0.7382 Y12.2899
G01 X0.7478 Y12.2869
G01 X0.7947 Y12.2754
G01 X0.8029 Y12.2738
G01 X0.8132 Y12.2725
G01 X0.8236 Y12.2718
G01 X0.8329 Y12.2717
G01 X0.7792 Y12.1991
G01 X0.7369 Y12.1289
G01 X0.7297 Y12.1154
G01 X0.6968 Y12.0460
G01 X0.6910 Y12.0318
G01 X0.6635 Y11.9546
G01 X0.6610 Y11.9457
G01 X0.6454 Y11.8833
G01 X0.6454 Y12.3502
G00 Z1.0000
G00 X1.8652 Y12.4688
G01 F25.00
G01 Z-0.1000
G01 F120.00
G01 X1.7973 Y12.4929
G01 X1.7169 Y12.5131
G01 X1.6348 Y12.5253
G01 X1.5519 Y12.5293
G01 X1.4691 Y12.5253
G01 X1.3870 Y12.5131
G01 X1.3065 Y12.4929
G01 X1.2284 Y12.4650
G01 X1.1534 Y12.4295
G01 X1.0823 Y12.3869
G01 X1.0157 Y12.3375
G01 X0.9542 Y12.2818
G01 X0.8985 Y12.2203
G01 X0.8491 Y12.1537
G01 X0.8064 Y12.0825
G01 X0.7709 Y12.0075
G01 X0.7430 Y11.9294
G01 X0.7228 Y11.8489
G01 X0.7107 Y11.7669
G01 X0.7066 Y11.6840
G01 X0.7107 Y11.6011
G01 X0.7228 Y11.5191
G01 X0.7430 Y11.4386
G01 X0.7709 Y11.3605
G01 X0.8064 Y11.2855
G01 X0.8491 Y11.2143
G01 X0.8985 Y11.1477
G01 X0.9542 Y11.0862
G01 X1.0157 Y11.0305
G01 X1.0823 Y10.9811
G01 X1.1534 Y10.9385
G01 X1.2284 Y10.9030
G01 X1.3065 Y10.8751
G01 X1.3830 Y10.8558
G01 X1.3911 Y10.8542
G01 X1.4691 Y10.8427
G01 X1.5479 Y10.8388
G01 X1.5560 Y10.8388
G01 X1.6348 Y10.8427
G01 X1.7169 Y10.8549
G01 X1.7934 Y10.8740
G01 X1.8012 Y10.8763
G01 X1.8754 Y10.9030
G01 X1.9504 Y10.9385
G01 X2.0181 Y10.9789
G01 X2.0249 Y10.9835
G01 X2.0882 Y11.0305
G01 X2.1497 Y11.0862
G01 X2.2027 Y11.1446
G01 X2.2079 Y11.1509
G01 X2.2548 Y11.2143
G01 X2.2975 Y11.2855
G01 X2.3313 Y11.3568
G01 X2.3344 Y11.3643
G01 X2.3609 Y11.4386
G01 X2.3810 Y11.5191
G01 X2.3927 Y11.5971
G01 X2.3935 Y11.6052
G01 X2.3973 Y11.6840
G01 X2.3932 Y11.7669
G01 X2.3817 Y11.8449
G01 X2.3802 Y11.8529
G01 X2.3609 Y11.9294
G01 X2.3367 Y11.9972
G01 X17.0573 Y26.7177
G01 X23.3527 Y26.7177
G01 X23.3527 Y26.3444
G01 X23.3536 Y26.3321
G01 X23.3563 Y26.3202
G01 X23.3607 Y26.3087
G01 X23.3668 Y26.2981
G01 X23.3743 Y26.2884
G01 X23.3832 Y26.2799
G01 X23.3932 Y26.2729
G01 X23.4042 Y26.2674
G01 X23.4158 Y26.2635
G01 X23.4259 Y26.2616
G01 X23.4361 Y26.2610
G01 X25.1341 Y26.2610
G01 X25.1443 Y26.2616
G01 X25.1523 Y26.2630
G01 X25.1583 Y26.2646
G01 X25.1641 Y26.2666
G01 X25.1715 Y26.2699
G01 X25.1769 Y26.2729
G01 X25.1837 Y26.2774
G01 X25.1900 Y26.2826
G01 X25.1944 Y26.2869
G01 X25.1985 Y26.2915
G01 X25.2034 Y26.2981
G01 X25.2066 Y26.3033
G01 X25.2103 Y26.3106
G01 X25.2132 Y26.3182
G01 X25.2154 Y26.3261
G01 X25.2168 Y26.3342
G01 X25.2173 Y26.3403
G01 X25.2174 Y27.7579
G01 X25.2165 Y27.7701
G01 X25.2138 Y27.7821
G01 X25.2094 Y27.7935
G01 X25.2034 Y27.8042
G01 X25.1972 Y27.8123
G01 X25.1915 Y27.8182
G01 X25.1837 Y27.8248
G01 X25.1752 Y27.8304
G01 X25.1660 Y27.8349
G01 X25.1563 Y27.8382
G01 X25.1463 Y27.8403
G01 X25.1361 Y27.8412
G01 X23.4361 Y27.8412
G01 X23.4259 Y27.8406
G01 X23.4178 Y27.8392
G01 X23.4061 Y27.8356
G01 X23.3950 Y27.8304
G01 X23.3848 Y27.8236
G01 X23.3757 Y27.8153
G01 X23.3679 Y27.8059
G01 X23.3616 Y27.7953
G01 X23.3569 Y27.7840
G01 X23.3547 Y27.7761
G01 X23.3536 Y27.7701
G01 X23.3527 Y27.7579
G01 X23.3527 Y27.3847
G01 X16.9192 Y27.3847
G01 X16.8865 Y27.3831
G01 X16.8582 Y27.3790
G01 X16.8502 Y27.3774
G01 X16.8224 Y27.3703
G01 X16.7954 Y27.3608
G01 X16.7878 Y27.3577
G01 X16.7620 Y27.3453
G01 X16.7339 Y27.3285
G01 X16.7076 Y27.3090
G01 X16.6834 Y27.2870
G01 X1.8652 Y12.4688
G00 Z1.0000
G00 X0.6454 Y14.0247
G01 F25.00
G01 Z-0.1000
G01 F120.00
G01 X0.6635 Y13.9534
G01 X0.6910 Y13.8762
G01 X0.6968 Y13.8620
G01 X0.7297 Y13.7926
G01 X0.7369 Y13.7791
G01 X0.7792 Y13.7089
G01 X0.8329 Y13.6363
G01 X0.8236 Y13.6362
G01 X0.8132 Y13.6355
G01 X0.8029 Y13.6342
G01 X0.7947 Y13.6326
G01 X0.7477 Y13.6210
G01 X0.7382 Y13.6181
G01 X0.7289 Y13.6146
G01 X0.7127 Y13.6068
G01 X0.6990 Y13.5985
G01 X0.6599 Y13.5702
G01 X0.6519 Y13.5638
G01 X0.6454 Y13.5578
G01 X0.6454 Y14.0247
G01 X0.7067 Y14.2281
G01 X0.7067 Y14.2199
G01 X0.7107 Y14.1411
G01 X0.7228 Y14.0591
G01 X0.7430 Y13.9786
G01 X0.7709 Y13.9005
G01 X0.8064 Y13.8255
G01 X0.8491 Y13.7543
G01 X0.8985 Y13.6877
G01 X0.9514 Y13.6292
G01 X0.9572 Y13.6234
G01 X1.0157 Y13.5705
G01 X1.0789 Y13.5235
G01 X1.0857 Y13.5189
G01 X1.1499 Y13.4805
G01 X1.1571 Y13.4766
G01 X1.2284 Y13.4430
G01 X1.3027 Y13.4163
G01 X1.3105 Y13.4140
G01 X1.3870 Y13.3949
G01 X1.4691 Y13.3827
G01 X1.5519 Y13.3787
G01 X1.6368 Y13.3829
G01 X1.7169 Y13.3949
G01 X1.7973 Y13.4151
G01 X1.8754 Y13.4430
G01 X1.9504 Y13.4785
G01 X2.0216 Y13.5211
G01 X2.0882 Y13.5705
G01 X2.1497 Y13.6262
G01 X2.2027 Y13.6846
G01 X2.2079 Y13.6909
G01 X2.2548 Y13.7543
G01 X2.2955 Y13.8219
G01 X2.2993 Y13.8292
G01 X2.3313 Y13.8968
G01 X2.3344 Y13.9043
G01 X2.3609 Y13.9786
G01 X2.3810 Y14.0591
G01 X2.3932 Y14.1411
G01 X2.3973 Y14.2240
G01 X2.3932 Y14.3069
G01 X2.3810 Y14.3889
G01 X2.3609 Y14.4694
G01 X2.3329 Y14.5475
G01 X2.2975 Y14.6225
G01 X2.2548 Y14.6937
G01 X2.2054 Y14.7603
G01 X2.1497 Y14.8218
G01 X2.0882 Y14.8775
G01 X2.0216 Y14.9269
G01 X1.9504 Y14.9695
G01 X1.8754 Y15.0050
G01 X1.7973 Y15.0329
G01 X1.7169 Y15.0531
G01 X1.6348 Y15.0653
G01 X1.5519 Y15.0693
G01 X1.4691 Y15.0653
G01 X1.3870 Y15.0531
G01 X1.3065 Y15.0329
G01 X1.2284 Y15.0050
G01 X1.1534 Y14.9695
G01 X1.0823 Y14.9269
G01 X1.0157 Y14.8775
G01 X0.9542 Y14.8218
G01 X0.8985 Y14.7603
G01 X0.8491 Y14.6937
G01 X0.8064 Y14.6225
G01 X0.7709 Y14.5475
G01 X0.7430 Y14.4694
G01 X0.7228 Y14.3889
G01 X0.7107 Y14.3069
G01 X0.7067 Y14.2281
G01 X0.6454 Y14.8902
G01 X0.6519 Y14.8842
G01 X0.6599 Y14.8777
G01 X0.6990 Y14.8495
G01 X0.7127 Y14.8412
G01 X0.7289 Y14.8334
G01 X0.7382 Y14.8299
G01 X0.7478 Y14.8269
G01 X0.7947 Y14.8154
G01 X0.8029 Y14.8138
G01 X0.8132 Y14.8125
G01 X0.8236 Y14.8118
G01 X0.8329 Y14.8117
G01 X0.7792 Y14.7391
G01 X0.7369 Y14.6689
G01 X0.7297 Y14.6554
G01 X0.6968 Y14.5860
G01 X0.6910 Y14.5718
G01 X0.6658 Y14.5014
G01 X0.6635 Y14.4946
G01 X0.6454 Y14.4233
G01 X0.6454 Y14.8902
G00 Z1.0000
G00 X0.6454 Y16.5647
G01 F25.00
G01 Z-0.1000
G01 F120.00
G01 X0.6635 Y16.4934
G01 X0.6910 Y16.4162
G01 X0.6968 Y16.4020
G01 X0.7297 Y16.3326
G01 X0.7369 Y16.3191
G01 X0.7792 Y16.2489
G01 X0.8329 Y16.1763
G01 X0.8236 Y16.1762
G01 X0.8132 Y16.1755
G01 X0.8049 Y16.1745
G01 X0.7947 Y16.1726
G01 X0.7477 Y16.1610
G01 X0.7382 Y16.1581
G01 X0.7289 Y16.1546
G01 X0.7144 Y16.1478
G01 X0.6990 Y16.1385
G01 X0.6599 Y16.1102
G01 X0.6519 Y16.1038
G01 X0.6454 Y16.0978
G01 X0.6454 Y16.5647
G01 X0.7067 Y16.7681
G01 X0.7067 Y16.7599
G01 X0.7107 Y16.6811
G01 X0.7228 Y16.5991
G01 X0.7430 Y16.5186
G01 X0.7709 Y16.4405
G01 X0.8064 Y16.3655
G01 X0.8491 Y16.2943
G01 X0.8985 Y16.2277
G01 X0.9514 Y16.1692
G01 X0.9572 Y16.1634
G01 X1.0126 Y16.1132
G01 X1.0189 Y16.1080
G01 X1.0823 Y16.0611
G01 X1.1499 Y16.0205
G01 X1.1571 Y16.0166
G01 X1.2284 Y15.9830
G01 X1.3027 Y15.9563
G01 X1.3105 Y15.9540
G01 X1.3870 Y15.9349
G01 X1.4691 Y15.9227
G01 X1.5519 Y15.9187
G01 X1.6368 Y15.9229
G01 X1.7169 Y15.9349
G01 X1.7973 Y15.9551
G01 X1.8754 Y15.9830
G01 X1.9504 Y16.0185
G01 X2.0216 Y16.0611
G01 X2.0882 Y16.1105
G01 X2.1497 Y16.1662
G01 X2.2027 Y16.2246
G01 X2.2079 Y16.2309
G01 X2.2548 Y16.2943
G01 X2.2955 Y16.3619
G01 X2.2993 Y16.3692
G01 X2.3313 Y16.4368
G01 X2.3344 Y16.4443
G01 X2.3609 Y16.5186
G01 X2.3810 Y16.5991
G01 X2.3932 Y16.6811
G01 X2.3973 Y16.7640
G01 X2.3932 Y16.8469
G01 X2.3810 Y16.9289
G01 X2.3609 Y17.0094
G01 X2.3329 Y17.0875
G01 X2.2975 Y17.1625
G01 X2.2548 Y17.2337
G01 X2.2054 Y17.3003
G01 X2.1497 Y17.3618
G01 X2.0882 Y17.4175
G01 X2.0216 Y17.4669
G01 X1.9504 Y17.5095
G01 X1.8754 Y17.5450
G01 X1.7973 Y17.5729
G01 X1.7169 Y17.5931
G01 X1.6348 Y17.6053
G01 X1.5519 Y17.6093
G01 X1.4691 Y17.6053
G01 X1.3870 Y17.5931
G01 X1.3065 Y17.5729
G01 X1.2284 Y17.5450
G01 X1.1534 Y17.5095
G01 X1.0823 Y17.4669
G01 X1.0157 Y17.4175
G01 X0.9542 Y17.3618
G01 X0.8985 Y17.3003
G01 X0.8491 Y17.2337
G01 X0.8064 Y17.1625
G01 X0.7709 Y17.0875
G01 X0.7430 Y17.0094
G01 X0.7228 Y16.9289
G01 X0.7107 Y16.8469
G01 X0.7067 Y16.7681
G01 X0.6454 Y17.4302
G01 X0.6519 Y17.4242
G01 X0.6599 Y17.4177
G01 X0.6990 Y17.3895
G01 X0.7144 Y17.3802
G01 X0.7289 Y17.3734
G01 X0.7382 Y17.3699
G01 X0.7478 Y17.3669
G01 X0.7947 Y17.3554
G01 X0.8029 Y17.3538
G01 X0.8132 Y17.3525
G01 X0.8236 Y17.3518
G01 X0.8329 Y17.3517
G01 X0.7792 Y17.2791
G01 X0.7369 Y17.2089
G01 X0.7297 Y17.1954
G01 X0.6968 Y17.1260
G01 X0.6910 Y17.1118
G01 X0.6658 Y17.0414
G01 X0.6635 Y17.0346
G01 X0.6454 Y16.9633
G01 X0.6454 Y17.4302
G00 Z1.0000
G00 X0.8329 Y18.7163
G01 F25.00
G01 Z-0.1000
G01 F120.00
G01 X0.8236 Y18.7162
G01 X0.8132 Y18.7155
G01 X0.8049 Y18.7145
G01 X0.7947 Y18.7126
G01 X0.7477 Y18.7010
G01 X0.7382 Y18.6981
G01 X0.7289 Y18.6946
G01 X0.7144 Y18.6878
G01 X0.6990 Y18.6785
G01 X0.6599 Y18.6502
G01 X0.6519 Y18.6438
G01 X0.6454 Y18.6378
G01 X0.6454 Y19.1047
G01 X0.6635 Y19.0334
G01 X0.6910 Y18.9562
G01 X0.6968 Y18.9420
G01 X0.7297 Y18.8726
G01 X0.7369 Y18.8591
G01 X0.7792 Y18.7889
G01 X0.8329 Y18.7163
G00 Z1.0000
G00 X0.7067 Y19.3081
G01 F25.00
G01 Z-0.1000
G01 F120.00
G01 X0.7067 Y19.2999
G01 X0.7107 Y19.2211
G01 X0.7228 Y19.1391
G01 X0.7430 Y19.0586
G01 X0.7709 Y18.9805
G01 X0.8064 Y18.9055
G01 X0.8491 Y18.8343
G01 X0.8985 Y18.7677
G01 X0.9542 Y18.7062
G01 X1.0157 Y18.6505
G01 X1.0823 Y18.6011
G01 X1.1534 Y18.5585
G01 X1.2284 Y18.5230
G01 X1.3065 Y18.4951
G01 X1.3870 Y18.4749
G01 X1.4691 Y18.4627
G01 X1.5519 Y18.4587
G01 X1.6348 Y18.4627
G01 X1.7169 Y18.4749
G01 X1.7973 Y18.4951
G01 X1.8754 Y18.5230
G01 X1.9504 Y18.5585
G01 X2.0216 Y18.6011
G01 X2.0882 Y18.6505
G01 X2.1497 Y18.7062
G01 X2.2054 Y18.7677
G01 X2.2548 Y18.8343
G01 X2.2975 Y18.9055
G01 X2.3329 Y18.9805
G01 X2.3609 Y19.0586
G01 X2.3810 Y19.1391
G01 X2.3932 Y19.2211
G01 X2.3973 Y19.3040
G01 X2.3932 Y19.3869
G01 X2.3810 Y19.4689
G01 X2.3609 Y19.5494
G01 X2.3344 Y19.6237
G01 X2.3313 Y19.6312
G01 X2.2993 Y19.6988
G01 X2.2955 Y19.7061
G01 X2.2548 Y19.7737
G01 X2.2079 Y19.8371
G01 X2.2027 Y19.8434
G01 X2.1497 Y19.9018
G01 X2.0882 Y19.9575
G01 X2.0216 Y20.0069
G01 X1.9504 Y20.0495
G01 X1.8754 Y20.0850
G01 X1.7973 Y20.1129
G01 X1.7169 Y20.1331
G01 X1.6368 Y20.1451
G01 X1.5519 Y20.1493
G01 X1.4691 Y20.1453
G01 X1.3870 Y20.1331
G01 X1.3065 Y20.1129
G01 X1.2284 Y20.0850
G01 X1.1534 Y20.0495
G01 X1.0823 Y20.0069
G01 X1.0189 Y19.9600
G01 X1.0126 Y19.9548
G01 X0.9542 Y19.9018
G01 X0.9011 Y19.8434
G01 X0.8960 Y19.8371
G01 X0.8514 Y19.7770
G01 X0.8469 Y19.7702
G01 X0.8064 Y19.7025
G01 X0.7726 Y19.6312
G01 X0.7695 Y19.6237
G01 X0.7430 Y19.5494
G01 X0.7228 Y19.4689
G01 X0.7107 Y19.3869
G01 X0.7067 Y19.3081
G01 X0.6454 Y19.5033
G01 X0.6454 Y19.7333
G01 X1.0693 Y20.1572
G01 X1.1859 Y20.1572
G01 X1.1133 Y20.1226
G01 X1.0429 Y20.0806
G01 X1.0301 Y20.0721
G01 X0.9692 Y20.0269
G01 X0.9573 Y20.0172
G01 X0.8960 Y19.9614
G01 X0.8347 Y19.8939
G01 X0.8290 Y19.8867
G01 X0.7792 Y19.8191
G01 X0.7369 Y19.7489
G01 X0.7297 Y19.7354
G01 X0.6968 Y19.6660
G01 X0.6910 Y19.6518
G01 X0.6635 Y19.5746
G01 X0.6454 Y19.5033
G00 Z1.0000
G00 X-0.0156 Y20.3525
G01 F25.00
G01 Z-0.1000
G01 F120.00
G01 X-0.0076 Y20.3514
G01 X-0.0016 Y20.3510
G01 X0.0105 Y20.3515
G01 X0.0556 Y20.3601
G01 X0.0654 Y20.3627
G01 X0.0749 Y20.3664
G01 X0.0822 Y20.3702
G01 X0.1186 Y20.3942
G01 X0.1254 Y20.3992
G01 X0.1316 Y20.4049
G01 X0.5956 Y20.8693
G01 X0.6255 Y20.8966
G01 X0.6551 Y20.9193
G01 X0.6860 Y20.9392
G01 X0.7185 Y20.9561
G01 X0.7532 Y20.9704
G01 X0.7603 Y20.9738
G01 X0.7671 Y20.9778
G01 X0.8046 Y21.0026
G01 X0.8137 Y21.0108
G01 X0.8216 Y21.0201
G01 X0.8468 Y21.0573
G01 X0.8508 Y21.0646
G01 X0.8540 Y21.0722
G01 X0.8570 Y21.0821
G01 X0.8660 Y21.1217
G01 X0.8673 Y21.1299
G01 X0.8677 Y21.1382
G01 X0.8668 Y21.1506
G01 X0.8599 Y21.1907
G01 X0.8581 Y21.1988
G01 X0.8547 Y21.2085
G01 X0.8511 Y21.2160
G01 X0.8469 Y21.2230
G01 X0.7492 Y21.3681
G01 X0.6926 Y21.4798
G01 X0.6520 Y21.5974
G01 X0.6288 Y21.7104
G01 X0.6266 Y21.7186
G01 X0.6237 Y21.7266
G01 X0.6037 Y21.7724
G01 X0.5994 Y21.7796
G01 X0.5945 Y21.7864
G01 X0.5889 Y21.7926
G01 X0.5843 Y21.7969
G01 X0.5465 Y21.8291
G01 X0.5363 Y21.8356
G01 X0.5252 Y21.8406
G01 X0.4783 Y21.8551
G01 X0.4704 Y21.8570
G01 X0.4623 Y21.8580
G01 X0.4542 Y21.8582
G01 X0.4460 Y21.8577
G01 X0.4008 Y21.8513
G01 X0.3926 Y21.8497
G01 X0.3865 Y21.8480
G01 X0.3787 Y21.8450
G01 X0.3731 Y21.8422
G01 X0.3310 Y21.8157
G01 X0.3245 Y21.8110
G01 X0.3170 Y21.8044
G01 X-0.1314 Y21.3559
G01 X-0.1390 Y21.3467
G01 X-0.1636 Y21.3103
G01 X-0.1678 Y21.3031
G01 X-0.1720 Y21.2934
G01 X-0.1749 Y21.2834
G01 X-0.1829 Y21.2422
G01 X-0.1841 Y21.2343
G01 X-0.1844 Y21.2283
G01 X-0.1844 Y20.5359
G01 X-0.1841 Y20.5279
G01 X-0.1833 Y20.5219
G01 X-0.1749 Y20.4788
G01 X-0.1726 Y20.4707
G01 X-0.1696 Y20.4629
G01 X-0.1636 Y20.4518
G01 X-0.1401 Y20.4170
G01 X-0.1353 Y20.4105
G01 X-0.1297 Y20.4045
G01 X-0.1237 Y20.3991
G01 X-0.1171 Y20.3942
G01 X-0.0824 Y20.3713
G01 X-0.0735 Y20.3664
G01 X-0.0660 Y20.3634
G01 X-0.0582 Y20.3610
G01 X-0.0156 Y20.3525
G00 Z1.0000
G00 X0.9025 Y20.9908
G01 F25.00
G01 Z-0.1000
G01 F120.00
G01 X0.9151 Y21.0094
G01 X0.9216 Y21.0200
G01 X0.9289 Y21.0349
G01 X0.9340 Y21.0485
G01 X0.9379 Y21.0624
G01 X0.9479 Y21.1061
G01 X0.9501 Y21.1204
G01 X0.9510 Y21.1365
G01 X0.9604 Y21.1281
G01 X0.9684 Y21.1217
G01 X1.0293 Y21.0765
G01 X1.0403 Y21.0690
G01 X1.1133 Y21.0254
G01 X1.1859 Y20.9908
G01 X0.9025 Y20.9908
G00 Z1.0000
G00 X0.7067 Y21.8481
G01 F25.00
G01 Z-0.1000
G01 F120.00
G01 X0.7067 Y21.8399
G01 X0.7107 Y21.7611
G01 X0.7228 Y21.6791
G01 X0.7430 Y21.5986
G01 X0.7709 Y21.5205
G01 X0.8064 Y21.4455
G01 X0.8491 Y21.3743
G01 X0.8985 Y21.3077
G01 X0.9542 Y21.2462
G01 X1.0157 Y21.1905
G01 X1.0823 Y21.1411
G01 X1.1534 Y21.0985
G01 X1.2284 Y21.0630
G01 X1.3065 Y21.0351
G01 X1.3870 Y21.0149
G01 X1.4691 Y21.0027
G01 X1.5519 Y20.9987
G01 X1.6348 Y21.0027
G01 X1.7169 Y21.0149
G01 X1.7973 Y21.0351
G01 X1.8754 Y21.0630
G01 X1.9504 Y21.0985
G01 X2.0216 Y21.1411
G01 X2.0882 Y21.1905
G01 X2.1497 Y21.2462
G01 X2.2054 Y21.3077
G01 X2.2548 Y21.3743
G01 X2.2975 Y21.4455
G01 X2.3329 Y21.5205
G01 X2.3609 Y21.5986
G01 X2.3810 Y21.6791
G01 X2.3932 Y21.7611
G01 X2.3973 Y21.8440
G01 X2.3932 Y21.9269
G01 X2.3810 Y22.0089
G01 X2.3609 Y22.0894
G01 X2.3344 Y22.1637
G01 X2.3313 Y22.1712
G01 X2.2993 Y22.2388
G01 X2.2955 Y22.2461
G01 X2.2548 Y22.3137
G01 X2.2054 Y22.3803
G01 X2.1497 Y22.4418
G01 X2.0882 Y22.4975
G01 X2.0216 Y22.5469
G01 X1.9540 Y22.5875
G01 X1.9468 Y22.5914
G01 X1.8792 Y22.6233
G01 X1.8716 Y22.6265
G01 X1.7973 Y22.6529
G01 X1.7169 Y22.6731
G01 X1.6348 Y22.6853
G01 X1.5519 Y22.6893
G01 X1.4691 Y22.6853
G01 X1.3911 Y22.6738
G01 X1.3830 Y22.6722
G01 X1.3065 Y22.6529
G01 X1.2323 Y22.6265
G01 X1.2247 Y22.6233
G01 X1.1571 Y22.5914
G01 X1.1499 Y22.5875
G01 X1.0823 Y22.5469
G01 X1.0157 Y22.4975
G01 X0.9542 Y22.4418
G01 X0.8985 Y22.3803
G01 X0.8491 Y22.3137
G01 X0.8084 Y22.2461
G01 X0.8046 Y22.2388
G01 X0.7726 Y22.1712
G01 X0.7695 Y22.1637
G01 X0.7430 Y22.0894
G01 X0.7237 Y22.0129
G01 X0.7221 Y22.0049
G01 X0.7107 Y21.9269
G01 X0.7067 Y21.8481
G01 X0.6874 Y22.1816
G01 X0.6629 Y22.1126
G01 X0.6413 Y22.0262
G01 X0.6278 Y21.9360
G01 X0.6244 Y21.8723
G01 X0.6018 Y21.8917
G01 X0.5904 Y21.9002
G01 X0.5749 Y21.9095
G01 X0.5658 Y21.9140
G01 X0.5565 Y21.9179
G01 X0.5470 Y21.9212
G01 X0.5048 Y21.9342
G01 X0.4901 Y21.9380
G01 X0.4780 Y21.9401
G01 X0.4679 Y21.9412
G01 X0.4577 Y21.9416
G01 X0.4471 Y21.9414
G01 X0.6874 Y22.1816
G00 Z1.0000
G00 X1.1859 Y23.5308
G01 F25.00
G01 Z-0.1000
G01 F120.00
G01 X1.0272 Y23.5308
G01 X0.9924 Y23.5291
G01 X0.9656 Y23.5255
G01 X0.9821 Y23.5718
G01 X0.9850 Y23.5818
G01 X0.9872 Y23.5919
G01 X0.9891 Y23.6043
G01 X0.9901 Y23.6188
G01 X0.9900 Y23.6313
G01 X0.9888 Y23.6466
G01 X1.0368 Y23.6113
G01 X1.1079 Y23.5685
G01 X1.1205 Y23.5617
G01 X1.1859 Y23.5308
G00 Z1.0000
G00 X1.9643 Y23.5527
G01 F25.00
G01 Z-0.1000
G01 F120.00
G01 X1.9424 Y23.5308
G01 X1.9180 Y23.5308
G01 X1.9643 Y23.5527
G00 Z1.0000
G00 X2.1584 Y22.6994
G01 F25.00
G01 Z-0.1000
G01 F120.00
G01 X2.1398 Y22.6545
G01 X2.1359 Y22.6429
G01 X2.1328 Y22.6310
G01 X2.1306 Y22.6190
G01 X2.1292 Y22.6047
G01 X2.1290 Y22.5945
G01 X2.1295 Y22.5708
G01 X2.0670 Y22.6167
G01 X1.9968 Y22.6590
G01 X1.9833 Y22.6663
G01 X1.9181 Y22.6971
G01 X2.1161 Y22.6972
G01 X2.1478 Y22.6986
G01 X2.1584 Y22.6994
G00 Z1.0000
G00 X2.6204 Y21.8894
G01 F25.00
G01 Z-0.1000
G01 F120.00
G01 X2.6284 Y21.8877
G01 X2.6344 Y21.8869
G01 X2.6425 Y21.8866
G01 X2.6486 Y21.8869
G01 X2.6963 Y21.8943
G01 X2.7082 Y21.8970
G01 X2.7176 Y21.9006
G01 X2.7266 Y21.9054
G01 X2.7655 Y21.9304
G01 X2.7719 Y21.9352
G01 X2.7777 Y21.9405
G01 X5.1413 Y24.3026
G01 X5.1489 Y24.3118
G01 X5.1724 Y24.3464
G01 X5.1767 Y24.3536
G01 X5.1795 Y24.3592
G01 X5.1825 Y24.3671
G01 X5.1848 Y24.3752
G01 X5.1937 Y24.4223
G01 X5.1943 Y24.4323
G01 X5.1943 Y44.5706
G01 X5.1961 Y44.6111
G01 X5.2008 Y44.6479
G01 X5.2088 Y44.6833
G01 X5.2199 Y44.7188
G01 X5.2339 Y44.7526
G01 X5.2507 Y44.7851
G01 X5.2706 Y44.8160
G01 X5.2933 Y44.8455
G01 X5.3207 Y44.8756
G01 X8.3861 Y47.9430
G01 X8.3944 Y47.9526
G01 X8.4164 Y47.9843
G01 X8.4197 Y47.9895
G01 X8.4236 Y47.9968
G01 X8.4266 Y48.0044
G01 X8.4285 Y48.0103
G01 X8.4388 Y48.0539
G01 X8.4399 Y48.0642
G01 X8.4396 Y48.0746
G01 X8.4351 Y48.1152
G01 X8.4332 Y48.1251
G01 X8.4006 Y48.2292
G01 X8.3750 Y48.3702
G01 X8.3660 Y48.5130
G01 X8.3750 Y48.6563
G01 X8.4006 Y48.7973
G01 X8.4073 Y48.8188
G01 X8.4095 Y48.8288
G01 X8.4139 Y48.8812
G01 X8.4140 Y48.8893
G01 X8.4133 Y48.8974
G01 X8.4117 Y48.9053
G01 X8.4095 Y48.9131
G01 X8.3915 Y48.9611
G01 X8.3878 Y48.9686
G01 X8.3845 Y48.9740
G01 X8.3795 Y48.9807
G01 X8.3739 Y48.9869
G01 X8.3374 Y49.0216
G01 X8.3310 Y49.0266
G01 X8.3241 Y49.0310
G01 X8.3187 Y49.0338
G01 X8.3112 Y49.0369
G01 X8.2666 Y49.0518
G01 X8.2569 Y49.0544
G01 X8.2449 Y49.0559
G01 X8.2328 Y49.0557
G01 X8.1845 Y49.0502
G01 X8.1783 Y49.0491
G01 X8.1703 Y49.0469
G01 X8.1605 Y49.0430
G01 X8.1514 Y49.0380
G01 X8.1121 Y49.0130
G01 X8.1056 Y49.0082
G01 X8.0995 Y49.0027
G01 X3.2649 Y44.1681
G01 X3.2593 Y44.1619
G01 X3.2555 Y44.1569
G01 X3.2303 Y44.1187
G01 X3.2249 Y44.1078
G01 X3.2222 Y44.1001
G01 X3.2206 Y44.0942
G01 X3.2122 Y44.0516
G01 X3.2114 Y44.0456
G01 X3.2110 Y44.0375
G01 X3.2110 Y23.7920
G01 X3.2093 Y23.7515
G01 X3.2041 Y23.7147
G01 X3.1965 Y23.6792
G01 X3.1851 Y23.6442
G01 X3.1710 Y23.6099
G01 X3.1539 Y23.5771
G01 X3.1345 Y23.5463
G01 X3.1122 Y23.5173
G01 X3.0844 Y23.4872
G01 X2.4166 Y22.8189
G01 X2.3860 Y22.7915
G01 X2.3588 Y22.7704
G01 X2.3004 Y22.7353
G01 X2.2924 Y22.7298
G01 X2.2865 Y22.7248
G01 X2.2535 Y22.6939
G01 X2.2492 Y22.6893
G01 X2.2440 Y22.6828
G01 X2.2376 Y22.6721
G01 X2.2172 Y22.6235
G01 X2.2148 Y22.6157
G01 X2.2132 Y22.6077
G01 X2.2124 Y22.5995
G01 X2.2123 Y22.5934
G01 X2.2137 Y22.5441
G01 X2.2158 Y22.5320
G01 X2.2196 Y22.5204
G01 X2.2414 Y22.4763
G01 X2.2456 Y22.4688
G01 X2.2505 Y22.4619
G01 X2.3212 Y22.3723
G01 X2.3847 Y22.2650
G01 X2.4336 Y22.1504
G01 X2.4682 Y22.0229
G01 X2.4707 Y22.0151
G01 X2.4749 Y22.0058
G01 X2.4957 Y21.9664
G01 X2.5027 Y21.9559
G01 X2.5082 Y21.9495
G01 X2.5127 Y21.9451
G01 X2.5484 Y21.9160
G01 X2.5569 Y21.9099
G01 X2.5661 Y21.9050
G01 X2.5758 Y21.9012
G01 X2.6204 Y21.8894
G01 X2.4485 Y21.6048
G01 X2.4630 Y21.6638
G01 X2.4758 Y21.7499
G01 X2.4768 Y21.7611
G01 X2.4806 Y21.8389
G01 X2.4806 Y21.8491
G01 X2.4798 Y21.8643
G01 X2.5000 Y21.8480
G01 X2.5119 Y21.8397
G01 X2.5265 Y21.8315
G01 X2.5359 Y21.8272
G01 X2.5437 Y21.8241
G01 X2.5576 Y21.8197
G01 X2.5586 Y21.8194
G01 X2.5993 Y21.8087
G01 X2.6082 Y21.8067
G01 X2.6182 Y21.8049
G01 X2.6282 Y21.8038
G01 X2.6384 Y21.8033
G01 X2.6472 Y21.8034
G01 X2.4485 Y21.6048
G00 Z1.0000
G00 X2.1058 Y20.1694
G01 F25.00
G01 Z-0.1000
G01 F120.00
G01 X2.0937 Y20.1263
G01 X2.0918 Y20.1181
G01 X2.0900 Y20.1078
G01 X2.0888 Y20.0974
G01 X2.0883 Y20.0849
G01 X2.0888 Y20.0723
G01 X2.0901 Y20.0600
G01 X2.0721 Y20.0733
G01 X2.0636 Y20.0790
G01 X1.9924 Y20.1216
G01 X1.9824 Y20.1267
G01 X1.9180 Y20.1572
G01 X2.0097 Y20.1572
G01 X2.0423 Y20.1588
G01 X2.0545 Y20.1600
G01 X2.0829 Y20.1643
G01 X2.0929 Y20.1663
G01 X2.1058 Y20.1694
G00 Z1.0000
G00 X0.7067 Y24.3881
G01 F25.00
G01 Z-0.1000
G01 F120.00
G01 X0.7067 Y24.3799
G01 X0.7107 Y24.3011
G01 X0.7228 Y24.2191
G01 X0.7430 Y24.1386
G01 X0.7709 Y24.0605
G01 X0.8064 Y23.9855
G01 X0.8491 Y23.9143
G01 X0.8985 Y23.8477
G01 X0.9542 Y23.7862
G01 X1.0157 Y23.7305
G01 X1.0823 Y23.6811
G01 X1.1534 Y23.6385
G01 X1.2284 Y23.6030
G01 X1.3065 Y23.5751
G01 X1.3870 Y23.5549
G01 X1.4691 Y23.5427
G01 X1.5519 Y23.5387
G01 X1.6348 Y23.5427
G01 X1.7169 Y23.5549
G01 X1.7973 Y23.5751
G01 X1.8754 Y23.6030
G01 X1.9504 Y23.6385
G01 X2.0216 Y23.6811
G01 X2.0882 Y23.7305
G01 X2.1497 Y23.7862
G01 X2.2054 Y23.8477
G01 X2.2548 Y23.9143
G01 X2.2975 Y23.9855
G01 X2.3329 Y24.0605
G01 X2.3609 Y24.1386
G01 X2.3810 Y24.2191
G01 X2.3932 Y24.3011
G01 X2.3973 Y24.3840
G01 X2.3932 Y24.4669
G01 X2.3810 Y24.5489
G01 X2.3609 Y24.6294
G01 X2.3329 Y24.7075
G01 X2.2975 Y24.7825
G01 X2.2548 Y24.8537
G01 X2.2054 Y24.9203
G01 X2.1497 Y24.9818
G01 X2.0882 Y25.0375
G01 X2.0216 Y25.0869
G01 X1.9504 Y25.1295
G01 X1.8754 Y25.1650
G01 X1.7973 Y25.1929
G01 X1.7169 Y25.2131
G01 X1.6348 Y25.2253
G01 X1.5519 Y25.2293
G01 X1.4691 Y25.2253
G01 X1.3870 Y25.2131
G01 X1.3065 Y25.1929
G01 X1.2284 Y25.1650
G01 X1.1534 Y25.1295
G01 X1.0823 Y25.0869
G01 X1.0157 Y25.0375
G01 X0.9542 Y24.9818
G01 X0.8985 Y24.9203
G01 X0.8491 Y24.8537
G01 X0.8064 Y24.7825
G01 X0.7709 Y24.7075
G01 X0.7430 Y24.6294
G01 X0.7228 Y24.5489
G01 X0.7107 Y24.4669
G01 X0.7067 Y24.3881
G00 Z1.0000
G00 X2.3724 Y25.1175
G01 F25.00
G01 Z-0.1000
G01 F120.00
G01 X2.3724 Y24.8192
G01 X2.3669 Y24.8289
G01 X2.3285 Y24.8930
G01 X2.3194 Y24.9066
G01 X2.2692 Y24.9739
G01 X2.2091 Y25.0403
G01 X2.2267 Y25.0414
G01 X2.2370 Y25.0429
G01 X2.2452 Y25.0446
G01 X2.2553 Y25.0473
G01 X2.2632 Y25.0499
G01 X2.2786 Y25.0563
G01 X2.3238 Y25.0794
G01 X2.3377 Y25.0875
G01 X2.3459 Y25.0932
G01 X2.3553 Y25.1007
G01 X2.3642 Y25.1088
G01 X2.3724 Y25.1175
G01 X2.3724 Y26.4888
G01 X2.3724 Y26.1905
G01 X2.3642 Y26.1992
G01 X2.3553 Y26.2073
G01 X2.3459 Y26.2148
G01 X2.3377 Y26.2205
G01 X2.3238 Y26.2286
G01 X2.2786 Y26.2517
G01 X2.2691 Y26.2559
G01 X2.2612 Y26.2588
G01 X2.2452 Y26.2634
G01 X2.2350 Y26.2654
G01 X2.2267 Y26.2666
G01 X2.2091 Y26.2677
G01 X2.2692 Y26.3341
G01 X2.3194 Y26.4014
G01 X2.3285 Y26.4150
G01 X2.3669 Y26.4791
G01 X2.3724 Y26.4888
G00 Z1.0000
G00 X2.3724 Y27.6575
G01 F25.00
G01 Z-0.1000
G01 F120.00
G01 X2.3724 Y27.3592
G01 X2.3669 Y27.3689
G01 X2.3285 Y27.4330
G01 X2.3194 Y27.4466
G01 X2.2692 Y27.5139
G01 X2.2091 Y27.5803
G01 X2.2267 Y27.5814
G01 X2.2370 Y27.5829
G01 X2.2452 Y27.5846
G01 X2.2612 Y27.5892
G01 X2.2710 Y27.5929
G01 X2.2786 Y27.5963
G01 X2.3238 Y27.6194
G01 X2.3377 Y27.6275
G01 X2.3475 Y27.6344
G01 X2.3553 Y27.6407
G01 X2.3642 Y27.6488
G01 X2.3724 Y27.6575
G00 Z1.0000
G00 X2.2091 Y28.8077
G01 F25.00
G01 Z-0.1000
G01 F120.00
G01 X2.2692 Y28.8741
G01 X2.3194 Y28.9414
G01 X2.3285 Y28.9550
G01 X2.3669 Y29.0191
G01 X2.3724 Y29.0288
G01 X2.3724 Y28.7305
G01 X2.3642 Y28.7392
G01 X2.3553 Y28.7473
G01 X2.3459 Y28.7548
G01 X2.3377 Y28.7605
G01 X2.3238 Y28.7686
G01 X2.2786 Y28.7917
G01 X2.2632 Y28.7981
G01 X2.2553 Y28.8007
G01 X2.2452 Y28.8034
G01 X2.2370 Y28.8051
G01 X2.2267 Y28.8066
G01 X2.2091 Y28.8077
G00 Z1.0000
G00 X2.3724 Y30.1975
G01 F25.00
G01 Z-0.1000
G01 F120.00
G01 X2.3724 Y29.8992
G01 X2.3669 Y29.9089
G01 X2.3285 Y29.9730
G01 X2.3194 Y29.9866
G01 X2.2692 Y30.0539
G01 X2.2091 Y30.1203
G01 X2.2267 Y30.1214
G01 X2.2370 Y30.1229
G01 X2.2452 Y30.1246
G01 X2.2553 Y30.1273
G01 X2.2632 Y30.1299
G01 X2.2786 Y30.1363
G01 X2.3238 Y30.1594
G01 X2.3377 Y30.1675
G01 X2.3475 Y30.1744
G01 X2.3553 Y30.1807
G01 X2.3642 Y30.1888
G01 X2.3724 Y30.1975
G01 X2.3724 Y31.5688
G01 X2.3724 Y31.2705
G01 X2.3642 Y31.2792
G01 X2.3553 Y31.2873
G01 X2.3475 Y31.2936
G01 X2.3377 Y31.3005
G01 X2.3238 Y31.3086
G01 X2.2786 Y31.3317
G01 X2.2632 Y31.3381
G01 X2.2553 Y31.3407
G01 X2.2452 Y31.3434
G01 X2.2370 Y31.3451
G01 X2.2267 Y31.3466
G01 X2.2091 Y31.3477
G01 X2.2692 Y31.4141
G01 X2.3194 Y31.4814
G01 X2.3285 Y31.4950
G01 X2.3669 Y31.5591
G01 X2.3724 Y31.5688
G00 Z1.0000
G00 X2.3724 Y32.7375
G01 F25.00
G01 Z-0.1000
G01 F120.00
G01 X2.3724 Y32.4392
G01 X2.3669 Y32.4489
G01 X2.3285 Y32.5130
G01 X2.3194 Y32.5266
G01 X2.2692 Y32.5939
G01 X2.2091 Y32.6603
G01 X2.2267 Y32.6614
G01 X2.2370 Y32.6629
G01 X2.2452 Y32.6646
G01 X2.2612 Y32.6692
G01 X2.2710 Y32.6729
G01 X2.2786 Y32.6763
G01 X2.3238 Y32.6994
G01 X2.3377 Y32.7075
G01 X2.3475 Y32.7144
G01 X2.3553 Y32.7207
G01 X2.3642 Y32.7288
G01 X2.3724 Y32.7375
G01 X2.3724 Y34.0116
G01 X2.3724 Y33.8105
G01 X2.3642 Y33.8192
G01 X2.3553 Y33.8273
G01 X2.3459 Y33.8348
G01 X2.3377 Y33.8405
G01 X2.3238 Y33.8486
G01 X2.2786 Y33.8717
G01 X2.2632 Y33.8781
G01 X2.2533 Y33.8813
G01 X2.2452 Y33.8834
G01 X2.2350 Y33.8854
G01 X2.2267 Y33.8866
G01 X2.2091 Y33.8877
G01 X2.2614 Y33.9453
G01 X2.2726 Y33.9485
G01 X2.2845 Y33.9528
G01 X2.2959 Y33.9580
G01 X2.3070 Y33.9640
G01 X2.3521 Y33.9943
G01 X2.3631 Y34.0030
G01 X2.3724 Y34.0116
G00 Z1.0000
G00 X2.3724 Y35.2775
G01 F25.00
G01 Z-0.1000
G01 F120.00
G01 X2.3724 Y35.0764
G01 X2.3631 Y35.0850
G01 X2.3521 Y35.0937
G01 X2.3070 Y35.1240
G01 X2.2959 Y35.1300
G01 X2.2845 Y35.1352
G01 X2.2727 Y35.1395
G01 X2.2615 Y35.1427
G01 X2.2091 Y35.2003
G01 X2.2267 Y35.2014
G01 X2.2350 Y35.2026
G01 X2.2452 Y35.2046
G01 X2.2533 Y35.2067
G01 X2.2632 Y35.2099
G01 X2.2786 Y35.2163
G01 X2.3238 Y35.2394
G01 X2.3377 Y35.2475
G01 X2.3475 Y35.2544
G01 X2.3553 Y35.2607
G01 X2.3642 Y35.2688
G01 X2.3724 Y35.2775
G00 Z1.0000
G00 X2.2091 Y36.4277
G01 F25.00
G01 Z-0.1000
G01 F120.00
G01 X2.2692 Y36.4941
G01 X2.3194 Y36.5614
G01 X2.3285 Y36.5750
G01 X2.3669 Y36.6391
G01 X2.3724 Y36.6488
G01 X2.3724 Y36.3505
G01 X2.3642 Y36.3592
G01 X2.3553 Y36.3673
G01 X2.3459 Y36.3748
G01 X2.3377 Y36.3805
G01 X2.3238 Y36.3886
G01 X2.2786 Y36.4117
G01 X2.2632 Y36.4181
G01 X2.2533 Y36.4213
G01 X2.2452 Y36.4234
G01 X2.2350 Y36.4254
G01 X2.2267 Y36.4266
G01 X2.2091 Y36.4277
G01 X2.3283 Y36.7505
G01 X2.4557 Y36.7505
G01 X2.4557 Y23.9262
G01 X1.9769 Y23.4474
G01 X1.0302 Y23.4474
G01 X1.0016 Y23.4461
G01 X0.9935 Y23.4453
G01 X0.9652 Y23.4410
G01 X0.9374 Y23.4342
G01 X0.9295 Y23.4318
G01 X0.9026 Y23.4221
G01 X0.8767 Y23.4099
G01 X0.8695 Y23.4061
G01 X0.8433 Y23.3901
G01 X0.8187 Y23.3717
G01 X0.7944 Y23.3498
G01 X-0.8433 Y21.7120
G01 X-0.8638 Y21.6893
G01 X-0.8810 Y21.6663
G01 X-0.8855 Y21.6595
G01 X-0.9001 Y21.6349
G01 X-0.9125 Y21.6091
G01 X-0.9156 Y21.6015
G01 X-0.9252 Y21.5745
G01 X-0.9327 Y21.5448
G01 X-0.9379 Y21.5104
G01 X-0.9395 Y21.4777
G01 X-0.9395 Y9.4015
G01 X-0.9379 Y9.3688
G01 X-0.9327 Y9.3345
G01 X-0.9252 Y9.3047
G01 X-0.9156 Y9.2777
G01 X-0.9125 Y9.2702
G01 X-0.9001 Y9.2443
G01 X-0.8855 Y9.2197
G01 X-0.8810 Y9.2129
G01 X-0.8638 Y9.1900
G01 X-0.8433 Y9.1672
G01 X0.6857 Y7.6382
G01 X0.7100 Y7.6162
G01 X0.7363 Y7.5967
G01 X0.7643 Y7.5799
G01 X0.7920 Y7.5667
G01 X0.8247 Y7.5549
G01 X0.8565 Y7.5469
G01 X0.8888 Y7.5421
G01 X0.9215 Y7.5405
G01 X4.3503 Y7.5405
G01 X6.9196 Y4.9712
G01 X6.9408 Y4.9519
G01 X6.9471 Y4.9467
G01 X6.9702 Y4.9297
G01 X6.9982 Y4.9129
G01 X7.0278 Y4.8989
G01 X7.0548 Y4.8891
G01 X7.0626 Y4.8868
G01 X7.0904 Y4.8799
G01 X7.1187 Y4.8756
G01 X7.1268 Y4.8748
G01 X7.1534 Y4.8735
G01 X9.1346 Y4.8735
G01 X9.1673 Y4.8751
G01 X9.2017 Y4.8803
G01 X9.2314 Y4.8879
G01 X9.2584 Y4.8974
G01 X9.2660 Y4.9005
G01 X9.2918 Y4.9129
G01 X9.3164 Y4.9275
G01 X9.3232 Y4.9321
G01 X9.3462 Y4.9492
G01 X9.3689 Y4.9697
G01 X10.1516 Y5.7524
G01 X10.1722 Y5.7752
G01 X10.1917 Y5.8015
G01 X10.2085 Y5.8296
G01 X10.2208 Y5.8554
G01 X10.2240 Y5.8630
G01 X10.2335 Y5.8899
G01 X10.2415 Y5.9217
G01 X10.2463 Y5.9541
G01 X10.2478 Y5.9847
G01 X10.2478 Y7.7716
G01 X10.2463 Y7.8023
G01 X10.2415 Y7.8346
G01 X10.2335 Y7.8664
G01 X10.2240 Y7.8934
G01 X10.2208 Y7.9009
G01 X10.2103 Y7.9231
G01 X10.2065 Y7.9303
G01 X10.1917 Y7.9548
G01 X10.1709 Y7.9827
G01 X10.1502 Y8.0054
G01 X9.4518 Y8.7038
G01 X9.4759 Y8.7716
G01 X9.4961 Y8.8521
G01 X9.5083 Y8.9341
G01 X9.5123 Y9.0170
G01 X9.5083 Y9.0999
G01 X9.4961 Y9.1819
G01 X9.4759 Y9.2624
G01 X9.4495 Y9.3367
G01 X9.4463 Y9.3442
G01 X9.4125 Y9.4155
G01 X9.3721 Y9.4832
G01 X9.3675 Y9.4900
G01 X9.3230 Y9.5501
G01 X9.3178 Y9.5564
G01 X9.2647 Y9.6148
G01 X9.2033 Y9.6705
G01 X9.1366 Y9.7199
G01 X9.0637 Y9.7635
G01 X8.9942 Y9.7963
G01 X8.9867 Y9.7995
G01 X8.9124 Y9.8259
G01 X8.8359 Y9.8452
G01 X8.8279 Y9.8468
G01 X8.7498 Y9.8583
G01 X8.6711 Y9.8622
G01 X8.6629 Y9.8622
G01 X8.5841 Y9.8583
G01 X8.5061 Y9.8468
G01 X8.4981 Y9.8452
G01 X8.4216 Y9.8259
G01 X8.3473 Y9.7995
G01 X8.3397 Y9.7963
G01 X8.2685 Y9.7625
G01 X8.2008 Y9.7221
G01 X8.1940 Y9.7175
G01 X8.1307 Y9.6705
G01 X8.0722 Y9.6176
G01 X8.0664 Y9.6118
G01 X8.0135 Y9.5533
G01 X7.9665 Y9.4900
G01 X7.9619 Y9.4832
G01 X7.9215 Y9.4155
G01 X7.8860 Y9.3405
G01 X7.8593 Y9.2663
G01 X7.8569 Y9.2584
G01 X7.8379 Y9.1819
G01 X7.8262 Y9.1039
G01 X7.8254 Y9.0958
G01 X7.8217 Y9.0190
G01 X7.8257 Y8.9341
G01 X7.8372 Y8.8561
G01 X7.8388 Y8.8481
G01 X7.8580 Y8.7716
G01 X7.8845 Y8.6973
G01 X7.8876 Y8.6898
G01 X7.9196 Y8.6222
G01 X7.9235 Y8.6149
G01 X7.9641 Y8.5473
G01 X8.0135 Y8.4807
G01 X8.0692 Y8.4192
G01 X8.1323 Y8.3623
G01 X8.1940 Y8.3165
G01 X8.2008 Y8.3119
G01 X8.2685 Y8.2715
G01 X8.3397 Y8.2377
G01 X8.3473 Y8.2345
G01 X8.4216 Y8.2081
G01 X8.4981 Y8.1888
G01 X8.5061 Y8.1872
G01 X8.5841 Y8.1757
G01 X8.6629 Y8.1718
G01 X8.6711 Y8.1718
G01 X8.7498 Y8.1757
G01 X8.8279 Y8.1872
G01 X8.8359 Y8.1888
G01 X8.9124 Y8.2081
G01 X8.9802 Y8.2322
G01 X9.5809 Y7.6314
G01 X9.5809 Y6.1249
G01 X8.9965 Y5.5404
G01 X7.2936 Y5.5404
G01 X4.7242 Y8.1098
G01 X4.7000 Y8.1317
G01 X4.6771 Y8.1489
G01 X4.6703 Y8.1534
G01 X4.6456 Y8.1681
G01 X4.6198 Y8.1804
G01 X4.6122 Y8.1835
G01 X4.5872 Y8.1925
G01 X4.5575 Y8.2001
G01 X4.5495 Y8.2017
G01 X4.5211 Y8.2058
G01 X4.4884 Y8.2074
G01 X1.0596 Y8.2074
G01 X-0.2726 Y9.5397
G01 X-0.2726 Y21.3396
G01 X1.1684 Y22.7805
G01 X2.1171 Y22.7805
G01 X2.1477 Y22.7821
G01 X2.1761 Y22.7862
G01 X2.1841 Y22.7878
G01 X2.2119 Y22.7949
G01 X2.2389 Y22.8044
G01 X2.2464 Y22.8075
G01 X2.2686 Y22.8180
G01 X2.2758 Y22.8219
G01 X2.2969 Y22.8345
G01 X2.3037 Y22.8391
G01 X2.3266 Y22.8562
G01 X2.3494 Y22.8767
G01 X3.0264 Y23.5538
G01 X3.0470 Y23.5765
G01 X3.0641 Y23.5995
G01 X3.0686 Y23.6063
G01 X3.0833 Y23.6309
G01 X3.0973 Y23.6605
G01 X3.1070 Y23.6874
G01 X3.1094 Y23.6952
G01 X3.1154 Y23.7190
G01 X3.1169 Y23.7271
G01 X3.1210 Y23.7554
G01 X3.1227 Y23.7881
G01 X3.1227 Y44.1506
G01 X9.0492 Y50.0771
G01 X9.1330 Y50.0376
G01 X9.2346 Y50.0012
G01 X9.3392 Y49.9750
G01 X9.4419 Y49.9597
G01 X9.4500 Y49.9589
G01 X9.5496 Y49.9540
G01 X9.5578 Y49.9540
G01 X9.6615 Y49.9592
G01 X9.7642 Y49.9743
G01 X9.7722 Y49.9759
G01 X9.8689 Y50.0001
G01 X9.8767 Y50.0025
G01 X9.9744 Y50.0376
G01 X10.0719 Y50.0837
G01 X10.1610 Y50.1370
G01 X10.1678 Y50.1415
G01 X10.2511 Y50.2034
G01 X10.3311 Y50.2759
G01 X10.4008 Y50.3527
G01 X10.4060 Y50.3590
G01 X10.4678 Y50.4425
G01 X10.5233 Y50.5350
G01 X10.5694 Y50.6325
G01 X10.6044 Y50.7302
G01 X10.6068 Y50.7380
G01 X10.6310 Y50.8348
G01 X10.6326 Y50.8428
G01 X10.6478 Y50.9455
G01 X10.6530 Y51.0491
G01 X10.6530 Y51.0573
G01 X10.6481 Y51.1569
G01 X10.6473 Y51.1650
G01 X10.6319 Y51.2677
G01 X10.6057 Y51.3724
G01 X10.5694 Y51.4739
G01 X10.5297 Y51.5581
G01 X11.5680 Y52.5949
G01 X11.5859 Y52.6146
G01 X11.5911 Y52.6210
G01 X11.6081 Y52.6440
G01 X11.6229 Y52.6686
G01 X11.6268 Y52.6758
G01 X11.6390 Y52.7017
G01 X11.6487 Y52.7287
G01 X11.6511 Y52.7365
G01 X11.6580 Y52.7643
G01 X11.6623 Y52.7927
G01 X11.6631 Y52.8008
G01 X11.6644 Y52.8295
G01 X11.6644 Y63.3469
G01 X11.6912 Y63.4221
G01 X11.7135 Y63.5110
G01 X11.7269 Y63.6016
G01 X11.7313 Y63.6890
G01 X11.7313 Y63.6971
G01 X11.7269 Y63.7845
G01 X11.7142 Y63.8711
G01 X11.7126 Y63.8791
G01 X11.6923 Y63.9600
G01 X11.6899 Y63.9679
G01 X11.6604 Y64.0502
G01 X11.6212 Y64.1330
G01 X11.5741 Y64.2116
G01 X11.5221 Y64.2819
G01 X11.5169 Y64.2882
G01 X11.4608 Y64.3501
G01 X11.4551 Y64.3558
G01 X11.3902 Y64.4145
G01 X11.3166 Y64.4691
G01 X11.2416 Y64.5142
G01 X11.2344 Y64.5180
G01 X11.1552 Y64.5553
G01 X11.0690 Y64.5862
G01 X10.9841 Y64.6076
G01 X10.9761 Y64.6092
G01 X10.8895 Y64.6219
G01 X10.8021 Y64.6263
G01 X10.7940 Y64.6263
G01 X10.7066 Y64.6219
G01 X10.6160 Y64.6085
G01 X10.5271 Y64.5862
G01 X10.4447 Y64.5568
G01 X10.4371 Y64.5537
G01 X10.3581 Y64.5162
G01 X10.2830 Y64.4713
G01 X10.2762 Y64.4667
G01 X10.2092 Y64.4170
G01 X10.2028 Y64.4119
G01 X10.1381 Y64.3530
G01 X10.0766 Y64.2852
G01 X10.0220 Y64.2116
G01 X9.9769 Y64.1366
G01 X9.9731 Y64.1294
G01 X9.9357 Y64.0502
G01 X9.9062 Y63.9679
G01 X9.9038 Y63.9600
G01 X9.8835 Y63.8791
G01 X9.8819 Y63.8711
G01 X9.8692 Y63.7845
G01 X9.8647 Y63.6930
G01 X9.8692 Y63.6016
G01 X9.8819 Y63.5150
G01 X9.8835 Y63.5070
G01 X9.9038 Y63.4260
G01 X9.9062 Y63.4182
G01 X9.9357 Y63.3359
G01 X9.9731 Y63.2567
G01 X9.9769 Y63.2495
G01 X10.0220 Y63.1745
G01 X10.0766 Y63.1009
G01 X10.1381 Y63.0331
G01 X10.2059 Y62.9716
G01 X10.2795 Y62.9170
G01 X10.3545 Y62.8719
G01 X10.3617 Y62.8681
G01 X10.4409 Y62.8307
G01 X10.5232 Y62.8012
G01 X10.5311 Y62.7988
G01 X10.6120 Y62.7785
G01 X10.6200 Y62.7769
G01 X10.7066 Y62.7642
G01 X10.7980 Y62.7597
G01 X10.8916 Y62.7644
G01 X10.9781 Y62.7772
G01 X10.9975 Y62.7819
G01 X10.9975 Y52.9677
G01 X10.0579 Y52.0295
G01 X9.9744 Y52.0689
G01 X9.8728 Y52.1052
G01 X9.7682 Y52.1315
G01 X9.6655 Y52.1468
G01 X9.6574 Y52.1476
G01 X9.5578 Y52.1525
G01 X9.5496 Y52.1525
G01 X9.4460 Y52.1473
G01 X9.3433 Y52.1322
G01 X9.3352 Y52.1306
G01 X9.2385 Y52.1063
G01 X9.2307 Y52.1040
G01 X9.1330 Y52.0689
G01 X9.0355 Y52.0228
G01 X8.9464 Y51.9695
G01 X8.9396 Y51.9650
G01 X8.8563 Y51.9030
G01 X8.7764 Y51.8306
G01 X8.7066 Y51.7537
G01 X8.7014 Y51.7474
G01 X8.6396 Y51.6640
G01 X8.5842 Y51.5715
G01 X8.5380 Y51.4739
G01 X8.5030 Y51.3762
G01 X8.5006 Y51.3684
G01 X8.4764 Y51.2717
G01 X8.4748 Y51.2637
G01 X8.4597 Y51.1610
G01 X8.4545 Y51.0573
G01 X8.4545 Y51.0491
G01 X8.4594 Y50.9496
G01 X8.4602 Y50.9414
G01 X8.4755 Y50.8388
G01 X8.5017 Y50.7341
G01 X8.5380 Y50.6325
G01 X8.5776 Y50.5487
G01 X2.5534 Y44.5245
G01 X2.5341 Y44.5033
G01 X2.5289 Y44.4970
G01 X2.5119 Y44.4739
G01 X2.4951 Y44.4459
G01 X2.4827 Y44.4200
G01 X2.4796 Y44.4125
G01 X2.4701 Y44.3855
G01 X2.4630 Y44.3577
G01 X2.4614 Y44.3497
G01 X2.4573 Y44.3214
G01 X2.4557 Y44.2887
G01 X2.4557 Y37.4174
G01 X2.3283 Y37.4174
G01 X2.2975 Y37.4825
G01 X2.2548 Y37.5537
G01 X2.2054 Y37.6203
G01 X2.1497 Y37.6818
G01 X2.0882 Y37.7375
G01 X2.0216 Y37.7869
G01 X1.9504 Y37.8295
G01 X1.8792 Y37.8633
G01 X1.8716 Y37.8665
G01 X1.8012 Y37.8917
G01 X1.7934 Y37.8940
G01 X1.7169 Y37.9131
G01 X1.6348 Y37.9253
G01 X1.5519 Y37.9293
G01 X1.4732 Y37.9256
G01 X1.4650 Y37.9248
G01 X1.3870 Y37.9131
G01 X1.3065 Y37.8929
G01 X1.2323 Y37.8665
G01 X1.2247 Y37.8633
G01 X1.1571 Y37.8314
G01 X1.1499 Y37.8275
G01 X1.0823 Y37.7869
G01 X1.0157 Y37.7375
G01 X0.9542 Y37.6818
G01 X0.8985 Y37.6203
G01 X0.8491 Y37.5537
G01 X0.8084 Y37.4861
G01 X0.8046 Y37.4788
G01 X0.7726 Y37.4112
G01 X0.7695 Y37.4037
G01 X0.7430 Y37.3294
G01 X0.7228 Y37.2489
G01 X0.7107 Y37.1669
G01 X0.7066 Y37.0860
G01 X0.7107 Y37.0011
G01 X0.7221 Y36.9231
G01 X0.7237 Y36.9151
G01 X0.7419 Y36.8426
G01 X0.7443 Y36.8347
G01 X0.7709 Y36.7605
G01 X0.8064 Y36.6855
G01 X0.8491 Y36.6143
G01 X0.8985 Y36.5477
G01 X0.9542 Y36.4862
G01 X1.0157 Y36.4305
G01 X1.0823 Y36.3811
G01 X1.1499 Y36.3405
G01 X1.1571 Y36.3366
G01 X1.2247 Y36.3047
G01 X1.2323 Y36.3015
G01 X1.3065 Y36.2751
G01 X1.3870 Y36.2549
G01 X1.4691 Y36.2427
G01 X1.5479 Y36.2388
G01 X1.5560 Y36.2388
G01 X1.6307 Y36.2424
G01 X1.6389 Y36.2432
G01 X1.7169 Y36.2549
G01 X1.7973 Y36.2751
G01 X1.8754 Y36.3030
G01 X1.9504 Y36.3385
G01 X2.0216 Y36.3811
G01 X2.0850 Y36.4280
G01 X2.0913 Y36.4332
G01 X2.1467 Y36.4834
G01 X2.1525 Y36.4892
G01 X2.2054 Y36.5477
G01 X2.2548 Y36.6143
G01 X2.2975 Y36.6855
G01 X2.3283 Y36.7505
G00 Z1.0000
G00 X2.3724 Y37.8175
G01 F25.00
G01 Z-0.1000
G01 F120.00
G01 X2.3724 Y37.5192
G01 X2.3669 Y37.5289
G01 X2.3285 Y37.5930
G01 X2.3194 Y37.6066
G01 X2.2692 Y37.6739
G01 X2.2091 Y37.7403
G01 X2.2267 Y37.7414
G01 X2.2350 Y37.7426
G01 X2.2452 Y37.7446
G01 X2.2533 Y37.7467
G01 X2.2632 Y37.7499
G01 X2.2786 Y37.7563
G01 X2.3238 Y37.7794
G01 X2.3377 Y37.7875
G01 X2.3475 Y37.7944
G01 X2.3553 Y37.8007
G01 X2.3642 Y37.8088
G01 X2.3724 Y37.8175
G01 X2.3724 Y39.1888
G01 X2.3724 Y38.8905
G01 X2.3711 Y38.8919
G01 X2.3698 Y38.8934
G01 X2.3684 Y38.8948
G01 X2.3642 Y38.8992
G01 X2.3553 Y38.9073
G01 X2.3459 Y38.9148
G01 X2.3377 Y38.9205
G01 X2.3238 Y38.9286
G01 X2.2786 Y38.9517
G01 X2.2632 Y38.9581
G01 X2.2533 Y38.9613
G01 X2.2452 Y38.9634
G01 X2.2350 Y38.9654
G01 X2.2267 Y38.9666
G01 X2.2091 Y38.9677
G01 X2.2692 Y39.0341
G01 X2.3194 Y39.1014
G01 X2.3285 Y39.1150
G01 X2.3669 Y39.1791
G01 X2.3724 Y39.1888
G00 Z1.0000
G00 X2.3724 Y40.3575
G01 F25.00
G01 Z-0.1000
G01 F120.00
G01 X2.3724 Y40.0592
G01 X2.3669 Y40.0689
G01 X2.3285 Y40.1330
G01 X2.3194 Y40.1466
G01 X2.2692 Y40.2139
G01 X2.2091 Y40.2803
G01 X2.2267 Y40.2814
G01 X2.2350 Y40.2826
G01 X2.2452 Y40.2846
G01 X2.2533 Y40.2867
G01 X2.2632 Y40.2899
G01 X2.2786 Y40.2963
G01 X2.3238 Y40.3194
G01 X2.3377 Y40.3275
G01 X2.3475 Y40.3344
G01 X2.3553 Y40.3407
G01 X2.3642 Y40.3488
G01 X2.3724 Y40.3575
G01 X2.3724 Y41.7288
G01 X2.3724 Y41.4305
G01 X2.3711 Y41.4319
G01 X2.3698 Y41.4334
G01 X2.3684 Y41.4348
G01 X2.3642 Y41.4392
G01 X2.3553 Y41.4473
G01 X2.3459 Y41.4548
G01 X2.3377 Y41.4605
G01 X2.3238 Y41.4686
G01 X2.2786 Y41.4917
G01 X2.2632 Y41.4981
G01 X2.2533 Y41.5013
G01 X2.2452 Y41.5034
G01 X2.2370 Y41.5051
G01 X2.2267 Y41.5066
G01 X2.2091 Y41.5077
G01 X2.2692 Y41.5741
G01 X2.3194 Y41.6414
G01 X2.3285 Y41.6550
G01 X2.3669 Y41.7191
G01 X2.3724 Y41.7288
G00 Z1.0000
G00 X2.3724 Y42.8975
G01 F25.00
G01 Z-0.1000
G01 F120.00
G01 X2.3724 Y42.5992
G01 X2.3669 Y42.6089
G01 X2.3285 Y42.6730
G01 X2.3194 Y42.6866
G01 X2.2692 Y42.7539
G01 X2.2091 Y42.8203
G01 X2.2267 Y42.8214
G01 X2.2370 Y42.8229
G01 X2.2452 Y42.8246
G01 X2.2533 Y42.8267
G01 X2.2632 Y42.8299
G01 X2.2786 Y42.8363
G01 X2.3238 Y42.8594
G01 X2.3377 Y42.8675
G01 X2.3459 Y42.8732
G01 X2.3553 Y42.8807
G01 X2.3642 Y42.8888
G01 X2.3724 Y42.8975
G01 X2.3724 Y44.2688
G01 X2.3724 Y43.9705
G01 X2.3711 Y43.9719
G01 X2.3698 Y43.9734
G01 X2.3684 Y43.9748
G01 X2.3642 Y43.9792
G01 X2.3553 Y43.9873
G01 X2.3475 Y43.9936
G01 X2.3377 Y44.0005
G01 X2.3238 Y44.0086
G01 X2.2786 Y44.0317
G01 X2.2710 Y44.0351
G01 X2.2612 Y44.0388
G01 X2.2452 Y44.0434
G01 X2.2350 Y44.0454
G01 X2.2267 Y44.0466
G01 X2.2091 Y44.0477
G01 X2.2692 Y44.1141
G01 X2.3194 Y44.1814
G01 X2.3285 Y44.1950
G01 X2.3669 Y44.2591
G01 X2.3724 Y44.2688
G01 X2.5273 Y44.9717
G01 X8.3222 Y50.7644
G01 X8.3390 Y50.6970
G01 X8.3428 Y50.6838
G01 X8.3780 Y50.5848
G01 X2.5611 Y44.7680
G01 X2.5598 Y44.7950
G01 X2.5586 Y44.8083
G01 X2.5460 Y44.8934
G01 X2.5423 Y44.9114
G01 X2.5273 Y44.9717
G01 X2.6196 Y44.9462
G01 X7.3516 Y49.6763
G01 X2.6199 Y44.9447
G01 X2.6196 Y44.9462
G00 Z1.0000
G00 X1.8653 Y45.4887
G01 F25.00
G01 Z-0.1000
G01 F120.00
G01 X1.7973 Y45.5129
G01 X1.7169 Y45.5331
G01 X1.6348 Y45.5453
G01 X1.5519 Y45.5493
G01 X1.4691 Y45.5453
G01 X1.3870 Y45.5331
G01 X1.3065 Y45.5129
G01 X1.2284 Y45.4850
G01 X1.1534 Y45.4495
G01 X1.0823 Y45.4069
G01 X1.0157 Y45.3575
G01 X0.9542 Y45.3018
G01 X0.8985 Y45.2403
G01 X0.8491 Y45.1737
G01 X0.8064 Y45.1025
G01 X0.7709 Y45.0275
G01 X0.7430 Y44.9494
G01 X0.7228 Y44.8689
G01 X0.7107 Y44.7869
G01 X0.7066 Y44.7040
G01 X0.7107 Y44.6211
G01 X0.7228 Y44.5391
G01 X0.7430 Y44.4586
G01 X0.7709 Y44.3805
G01 X0.8064 Y44.3055
G01 X0.8491 Y44.2343
G01 X0.8985 Y44.1677
G01 X0.9542 Y44.1062
G01 X1.0157 Y44.0505
G01 X1.0823 Y44.0011
G01 X1.1534 Y43.9585
G01 X1.2284 Y43.9230
G01 X1.3065 Y43.8951
G01 X1.3830 Y43.8758
G01 X1.3911 Y43.8742
G01 X1.4691 Y43.8627
G01 X1.5519 Y43.8587
G01 X1.6307 Y43.8624
G01 X1.6389 Y43.8632
G01 X1.7169 Y43.8749
G01 X1.7973 Y43.8951
G01 X1.8716 Y43.9215
G01 X1.8792 Y43.9247
G01 X1.9504 Y43.9585
G01 X2.0181 Y43.9989
G01 X2.0249 Y44.0035
G01 X2.0882 Y44.0505
G01 X2.1497 Y44.1062
G01 X2.2027 Y44.1646
G01 X2.2079 Y44.1709
G01 X2.2548 Y44.2343
G01 X2.2975 Y44.3055
G01 X2.3329 Y44.3805
G01 X2.3596 Y44.4547
G01 X2.3620 Y44.4626
G01 X2.3810 Y44.5391
G01 X2.3927 Y44.6171
G01 X2.3935 Y44.6252
G01 X2.3973 Y44.7040
G01 X2.3932 Y44.7869
G01 X2.3817 Y44.8649
G01 X2.3802 Y44.8729
G01 X2.3609 Y44.9494
G01 X2.3368 Y45.0170
G01 X8.3231 Y51.0010
G01 X8.3451 Y51.0253
G01 X8.3623 Y51.0482
G01 X8.3668 Y51.0550
G01 X8.3824 Y51.0815
G01 X8.3938 Y51.1055
G01 X8.3969 Y51.1130
G01 X8.4065 Y51.1400
G01 X8.4135 Y51.1678
G01 X8.4151 Y51.1758
G01 X8.4192 Y51.2042
G01 X8.4208 Y51.2369
G01 X8.4208 Y63.1663
G01 X10.4531 Y65.1985
G01 X11.9548 Y65.1985
G01 X12.7421 Y64.4112
G01 X12.6781 Y64.3530
G01 X12.6192 Y64.2882
G01 X12.6140 Y64.2819
G01 X12.5620 Y64.2116
G01 X12.5169 Y64.1366
G01 X12.5131 Y64.1294
G01 X12.4757 Y64.0502
G01 X12.4462 Y63.9679
G01 X12.4438 Y63.9600
G01 X12.4226 Y63.8751
G01 X12.4097 Y63.7886
G01 X12.4089 Y63.7804
G01 X12.4047 Y63.6930
G01 X12.4089 Y63.6056
G01 X12.4097 Y63.5975
G01 X12.4223 Y63.5130
G01 X12.4438 Y63.4260
G01 X12.4462 Y63.4182
G01 X12.4757 Y63.3359
G01 X12.5131 Y63.2567
G01 X12.5169 Y63.2495
G01 X12.5620 Y63.1745
G01 X12.6179 Y63.0994
G01 X12.6781 Y63.0331
G01 X12.7428 Y62.9742
G01 X12.7492 Y62.9690
G01 X12.8178 Y62.9181
G01 X12.8999 Y62.8690
G01 X12.9790 Y62.8315
G01 X13.0046 Y62.8221
G01 X13.0046 Y52.4357
G01 X10.0583 Y49.4894
G01 X9.9744 Y49.5289
G01 X9.8728 Y49.5652
G01 X9.7682 Y49.5915
G01 X9.6655 Y49.6068
G01 X9.6574 Y49.6076
G01 X9.5578 Y49.6125
G01 X9.5496 Y49.6125
G01 X9.4460 Y49.6073
G01 X9.3433 Y49.5922
G01 X9.3352 Y49.5906
G01 X9.2385 Y49.5663
G01 X9.2307 Y49.5640
G01 X9.1330 Y49.5289
G01 X9.0355 Y49.4828
G01 X8.9464 Y49.4295
G01 X8.9396 Y49.4250
G01 X8.8563 Y49.3630
G01 X8.7764 Y49.2906
G01 X8.7066 Y49.2137
G01 X8.7014 Y49.2074
G01 X8.6396 Y49.1240
G01 X8.5842 Y49.0315
G01 X8.5380 Y48.9339
G01 X8.5030 Y48.8362
G01 X8.5006 Y48.8284
G01 X8.4764 Y48.7317
G01 X8.4748 Y48.7237
G01 X8.4597 Y48.6210
G01 X8.4545 Y48.5173
G01 X8.4545 Y48.5091
G01 X8.4594 Y48.4096
G01 X8.4602 Y48.4014
G01 X8.4755 Y48.2988
G01 X8.5017 Y48.1941
G01 X8.5380 Y48.0925
G01 X8.5772 Y48.0094
G01 X5.3801 Y44.8102
G01 X5.3581 Y44.7859
G01 X5.3386 Y44.7597
G01 X5.3218 Y44.7316
G01 X5.3078 Y44.7020
G01 X5.2968 Y44.6712
G01 X5.2889 Y44.6395
G01 X5.2841 Y44.6071
G01 X5.2825 Y44.5744
G01 X5.2825 Y24.3190
G01 X1.8685 Y20.9075
G01 X0.8946 Y20.9074
G01 X0.8639 Y20.9059
G01 X0.8356 Y20.9018
G01 X0.8276 Y20.9002
G01 X0.7998 Y20.8931
G01 X0.7728 Y20.8836
G01 X0.7653 Y20.8804
G01 X0.7412 Y20.8690
G01 X0.7148 Y20.8535
G01 X0.7080 Y20.8489
G01 X0.6851 Y20.8318
G01 X0.6623 Y20.8112
G01 X-0.0072 Y20.1418
G01 X-0.0265 Y20.1206
G01 X-0.0317 Y20.1143
G01 X-0.0463 Y20.0946
G01 X-0.0509 Y20.0878
G01 X-0.0655 Y20.0632
G01 X-0.0795 Y20.0336
G01 X-0.0905 Y20.0028
G01 X-0.0976 Y19.9750
G01 X-0.0992 Y19.9670
G01 X-0.1028 Y19.9427
G01 X-0.1036 Y19.9346
G01 X-0.1049 Y19.9060
G01 X-0.1049 Y11.2649
G01 X-0.1036 Y11.2363
G01 X-0.1028 Y11.2281
G01 X-0.0985 Y11.1998
G01 X-0.0905 Y11.1681
G01 X-0.0810 Y11.1411
G01 X-0.0778 Y11.1335
G01 X-0.0655 Y11.1077
G01 X-0.0498 Y11.0813
G01 X-0.0292 Y11.0533
G01 X-0.0072 Y11.0291
G01 X0.8452 Y10.1768
G01 X0.8680 Y10.1562
G01 X0.8909 Y10.1391
G01 X0.8977 Y10.1345
G01 X0.9223 Y10.1199
G01 X0.9482 Y10.1076
G01 X0.9557 Y10.1044
G01 X0.9827 Y10.0949
G01 X1.0125 Y10.0874
G01 X1.0468 Y10.0821
G01 X1.0795 Y10.0805
G01 X4.5914 Y10.0805
G01 X7.8821 Y6.7898
G01 X7.8580 Y6.7224
G01 X7.8388 Y6.6459
G01 X7.8372 Y6.6379
G01 X7.8257 Y6.5599
G01 X7.8217 Y6.4811
G01 X7.8217 Y6.4729
G01 X7.8257 Y6.3941
G01 X7.8379 Y6.3121
G01 X7.8569 Y6.2356
G01 X7.8593 Y6.2277
G01 X7.8860 Y6.1535
G01 X7.9215 Y6.0785
G01 X7.9619 Y6.0108
G01 X7.9665 Y6.0040
G01 X8.0135 Y5.9407
G01 X8.0678 Y5.8807
G01 X8.1307 Y5.8235
G01 X8.1940 Y5.7765
G01 X8.2008 Y5.7719
G01 X8.2685 Y5.7315
G01 X8.3397 Y5.6977
G01 X8.3473 Y5.6945
G01 X8.4216 Y5.6681
G01 X8.5021 Y5.6479
G01 X8.5801 Y5.6362
G01 X8.5882 Y5.6354
G01 X8.6670 Y5.6317
G01 X8.7458 Y5.6354
G01 X8.7539 Y5.6362
G01 X8.8299 Y5.6475
G01 X8.9124 Y5.6681
G01 X8.9867 Y5.6945
G01 X8.9942 Y5.6977
G01 X9.0655 Y5.7315
G01 X9.1332 Y5.7719
G01 X9.1400 Y5.7765
G01 X9.2033 Y5.8235
G01 X9.2618 Y5.8764
G01 X9.2676 Y5.8822
G01 X9.3205 Y5.9407
G01 X9.3675 Y6.0040
G01 X9.3721 Y6.0108
G01 X9.4125 Y6.0785
G01 X9.4463 Y6.1498
G01 X9.4495 Y6.1573
G01 X9.4759 Y6.2316
G01 X9.4952 Y6.3081
G01 X9.4968 Y6.3161
G01 X9.5083 Y6.3941
G01 X9.5122 Y6.4729
G01 X9.5122 Y6.4811
G01 X9.5083 Y6.5599
G01 X9.4968 Y6.6379
G01 X9.4952 Y6.6459
G01 X9.4759 Y6.7224
G01 X9.4495 Y6.7967
G01 X9.4463 Y6.8042
G01 X9.4125 Y6.8755
G01 X9.3721 Y6.9432
G01 X9.3675 Y6.9500
G01 X9.3217 Y7.0117
G01 X9.2676 Y7.0718
G01 X9.2618 Y7.0776
G01 X9.2033 Y7.1305
G01 X9.1366 Y7.1799
G01 X9.0655 Y7.2225
G01 X8.9942 Y7.2563
G01 X8.9867 Y7.2595
G01 X8.9163 Y7.2847
G01 X8.9084 Y7.2870
G01 X8.8319 Y7.3061
G01 X8.7539 Y7.3178
G01 X8.7458 Y7.3186
G01 X8.6711 Y7.3222
G01 X8.6629 Y7.3222
G01 X8.5841 Y7.3183
G01 X8.5021 Y7.3061
G01 X8.4216 Y7.2859
G01 X8.3534 Y7.2617
G01 X4.9653 Y10.6498
G01 X4.9410 Y10.6718
G01 X4.9164 Y10.6901
G01 X4.8902 Y10.7061
G01 X4.8830 Y10.7099
G01 X4.8571 Y10.7221
G01 X4.8263 Y10.7331
G01 X4.7985 Y10.7402
G01 X4.7905 Y10.7418
G01 X4.7622 Y10.7459
G01 X4.7315 Y10.7474
G01 X1.2176 Y10.7475
G01 X0.5621 Y11.4030
G01 X0.5621 Y19.7678
G01 X1.0348 Y20.2405
G01 X2.0066 Y20.2405
G01 X2.0372 Y20.2420
G01 X2.0676 Y20.2462
G01 X2.0756 Y20.2478
G01 X2.1034 Y20.2549
G01 X2.1342 Y20.2659
G01 X2.1601 Y20.2780
G01 X2.1673 Y20.2819
G01 X2.1918 Y20.2967
G01 X2.2181 Y20.3162
G01 X2.2423 Y20.3381
G01 X5.8517 Y23.9449
G01 X5.8710 Y23.9661
G01 X5.8762 Y23.9724
G01 X5.8932 Y23.9954
G01 X5.9100 Y24.0235
G01 X5.9223 Y24.0494
G01 X5.9255 Y24.0569
G01 X5.9350 Y24.0839
G01 X5.9426 Y24.1137
G01 X5.9478 Y24.1481
G01 X5.9494 Y24.1808
G01 X5.9494 Y44.4364
G01 X9.0485 Y47.5374
G01 X9.1330 Y47.4976
G01 X9.2346 Y47.4612
G01 X9.3392 Y47.4350
G01 X9.4419 Y47.4197
G01 X9.4500 Y47.4189
G01 X9.5496 Y47.4140
G01 X9.5578 Y47.4140
G01 X9.6615 Y47.4192
G01 X9.7642 Y47.4343
G01 X9.7722 Y47.4359
G01 X9.8689 Y47.4601
G01 X9.8767 Y47.4625
G01 X9.9744 Y47.4976
G01 X10.0719 Y47.5437
G01 X10.1610 Y47.5970
G01 X10.1678 Y47.6015
G01 X10.2511 Y47.6634
G01 X10.3311 Y47.7359
G01 X10.4008 Y47.8127
G01 X10.4060 Y47.8190
G01 X10.4678 Y47.9025
G01 X10.5233 Y47.9950
G01 X10.5694 Y48.0925
G01 X10.6044 Y48.1902
G01 X10.6068 Y48.1980
G01 X10.6310 Y48.2948
G01 X10.6326 Y48.3028
G01 X10.6478 Y48.4055
G01 X10.6530 Y48.5091
G01 X10.6530 Y48.5173
G01 X10.6481 Y48.6169
G01 X10.6473 Y48.6250
G01 X10.6319 Y48.7277
G01 X10.6057 Y48.8324
G01 X10.5694 Y48.9339
G01 X10.5298 Y49.0177
G01 X13.5739 Y52.0617
G01 X13.5932 Y52.0829
G01 X13.5983 Y52.0892
G01 X13.6153 Y52.1123
G01 X13.6301 Y52.1368
G01 X13.6340 Y52.1440
G01 X13.6461 Y52.1699
G01 X13.6559 Y52.1969
G01 X13.6583 Y52.2047
G01 X13.6651 Y52.2325
G01 X13.6694 Y52.2608
G01 X13.6702 Y52.2689
G01 X13.6715 Y52.2976
G01 X13.6715 Y62.8221
G01 X13.6971 Y62.8315
G01 X13.7798 Y62.8709
G01 X13.8566 Y62.9170
G01 X13.9286 Y62.9703
G01 X13.9980 Y63.0331
G01 X14.0569 Y63.0978
G01 X14.0621 Y63.1042
G01 X14.1152 Y63.1762
G01 X14.1612 Y63.2531
G01 X14.2004 Y63.3359
G01 X14.2312 Y63.4221
G01 X14.2526 Y63.5070
G01 X14.2542 Y63.5150
G01 X14.2664 Y63.5975
G01 X14.2672 Y63.6056
G01 X14.2714 Y63.6930
G01 X14.2669 Y63.7845
G01 X14.2535 Y63.8751
G01 X14.2312 Y63.9640
G01 X14.2004 Y64.0502
G01 X14.1630 Y64.1294
G01 X14.1592 Y64.1366
G01 X14.1163 Y64.2081
G01 X14.1117 Y64.2149
G01 X14.0595 Y64.2852
G01 X13.9980 Y64.3530
G01 X13.9302 Y64.4145
G01 X13.8599 Y64.4667
G01 X13.8531 Y64.4713
G01 X13.7762 Y64.5171
G01 X13.6952 Y64.5553
G01 X13.6109 Y64.5856
G01 X13.5221 Y64.6080
G01 X13.4824 Y64.6142
G01 X12.3287 Y65.7678
G01 X12.3045 Y65.7898
G01 X12.2816 Y65.8069
G01 X12.2748 Y65.8115
G01 X12.2483 Y65.8270
G01 X12.2243 Y65.8384
G01 X12.2167 Y65.8416
G01 X12.1897 Y65.8511
G01 X12.1620 Y65.8582
G01 X12.1540 Y65.8598
G01 X12.1256 Y65.8639
G01 X12.0950 Y65.8654
G01 X10.3149 Y65.8655
G01 X10.2823 Y65.8639
G01 X10.2539 Y65.8598
G01 X10.2459 Y65.8582
G01 X10.2181 Y65.8511
G01 X10.1911 Y65.8416
G01 X10.1836 Y65.8384
G01 X10.1577 Y65.8261
G01 X10.1297 Y65.8093
G01 X10.1066 Y65.7923
G01 X10.1003 Y65.7871
G01 X10.0791 Y65.7678
G01 X7.8516 Y63.5402
G01 X7.8296 Y63.5160
G01 X7.8124 Y63.4930
G01 X7.8079 Y63.4862
G01 X7.7923 Y63.4598
G01 X7.7809 Y63.4358
G01 X7.7778 Y63.4282
G01 X7.7682 Y63.4012
G01 X7.7612 Y63.3735
G01 X7.7596 Y63.3654
G01 X7.7555 Y63.3371
G01 X7.7539 Y63.3044
G01 X7.7539 Y51.3750
G01 X1.8653 Y45.4887
G00 Z1.0000
G00 X1.5832 Y46.3115
G01 F25.00
G01 Z-0.1000
G01 F120.00
G01 X1.4586 Y46.3152
G01 X1.3356 Y46.3362
G01 X1.2167 Y46.3730
G01 X1.1035 Y46.4257
G01 X0.9985 Y46.4929
G01 X0.9034 Y46.5731
G01 X0.8194 Y46.6659
G01 X0.7490 Y46.7684
G01 X0.6926 Y46.8798
G01 X0.6520 Y46.9974
G01 X0.6268 Y47.1196
G01 X0.6228 Y47.1799
G01 X0.6228 Y47.3080
G01 X0.6268 Y47.3684
G01 X0.6520 Y47.4906
G01 X0.6926 Y47.6082
G01 X0.7490 Y47.7196
G01 X0.8194 Y47.8221
G01 X0.9034 Y47.9149
G01 X0.9985 Y47.9951
G01 X1.1035 Y48.0623
G01 X1.2167 Y48.1150
G01 X1.3355 Y48.1518
G01 X1.4586 Y48.1723
G01 X1.5833 Y48.1765
G01 X1.7073 Y48.1644
G01 X1.8285 Y48.1355
G01 X1.9450 Y48.0908
G01 X2.0540 Y48.0307
G01 X2.1544 Y47.9564
G01 X2.2439 Y47.8701
G01 X2.3213 Y47.7723
G01 X2.3847 Y47.6650
G01 X2.4336 Y47.5503
G01 X2.4663 Y47.4301
G01 X2.4831 Y47.3064
G01 X2.4831 Y47.1816
G01 X2.4663 Y47.0579
G01 X2.4336 Y46.9376
G01 X2.3847 Y46.8230
G01 X2.3213 Y46.7157
G01 X2.2439 Y46.6179
G01 X2.1544 Y46.5316
G01 X2.0540 Y46.4573
G01 X1.9450 Y46.3972
G01 X1.8285 Y46.3525
G01 X1.7073 Y46.3236
G01 X1.5832 Y46.3115
G00 Z1.0000
G00 X0.7067 Y47.2481
G01 F25.00
G01 Z-0.1000
G01 F120.00
G01 X0.7067 Y47.2399
G01 X0.7107 Y47.1611
G01 X0.7228 Y47.0791
G01 X0.7430 Y46.9986
G01 X0.7709 Y46.9205
G01 X0.8064 Y46.8455
G01 X0.8491 Y46.7743
G01 X0.8985 Y46.7077
G01 X0.9542 Y46.6462
G01 X1.0157 Y46.5905
G01 X1.0823 Y46.5411
G01 X1.1534 Y46.4985
G01 X1.2284 Y46.4630
G01 X1.3065 Y46.4351
G01 X1.3870 Y46.4149
G01 X1.4691 Y46.4027
G01 X1.5519 Y46.3987
G01 X1.6348 Y46.4027
G01 X1.7169 Y46.4149
G01 X1.7973 Y46.4351
G01 X1.8754 Y46.4630
G01 X1.9504 Y46.4985
G01 X2.0216 Y46.5411
G01 X2.0882 Y46.5905
G01 X2.1497 Y46.6462
G01 X2.2054 Y46.7077
G01 X2.2548 Y46.7743
G01 X2.2975 Y46.8455
G01 X2.3329 Y46.9205
G01 X2.3609 Y46.9986
G01 X2.3810 Y47.0791
G01 X2.3932 Y47.1611
G01 X2.3973 Y47.2440
G01 X2.3932 Y47.3269
G01 X2.3810 Y47.4089
G01 X2.3609 Y47.4894
G01 X2.3329 Y47.5675
G01 X2.2975 Y47.6425
G01 X2.2548 Y47.7137
G01 X2.2054 Y47.7803
G01 X2.1497 Y47.8418
G01 X2.0882 Y47.8975
G01 X2.0216 Y47.9469
G01 X1.9504 Y47.9895
G01 X1.8754 Y48.0250
G01 X1.7973 Y48.0529
G01 X1.7169 Y48.0731
G01 X1.6348 Y48.0853
G01 X1.5519 Y48.0893
G01 X1.4691 Y48.0853
G01 X1.3870 Y48.0731
G01 X1.3065 Y48.0529
G01 X1.2284 Y48.0250
G01 X1.1534 Y47.9895
G01 X1.0823 Y47.9469
G01 X1.0157 Y47.8975
G01 X0.9542 Y47.8418
G01 X0.8985 Y47.7803
G01 X0.8491 Y47.7137
G01 X0.8064 Y47.6425
G01 X0.7709 Y47.5675
G01 X0.7430 Y47.4894
G01 X0.7228 Y47.4089
G01 X0.7107 Y47.3269
G01 X0.7067 Y47.2481
G00 Z1.0000
G00 X0.8677 Y48.8503
G01 F25.00
G01 Z-0.1000
G01 F120.00
G01 X0.8003 Y48.8503
G01 X0.7523 Y48.8558
G01 X0.7162 Y48.8684
G01 X0.6838 Y48.8889
G01 X0.6568 Y48.9159
G01 X0.6364 Y48.9482
G01 X0.6238 Y48.9843
G01 X0.6183 Y49.0323
G01 X0.6183 Y49.2561
G01 X0.7066 Y49.2562
G01 X0.7066 Y49.0220
G01 X0.7070 Y49.0138
G01 X0.7082 Y49.0057
G01 X0.7102 Y48.9978
G01 X0.7129 Y48.9901
G01 X0.7164 Y48.9827
G01 X0.7218 Y48.9740
G01 X0.7268 Y48.9676
G01 X0.7325 Y48.9616
G01 X0.7387 Y48.9563
G01 X0.7489 Y48.9495
G01 X0.7599 Y48.9442
G01 X0.7717 Y48.9407
G01 X0.7838 Y48.9389
G01 X1.0241 Y48.9387
G01 X1.0241 Y48.8548
G01 X0.9185 Y48.8548
G01 X0.8878 Y48.8532
G01 X0.8677 Y48.8503
G00 Z1.0000
G00 X2.3036 Y48.8503
G01 F25.00
G01 Z-0.1000
G01 F120.00
G01 X2.0798 Y48.8503
G01 X2.0798 Y48.9386
G01 X2.3201 Y48.9389
G01 X2.3322 Y48.9407
G01 X2.3439 Y48.9442
G01 X2.3550 Y48.9495
G01 X2.3652 Y48.9563
G01 X2.3714 Y48.9616
G01 X2.3771 Y48.9676
G01 X2.3821 Y48.9740
G01 X2.3865 Y48.9809
G01 X2.3909 Y48.9901
G01 X2.3937 Y48.9978
G01 X2.3957 Y49.0057
G01 X2.3969 Y49.0138
G01 X2.3973 Y49.0220
G01 X2.3973 Y49.2561
G01 X2.4856 Y49.2562
G01 X2.4856 Y49.0323
G01 X2.4801 Y48.9843
G01 X2.4675 Y48.9482
G01 X2.4471 Y48.9159
G01 X2.4201 Y48.8889
G01 X2.3877 Y48.8684
G01 X2.3516 Y48.8558
G01 X2.3036 Y48.8503
G00 Z1.0000
G00 X2.4856 Y50.3119
G01 F25.00
G01 Z-0.1000
G01 F120.00
G01 X2.3973 Y50.3118
G01 X2.3971 Y50.5521
G01 X2.3961 Y50.5602
G01 X2.3943 Y50.5682
G01 X2.3917 Y50.5760
G01 X2.3893 Y50.5816
G01 X2.3854 Y50.5889
G01 X2.3821 Y50.5940
G01 X2.3771 Y50.6004
G01 X2.3729 Y50.6049
G01 X2.3668 Y50.6104
G01 X2.3602 Y50.6153
G01 X2.3550 Y50.6185
G01 X2.3477 Y50.6222
G01 X2.3401 Y50.6251
G01 X2.3342 Y50.6269
G01 X2.3282 Y50.6281
G01 X2.3201 Y50.6291
G01 X2.0798 Y50.6293
G01 X2.0798 Y50.7177
G01 X2.3036 Y50.7177
G01 X2.3516 Y50.7122
G01 X2.3877 Y50.6995
G01 X2.4201 Y50.6791
G01 X2.4471 Y50.6521
G01 X2.4675 Y50.6198
G01 X2.4801 Y50.5837
G01 X2.4856 Y50.5356
G01 X2.4856 Y50.3119
G00 Z1.0000
G00 X0.7066 Y50.3119
G01 F25.00
G01 Z-0.1000
G01 F120.00
G01 X0.6183 Y50.3118
G01 X0.6183 Y50.5356
G01 X0.6238 Y50.5837
G01 X0.6364 Y50.6198
G01 X0.6568 Y50.6521
G01 X0.6838 Y50.6791
G01 X0.7162 Y50.6995
G01 X0.7523 Y50.7122
G01 X0.8003 Y50.7177
G01 X1.0241 Y50.7177
G01 X1.0241 Y50.6294
G01 X0.7899 Y50.6293
G01 X0.7818 Y50.6289
G01 X0.7737 Y50.6277
G01 X0.7638 Y50.6251
G01 X0.7562 Y50.6222
G01 X0.7489 Y50.6185
G01 X0.7419 Y50.6141
G01 X0.7355 Y50.6091
G01 X0.7296 Y50.6035
G01 X0.7242 Y50.5973
G01 X0.7174 Y50.5871
G01 X0.7122 Y50.5760
G01 X0.7086 Y50.5643
G01 X0.7068 Y50.5521
G01 X0.7066 Y50.3119
G00 Z1.0000
G00 X8.3768 Y50.9368
G01 F25.00
G01 Z-0.1000
G01 F120.00
G01 X8.3935 Y50.8235
G01 X8.4205 Y50.7148
G01 X8.4245 Y50.7021
G01 X8.4592 Y50.6054
G01 X8.4631 Y50.5959
G01 X8.4771 Y50.5661
G01 X2.4944 Y44.5834
G01 X2.4676 Y44.5539
G01 X2.4763 Y44.6140
G01 X2.4805 Y44.6968
G01 X2.4805 Y44.7112
G01 X2.4764 Y44.7920
G01 X2.4752 Y44.8031
G01 X2.4642 Y44.8771
G01 X2.4622 Y44.8882
G01 X2.4421 Y44.9687
G01 X2.4391 Y44.9785
G01 X2.4331 Y44.9954
G01 X8.3768 Y50.9368
G00 Z1.0000
G00 X8.6854 Y51.8545
G01 F25.00
G01 Z-0.1000
G01 F120.00
G01 X8.6388 Y51.8027
G01 X8.5732 Y51.7145
G01 X8.5660 Y51.7034
G01 X8.5142 Y51.6170
G01 X8.5092 Y51.6080
G01 X8.5042 Y51.5975
G01 X8.5042 Y51.9322
G01 X8.5125 Y51.9232
G01 X8.5217 Y51.9147
G01 X8.5315 Y51.9069
G01 X8.5419 Y51.8998
G01 X8.5564 Y51.8917
G01 X8.6047 Y51.8683
G01 X8.6145 Y51.8644
G01 X8.6244 Y51.8612
G01 X8.6346 Y51.8586
G01 X8.6428 Y51.8569
G01 X8.6532 Y51.8555
G01 X8.6616 Y51.8548
G01 X8.6854 Y51.8545
G01 X8.7158 Y51.9379
G01 X8.7219 Y51.9381
G01 X8.7301 Y51.9391
G01 X8.7361 Y51.9404
G01 X8.7439 Y51.9428
G01 X8.7515 Y51.9459
G01 X8.7975 Y51.9680
G01 X8.8075 Y51.9747
G01 X8.8788 Y52.0301
G01 X9.0020 Y52.1043
G01 X9.1129 Y52.1546
G01 X9.1200 Y52.1583
G01 X9.1267 Y52.1626
G01 X9.1582 Y52.1849
G01 X9.1647 Y52.1900
G01 X9.1721 Y52.1973
G01 X9.1785 Y52.2054
G01 X9.2021 Y52.2414
G01 X9.2078 Y52.2523
G01 X9.2107 Y52.2600
G01 X9.2132 Y52.2699
G01 X9.2207 Y52.3095
G01 X9.2214 Y52.3157
G01 X9.2218 Y52.3239
G01 X9.2207 Y52.3363
G01 X9.2124 Y52.3804
G01 X9.2086 Y52.3922
G01 X9.2032 Y52.4033
G01 X9.1785 Y52.4410
G01 X9.1707 Y52.4507
G01 X9.1647 Y52.4564
G01 X9.1599 Y52.4603
G01 X9.1250 Y52.4851
G01 X9.1198 Y52.4883
G01 X9.1125 Y52.4920
G01 X9.0014 Y52.5417
G01 X8.8790 Y52.6157
G01 X8.8062 Y52.6728
G01 X8.7994 Y52.6774
G01 X8.7922 Y52.6812
G01 X8.7479 Y52.7022
G01 X8.7404 Y52.7049
G01 X8.7326 Y52.7069
G01 X8.7248 Y52.7081
G01 X8.7168 Y52.7086
G01 X8.6660 Y52.7079
G01 X8.6599 Y52.7073
G01 X8.6519 Y52.7058
G01 X8.6440 Y52.7036
G01 X8.6383 Y52.7014
G01 X8.5921 Y52.6789
G01 X8.5850 Y52.6748
G01 X8.5783 Y52.6700
G01 X8.5721 Y52.6645
G01 X8.5665 Y52.6585
G01 X8.5348 Y52.6185
G01 X8.5303 Y52.6116
G01 X8.5266 Y52.6043
G01 X8.5242 Y52.5986
G01 X8.5218 Y52.5907
G01 X8.5107 Y52.5430
G01 X8.5096 Y52.5367
G01 X8.5090 Y52.5283
G01 X8.5092 Y52.1139
G01 X8.5107 Y52.1035
G01 X8.5218 Y52.0558
G01 X8.5242 Y52.0480
G01 X8.5273 Y52.0406
G01 X8.5312 Y52.0334
G01 X8.5369 Y52.0251
G01 X8.5662 Y51.9879
G01 X8.5704 Y51.9832
G01 X8.5765 Y51.9775
G01 X8.5848 Y51.9713
G01 X8.5920 Y51.9671
G01 X8.6364 Y51.9454
G01 X8.6483 Y51.9411
G01 X8.6564 Y51.9392
G01 X8.6669 Y51.9380
G01 X8.7158 Y51.9379
G00 Z1.0000
G00 X9.3879 Y52.3392
G01 F25.00
G01 Z-0.1000
G01 F120.00
G01 X9.4215 Y52.3342
G01 X9.4347 Y52.3328
G01 X9.5496 Y52.3272
G01 X9.5655 Y52.3275
G01 X9.6656 Y52.3324
G01 X9.6849 Y52.3341
G01 X9.7997 Y52.3513
G01 X9.8122 Y52.3541
G01 X9.9094 Y52.3784
G01 X9.9202 Y52.3814
G01 X9.9314 Y52.3850
G01 X10.0335 Y52.4216
G01 X10.0494 Y52.4285
G01 X10.1400 Y52.4714
G01 X10.1514 Y52.4772
G01 X10.2480 Y52.5348
G01 X10.2579 Y52.5411
G01 X10.2667 Y52.5473
G01 X10.3561 Y52.6139
G01 X10.3658 Y52.6222
G01 X10.4401 Y52.6895
G01 X10.4482 Y52.6973
G01 X10.4560 Y52.7054
G01 X10.5257 Y52.7823
G01 X10.5396 Y52.7993
G01 X10.6058 Y52.8890
G01 X10.6127 Y52.8998
G01 X10.6642 Y52.9857
G01 X10.6707 Y52.9973
G01 X10.7184 Y53.0975
G01 X10.7238 Y53.1097
G01 X10.7619 Y53.2155
G01 X10.7655 Y53.2267
G01 X10.7684 Y53.2370
G01 X10.7952 Y53.3452
G01 X10.7975 Y53.3578
G01 X10.8122 Y53.4575
G01 X10.8136 Y53.4681
G01 X10.8145 Y53.4809
G01 X10.8195 Y53.5815
G01 X10.8198 Y53.5943
G01 X10.8145 Y53.7066
G01 X10.8136 Y53.7183
G01 X10.8122 Y53.7295
G01 X10.7975 Y53.8286
G01 X10.7952 Y53.8412
G01 X10.7663 Y53.9570
G01 X10.7833 Y53.9586
G01 X10.7989 Y53.9611
G01 X10.8153 Y53.9648
G01 X10.8308 Y53.9694
G01 X10.8308 Y53.0368
G01 X10.0218 Y52.2291
G01 X9.9324 Y52.2611
G01 X9.9202 Y52.2651
G01 X9.8122 Y52.2924
G01 X9.8017 Y52.2947
G01 X9.7901 Y52.2968
G01 X9.6849 Y52.3124
G01 X9.6656 Y52.3141
G01 X9.5655 Y52.3190
G01 X9.5496 Y52.3192
G01 X9.4347 Y52.3136
G01 X9.4215 Y52.3122
G01 X9.3880 Y52.3073
G01 X9.3885 Y52.3237
G01 X9.3879 Y52.3392
G00 Z1.0000
G00 X8.5042 Y52.7138
G01 F25.00
G01 Z-0.1000
G01 F120.00
G01 X8.5042 Y53.0489
G01 X8.5092 Y53.0384
G01 X8.5142 Y53.0295
G01 X8.5660 Y52.9431
G01 X8.5732 Y52.9320
G01 X8.6388 Y52.8437
G01 X8.6857 Y52.7916
G01 X8.6600 Y52.7911
G01 X8.6518 Y52.7903
G01 X8.6417 Y52.7888
G01 X8.6317 Y52.7867
G01 X8.6238 Y52.7846
G01 X8.6140 Y52.7814
G01 X8.6045 Y52.7776
G01 X8.5546 Y52.7534
G01 X8.5404 Y52.7452
G01 X8.5302 Y52.7381
G01 X8.5206 Y52.7304
G01 X8.5117 Y52.7219
G01 X8.5042 Y52.7138
G00 Z1.0000
G00 X8.4545 Y53.5973
G01 F25.00
G01 Z-0.1000
G01 F120.00
G01 X8.4545 Y53.5891
G01 X8.4597 Y53.4855
G01 X8.4755 Y53.3788
G01 X8.5017 Y53.2741
G01 X8.5380 Y53.1725
G01 X8.5842 Y53.0750
G01 X8.6396 Y52.9825
G01 X8.7039 Y52.8958
G01 X8.7764 Y52.8159
G01 X8.8563 Y52.7434
G01 X8.9429 Y52.6792
G01 X9.0355 Y52.6237
G01 X9.1330 Y52.5776
G01 X9.2346 Y52.5412
G01 X9.3392 Y52.5150
G01 X9.4460 Y52.4992
G01 X9.5537 Y52.4939
G01 X9.6615 Y52.4992
G01 X9.7682 Y52.5150
G01 X9.8728 Y52.5412
G01 X9.9744 Y52.5776
G01 X10.0719 Y52.6237
G01 X10.1645 Y52.6792
G01 X10.2511 Y52.7434
G01 X10.3311 Y52.8159
G01 X10.4035 Y52.8958
G01 X10.4678 Y52.9825
G01 X10.5233 Y53.0750
G01 X10.5694 Y53.1725
G01 X10.6057 Y53.2741
G01 X10.6319 Y53.3788
G01 X10.6478 Y53.4855
G01 X10.6531 Y53.5932
G01 X10.6478 Y53.7010
G01 X10.6319 Y53.8077
G01 X10.6057 Y53.9124
G01 X10.5694 Y54.0139
G01 X10.5233 Y54.1115
G01 X10.4678 Y54.2040
G01 X10.4035 Y54.2907
G01 X10.3311 Y54.3706
G01 X10.2511 Y54.4430
G01 X10.1645 Y54.5073
G01 X10.0719 Y54.5628
G01 X9.9744 Y54.6089
G01 X9.8728 Y54.6452
G01 X9.7682 Y54.6715
G01 X9.6615 Y54.6873
G01 X9.5537 Y54.6926
G01 X9.4460 Y54.6873
G01 X9.3392 Y54.6715
G01 X9.2346 Y54.6452
G01 X9.1330 Y54.6089
G01 X9.0355 Y54.5628
G01 X8.9429 Y54.5073
G01 X8.8563 Y54.4430
G01 X8.7764 Y54.3706
G01 X8.7039 Y54.2907
G01 X8.6396 Y54.2040
G01 X8.5842 Y54.1115
G01 X8.5380 Y54.0139
G01 X8.5017 Y53.9124
G01 X8.4755 Y53.8077
G01 X8.4597 Y53.7010
G01 X8.4545 Y53.5973
G00 Z1.0000
G00 X8.6854 Y54.3945
G01 F25.00
G01 Z-0.1000
G01 F120.00
G01 X8.6388 Y54.3427
G01 X8.5732 Y54.2545
G01 X8.5660 Y54.2434
G01 X8.5142 Y54.1570
G01 X8.5092 Y54.1480
G01 X8.5042 Y54.1375
G01 X8.5042 Y54.4722
G01 X8.5117 Y54.4641
G01 X8.5206 Y54.4556
G01 X8.5302 Y54.4478
G01 X8.5404 Y54.4408
G01 X8.5546 Y54.4326
G01 X8.6047 Y54.4083
G01 X8.6145 Y54.4044
G01 X8.6224 Y54.4018
G01 X8.6326 Y54.3990
G01 X8.6428 Y54.3969
G01 X8.6532 Y54.3955
G01 X8.6616 Y54.3948
G01 X8.6854 Y54.3945
G01 X8.7158 Y54.4779
G01 X8.7219 Y54.4781
G01 X8.7301 Y54.4791
G01 X8.7361 Y54.4804
G01 X8.7439 Y54.4828
G01 X8.7515 Y54.4859
G01 X8.7975 Y54.5080
G01 X8.8075 Y54.5147
G01 X8.8789 Y54.5701
G01 X9.0015 Y54.6443
G01 X9.1164 Y54.6963
G01 X9.1267 Y54.7026
G01 X9.1582 Y54.7249
G01 X9.1647 Y54.7300
G01 X9.1721 Y54.7373
G01 X9.1785 Y54.7454
G01 X9.2021 Y54.7814
G01 X9.2078 Y54.7923
G01 X9.2107 Y54.8000
G01 X9.2132 Y54.8099
G01 X9.2207 Y54.8495
G01 X9.2214 Y54.8557
G01 X9.2218 Y54.8639
G01 X9.2207 Y54.8763
G01 X9.2124 Y54.9204
G01 X9.2086 Y54.9322
G01 X9.2032 Y54.9433
G01 X9.1785 Y54.9810
G01 X9.1707 Y54.9907
G01 X9.1663 Y54.9951
G01 X9.1599 Y55.0003
G01 X9.1250 Y55.0251
G01 X9.1198 Y55.0283
G01 X9.1125 Y55.0320
G01 X9.0014 Y55.0817
G01 X8.8790 Y55.1557
G01 X8.8062 Y55.2128
G01 X8.7994 Y55.2174
G01 X8.7922 Y55.2212
G01 X8.7479 Y55.2422
G01 X8.7404 Y55.2449
G01 X8.7326 Y55.2469
G01 X8.7248 Y55.2481
G01 X8.7168 Y55.2486
G01 X8.6660 Y55.2479
G01 X8.6599 Y55.2473
G01 X8.6519 Y55.2458
G01 X8.6440 Y55.2436
G01 X8.6383 Y55.2414
G01 X8.5921 Y55.2189
G01 X8.5850 Y55.2148
G01 X8.5783 Y55.2100
G01 X8.5721 Y55.2045
G01 X8.5665 Y55.1985
G01 X8.5348 Y55.1585
G01 X8.5314 Y55.1534
G01 X8.5275 Y55.1462
G01 X8.5242 Y55.1386
G01 X8.5218 Y55.1307
G01 X8.5107 Y55.0830
G01 X8.5096 Y55.0767
G01 X8.5090 Y55.0683
G01 X8.5092 Y54.6540
G01 X8.5106 Y54.6437
G01 X8.5217 Y54.5954
G01 X8.5242 Y54.5875
G01 X8.5274 Y54.5799
G01 X8.5325 Y54.5709
G01 X8.5373 Y54.5641
G01 X8.5665 Y54.5275
G01 X8.5707 Y54.5229
G01 X8.5767 Y54.5173
G01 X8.5850 Y54.5112
G01 X8.5921 Y54.5070
G01 X8.6364 Y54.4854
G01 X8.6483 Y54.4811
G01 X8.6585 Y54.4788
G01 X8.6669 Y54.4780
G01 X8.7158 Y54.4779
G00 Z1.0000
G00 X9.3879 Y54.8792
G01 F25.00
G01 Z-0.1000
G01 F120.00
G01 X9.4215 Y54.8742
G01 X9.4368 Y54.8727
G01 X9.5527 Y54.8672
G01 X9.5660 Y54.8675
G01 X9.6707 Y54.8727
G01 X9.6859 Y54.8742
G01 X9.7190 Y54.8791
G01 X9.7184 Y54.8637
G01 X9.7189 Y54.8474
G01 X9.6859 Y54.8522
G01 X9.6707 Y54.8538
G01 X9.5660 Y54.8590
G01 X9.5527 Y54.8593
G01 X9.5414 Y54.8590
G01 X9.4419 Y54.8541
G01 X9.4368 Y54.8538
G01 X9.4215 Y54.8522
G01 X9.3880 Y54.8473
G01 X9.3885 Y54.8637
G01 X9.3879 Y54.8792
G01 X9.8315 Y54.7416
G01 X9.7914 Y54.7517
G01 X9.7814 Y54.7538
G01 X9.6727 Y54.7699
G01 X9.6615 Y54.7708
G01 X9.5527 Y54.7759
G01 X9.4459 Y54.7708
G01 X9.4327 Y54.7697
G01 X9.3260 Y54.7538
G01 X9.3160 Y54.7517
G01 X9.2753 Y54.7415
G01 X9.2804 Y54.7508
G01 X9.2855 Y54.7620
G01 X9.2897 Y54.7735
G01 X9.2931 Y54.7854
G01 X9.3031 Y54.8370
G01 X9.3046 Y54.8494
G01 X9.3051 Y54.8638
G01 X9.3046 Y54.8762
G01 X9.3032 Y54.8885
G01 X9.2932 Y54.9408
G01 X9.2898 Y54.9527
G01 X9.2855 Y54.9643
G01 X9.2804 Y54.9756
G01 X9.2753 Y54.9850
G01 X9.3160 Y54.9748
G01 X9.3260 Y54.9727
G01 X9.4327 Y54.9568
G01 X9.4459 Y54.9556
G01 X9.5527 Y54.9505
G01 X9.6615 Y54.9556
G01 X9.6727 Y54.9566
G01 X9.7814 Y54.9727
G01 X9.7914 Y54.9748
G01 X9.8315 Y54.9848
G01 X9.8265 Y54.9756
G01 X9.8213 Y54.9643
G01 X9.8171 Y54.9527
G01 X9.8137 Y54.9407
G01 X9.8038 Y54.8885
G01 X9.8023 Y54.8762
G01 X9.8018 Y54.8638
G01 X9.8023 Y54.8494
G01 X9.8038 Y54.8371
G01 X9.8138 Y54.7854
G01 X9.8172 Y54.7736
G01 X9.8214 Y54.7620
G01 X9.8265 Y54.7508
G01 X9.8315 Y54.7416
G00 Z1.0000
G00 X10.6780 Y54.1269
G01 F25.00
G01 Z-0.1000
G01 F120.00
G01 X10.6858 Y54.1243
G01 X10.6917 Y54.1229
G01 X10.6998 Y54.1217
G01 X10.7059 Y54.1213
G01 X10.7557 Y54.1234
G01 X10.7682 Y54.1249
G01 X10.7803 Y54.1283
G01 X10.7899 Y54.1325
G01 X10.8317 Y54.1553
G01 X10.8402 Y54.1610
G01 X10.8480 Y54.1677
G01 X10.8549 Y54.1752
G01 X10.8837 Y54.2130
G01 X10.8881 Y54.2196
G01 X10.8910 Y54.2249
G01 X10.8949 Y54.2341
G01 X10.8976 Y54.2436
G01 X10.9077 Y54.2883
G01 X10.9087 Y54.2944
G01 X10.9093 Y54.3026
G01 X10.9093 Y55.4218
G01 X10.9084 Y55.4341
G01 X10.8972 Y55.4848
G01 X10.8949 Y55.4924
G01 X10.8910 Y55.5016
G01 X10.8871 Y55.5085
G01 X10.8837 Y55.5135
G01 X10.8561 Y55.5496
G01 X10.8507 Y55.5560
G01 X10.8447 Y55.5619
G01 X10.8381 Y55.5670
G01 X10.8310 Y55.5715
G01 X10.7893 Y55.5938
G01 X10.7782 Y55.5984
G01 X10.7705 Y55.6005
G01 X10.7606 Y55.6022
G01 X10.7109 Y55.6052
G01 X10.7008 Y55.6049
G01 X10.6928 Y55.6038
G01 X10.6849 Y55.6019
G01 X10.6772 Y55.5992
G01 X10.6311 Y55.5806
G01 X10.6208 Y55.5746
G01 X10.6159 Y55.5711
G01 X10.6099 Y55.5659
G01 X10.5771 Y55.5316
G01 X10.5707 Y55.5239
G01 X10.5662 Y55.5172
G01 X10.5307 Y55.4585
G01 X10.4425 Y55.3456
G01 X10.3409 Y55.2445
G01 X10.2278 Y55.1557
G01 X10.1055 Y55.0817
G01 X9.9944 Y55.0320
G01 X9.9871 Y55.0283
G01 X9.9802 Y55.0239
G01 X9.9487 Y55.0016
G01 X9.9406 Y54.9951
G01 X9.9348 Y54.9892
G01 X9.9284 Y54.9810
G01 X9.9048 Y54.9451
G01 X9.8991 Y54.9341
G01 X9.8962 Y54.9264
G01 X9.8937 Y54.9164
G01 X9.8862 Y54.8762
G01 X9.8851 Y54.8639
G01 X9.8855 Y54.8557
G01 X9.8862 Y54.8495
G01 X9.8937 Y54.8099
G01 X9.8962 Y54.8000
G01 X9.8991 Y54.7923
G01 X9.9048 Y54.7814
G01 X9.9284 Y54.7454
G01 X9.9335 Y54.7389
G01 X9.9406 Y54.7314
G01 X9.9487 Y54.7249
G01 X9.9802 Y54.7026
G01 X9.9870 Y54.6982
G01 X9.9941 Y54.6946
G01 X10.1054 Y54.6443
G01 X10.2279 Y54.5702
G01 X10.3409 Y54.4819
G01 X10.4424 Y54.3804
G01 X10.5307 Y54.2675
G01 X10.5673 Y54.2070
G01 X10.5719 Y54.2005
G01 X10.5771 Y54.1944
G01 X10.6085 Y54.1614
G01 X10.6146 Y54.1560
G01 X10.6211 Y54.1511
G01 X10.6281 Y54.1469
G01 X10.6355 Y54.1434
G01 X10.6780 Y54.1269
G00 Z1.0000
G00 X10.9141 Y54.1163
G01 F25.00
G01 Z-0.1000
G01 F120.00
G01 X10.9141 Y53.0023
G01 X10.0405 Y52.1299
G01 X10.0110 Y52.1439
G01 X10.0016 Y52.1478
G01 X9.9048 Y52.1824
G01 X9.8921 Y52.1864
G01 X9.7834 Y52.2134
G01 X9.6686 Y52.2303
G01 X9.5547 Y52.2359
G01 X9.4429 Y52.2307
G01 X9.4297 Y52.2292
G01 X9.3260 Y52.2138
G01 X9.3160 Y52.2117
G01 X9.2753 Y52.2015
G01 X9.2804 Y52.2108
G01 X9.2855 Y52.2220
G01 X9.2897 Y52.2335
G01 X9.2931 Y52.2454
G01 X9.3031 Y52.2970
G01 X9.3046 Y52.3094
G01 X9.3051 Y52.3238
G01 X9.3046 Y52.3362
G01 X9.3032 Y52.3485
G01 X9.2932 Y52.4008
G01 X9.2898 Y52.4127
G01 X9.2855 Y52.4243
G01 X9.2804 Y52.4356
G01 X9.2753 Y52.4450
G01 X9.3160 Y52.4348
G01 X9.3260 Y52.4327
G01 X9.4347 Y52.4166
G01 X9.4459 Y52.4156
G01 X9.5455 Y52.4107
G01 X9.5588 Y52.4106
G01 X9.6686 Y52.4161
G01 X9.7764 Y52.4319
G01 X9.7924 Y52.4350
G01 X9.8891 Y52.4593
G01 X9.9019 Y52.4630
G01 X10.0054 Y52.5002
G01 X10.1039 Y52.5465
G01 X10.1183 Y52.5542
G01 X10.2116 Y52.6104
G01 X10.2976 Y52.6740
G01 X10.3102 Y52.6843
G01 X10.3907 Y52.7577
G01 X10.4660 Y52.8406
G01 X10.4730 Y52.8494
G01 X10.5324 Y52.9295
G01 X10.5415 Y52.9431
G01 X10.5972 Y53.0366
G01 X10.6460 Y53.1397
G01 X10.6829 Y53.2421
G01 X10.6877 Y53.2578
G01 X10.7135 Y53.3615
G01 X10.7297 Y53.4692
G01 X10.7313 Y53.4855
G01 X10.7364 Y53.5943
G01 X10.7313 Y53.7010
G01 X10.7297 Y53.7173
G01 X10.7139 Y53.8230
G01 X10.6877 Y53.9287
G01 X10.6829 Y53.9443
G01 X10.6493 Y54.0382
G01 X10.6443 Y54.0506
G01 X10.6585 Y54.0455
G01 X10.6723 Y54.0418
G01 X10.6864 Y54.0393
G01 X10.7026 Y54.0380
G01 X10.7149 Y54.0380
G01 X10.7648 Y54.0404
G01 X10.7794 Y54.0422
G01 X10.7917 Y54.0448
G01 X10.8078 Y54.0496
G01 X10.8234 Y54.0561
G01 X10.8743 Y54.0837
G01 X10.8847 Y54.0903
G01 X10.8961 Y54.0990
G01 X10.9053 Y54.1072
G01 X10.9141 Y54.1163
G00 Z1.0000
G00 X10.7662 Y55.7690
G01 F25.00
G01 Z-0.1000
G01 F120.00
G01 X10.7952 Y55.8852
G01 X10.7975 Y55.8978
G01 X10.8122 Y55.9970
G01 X10.8136 Y56.0081
G01 X10.8145 Y56.0198
G01 X10.8146 Y56.0214
G01 X10.8195 Y56.1210
G01 X10.8198 Y56.1322
G01 X10.8195 Y56.1455
G01 X10.8145 Y56.2466
G01 X10.8136 Y56.2583
G01 X10.8122 Y56.2695
G01 X10.7975 Y56.3686
G01 X10.7952 Y56.3812
G01 X10.7663 Y56.4970
G01 X10.7826 Y56.4985
G01 X10.7988 Y56.5011
G01 X10.8158 Y56.5049
G01 X10.8308 Y56.5094
G01 X10.8308 Y55.7566
G01 X10.8147 Y55.7613
G01 X10.7981 Y55.7651
G01 X10.7823 Y55.7675
G01 X10.7662 Y55.7690
G01 X10.9141 Y56.6563
G01 X10.9141 Y55.6102
G01 X10.9048 Y55.6198
G01 X10.8954 Y55.6281
G01 X10.8836 Y55.6369
G01 X10.8730 Y55.6435
G01 X10.8222 Y55.6704
G01 X10.8074 Y55.6765
G01 X10.7921 Y55.6811
G01 X10.7804 Y55.6836
G01 X10.7665 Y55.6854
G01 X10.7168 Y55.6883
G01 X10.7026 Y55.6885
G01 X10.6864 Y55.6871
G01 X10.6724 Y55.6847
G01 X10.6587 Y55.6810
G01 X10.6443 Y55.6759
G01 X10.6493 Y55.6883
G01 X10.6852 Y55.7889
G01 X10.7135 Y55.9015
G01 X10.7306 Y56.0163
G01 X10.7364 Y56.1322
G01 X10.7308 Y56.2481
G01 X10.7151 Y56.3559
G01 X10.7135 Y56.3650
G01 X10.6852 Y56.4775
G01 X10.6493 Y56.5782
G01 X10.6446 Y56.5900
G01 X10.6587 Y56.5849
G01 X10.6724 Y56.5813
G01 X10.6864 Y56.5788
G01 X10.7026 Y56.5775
G01 X10.7168 Y56.5776
G01 X10.7646 Y56.5804
G01 X10.7788 Y56.5821
G01 X10.7908 Y56.5846
G01 X10.8065 Y56.5892
G01 X10.8217 Y56.5953
G01 X10.8318 Y56.6004
G01 X10.8743 Y56.6237
G01 X10.8847 Y56.6303
G01 X10.8961 Y56.6390
G01 X10.9053 Y56.6472
G01 X10.9141 Y56.6563
G00 Z1.0000
G00 X10.6772 Y56.6667
G01 F25.00
G01 Z-0.1000
G01 F120.00
G01 X10.6849 Y56.6641
G01 X10.6908 Y56.6626
G01 X10.6988 Y56.6613
G01 X10.7069 Y56.6608
G01 X10.7567 Y56.6634
G01 X10.7688 Y56.6650
G01 X10.7787 Y56.6677
G01 X10.7900 Y56.6725
G01 X10.8317 Y56.6953
G01 X10.8402 Y56.7010
G01 X10.8480 Y56.7077
G01 X10.8549 Y56.7152
G01 X10.8837 Y56.7530
G01 X10.8881 Y56.7596
G01 X10.8910 Y56.7649
G01 X10.8942 Y56.7722
G01 X10.8972 Y56.7817
G01 X10.9077 Y56.8283
G01 X10.9092 Y56.8406
G01 X10.9093 Y62.4901
G01 X10.9085 Y62.5019
G01 X10.9003 Y62.5448
G01 X10.8970 Y62.5564
G01 X10.8947 Y62.5619
G01 X10.8910 Y62.5690
G01 X10.8695 Y62.6040
G01 X10.8621 Y62.6138
G01 X10.8547 Y62.6212
G01 X10.8205 Y62.6474
G01 X10.8139 Y62.6520
G01 X10.8050 Y62.6567
G01 X10.7976 Y62.6597
G01 X10.7577 Y62.6716
G01 X10.7499 Y62.6735
G01 X10.7419 Y62.6747
G01 X10.6350 Y62.6848
G01 X10.5073 Y62.7139
G01 X10.3843 Y62.7590
G01 X10.2684 Y62.8195
G01 X10.1614 Y62.8947
G01 X10.0645 Y62.9826
G01 X9.9795 Y63.0821
G01 X9.9082 Y63.1920
G01 X9.8513 Y63.3099
G01 X9.8100 Y63.4338
G01 X9.7851 Y63.5625
G01 X9.7767 Y63.6930
G01 X9.7851 Y63.8236
G01 X9.8100 Y63.9526
G01 X9.8112 Y63.9609
G01 X9.8115 Y63.9693
G01 X9.8109 Y64.0161
G01 X9.8097 Y64.0262
G01 X9.8072 Y64.0361
G01 X9.8035 Y64.0457
G01 X9.7838 Y64.0861
G01 X9.7800 Y64.0931
G01 X9.7755 Y64.0998
G01 X9.7704 Y64.1059
G01 X9.7647 Y64.1115
G01 X9.7260 Y64.1446
G01 X9.7159 Y64.1510
G01 X9.7049 Y64.1559
G01 X9.6561 Y64.1700
G01 X9.6483 Y64.1716
G01 X9.6404 Y64.1725
G01 X9.6324 Y64.1726
G01 X9.6245 Y64.1719
G01 X9.5758 Y64.1643
G01 X9.5679 Y64.1623
G01 X9.5602 Y64.1595
G01 X9.5492 Y64.1539
G01 X9.5119 Y64.1299
G01 X9.5039 Y64.1241
G01 X9.4981 Y64.1187
G01 X8.5620 Y63.1826
G01 X8.5544 Y63.1734
G01 X8.5309 Y63.1388
G01 X8.5266 Y63.1316
G01 X8.5238 Y63.1260
G01 X8.5208 Y63.1181
G01 X8.5186 Y63.1101
G01 X8.5101 Y63.0669
G01 X8.5092 Y63.0590
G01 X8.5090 Y63.0530
G01 X8.5090 Y57.2003
G01 X8.5096 Y57.1897
G01 X8.5111 Y57.1814
G01 X8.5218 Y57.1358
G01 X8.5249 Y57.1261
G01 X8.5282 Y57.1187
G01 X8.5323 Y57.1117
G01 X8.5357 Y57.1067
G01 X8.5649 Y57.0695
G01 X8.5704 Y57.0632
G01 X8.5781 Y57.0562
G01 X8.5848 Y57.0513
G01 X8.5939 Y57.0461
G01 X8.6364 Y57.0254
G01 X8.6423 Y57.0230
G01 X8.6503 Y57.0205
G01 X8.6606 Y57.0185
G01 X8.6690 Y57.0179
G01 X8.7219 Y57.0181
G01 X8.7341 Y57.0199
G01 X8.7459 Y57.0235
G01 X8.7922 Y57.0452
G01 X8.7992 Y57.0490
G01 X8.8075 Y57.0547
G01 X8.8789 Y57.1101
G01 X9.0014 Y57.1842
G01 X9.1325 Y57.2431
G01 X9.2693 Y57.2859
G01 X9.4101 Y57.3120
G01 X9.5535 Y57.3205
G01 X9.6968 Y57.3120
G01 X9.8376 Y57.2859
G01 X9.9744 Y57.2431
G01 X10.1055 Y57.1842
G01 X10.2279 Y57.1102
G01 X10.3409 Y57.0219
G01 X10.4424 Y56.9204
G01 X10.5307 Y56.8075
G01 X10.5662 Y56.7487
G01 X10.5707 Y56.7421
G01 X10.5771 Y56.7344
G01 X10.6085 Y56.7015
G01 X10.6175 Y56.6937
G01 X10.6241 Y56.6892
G01 X10.6293 Y56.6863
G01 X10.6365 Y56.6830
G01 X10.6772 Y56.6667
G00 Z1.0000
G00 X8.6854 Y56.9345
G01 F25.00
G01 Z-0.1000
G01 F120.00
G01 X8.6388 Y56.8827
G01 X8.5732 Y56.7945
G01 X8.5660 Y56.7834
G01 X8.5142 Y56.6970
G01 X8.5092 Y56.6880
G01 X8.5042 Y56.6775
G01 X8.5042 Y57.0122
G01 X8.5125 Y57.0032
G01 X8.5217 Y56.9947
G01 X8.5315 Y56.9869
G01 X8.5419 Y56.9798
G01 X8.5564 Y56.9717
G01 X8.6047 Y56.9483
G01 X8.6145 Y56.9444
G01 X8.6244 Y56.9412
G01 X8.6346 Y56.9386
G01 X8.6428 Y56.9369
G01 X8.6532 Y56.9355
G01 X8.6616 Y56.9348
G01 X8.6854 Y56.9345
G00 Z1.0000
G00 X8.4545 Y56.1373
G01 F25.00
G01 Z-0.1000
G01 F120.00
G01 X8.4545 Y56.1291
G01 X8.4597 Y56.0255
G01 X8.4755 Y55.9188
G01 X8.5017 Y55.8141
G01 X8.5380 Y55.7125
G01 X8.5842 Y55.6150
G01 X8.6396 Y55.5225
G01 X8.7039 Y55.4358
G01 X8.7764 Y55.3559
G01 X8.8563 Y55.2834
G01 X8.9429 Y55.2192
G01 X9.0355 Y55.1637
G01 X9.1330 Y55.1176
G01 X9.2346 Y55.0812
G01 X9.3392 Y55.0550
G01 X9.4460 Y55.0392
G01 X9.5537 Y55.0339
G01 X9.6615 Y55.0392
G01 X9.7682 Y55.0550
G01 X9.8728 Y55.0812
G01 X9.9744 Y55.1176
G01 X10.0719 Y55.1637
G01 X10.1645 Y55.2192
G01 X10.2511 Y55.2834
G01 X10.3311 Y55.3559
G01 X10.4035 Y55.4358
G01 X10.4678 Y55.5225
G01 X10.5233 Y55.6150
G01 X10.5694 Y55.7125
G01 X10.6057 Y55.8141
G01 X10.6319 Y55.9188
G01 X10.6478 Y56.0255
G01 X10.6531 Y56.1332
G01 X10.6478 Y56.2410
G01 X10.6319 Y56.3477
G01 X10.6057 Y56.4524
G01 X10.5694 Y56.5539
G01 X10.5233 Y56.6515
G01 X10.4678 Y56.7440
G01 X10.4035 Y56.8307
G01 X10.3311 Y56.9106
G01 X10.2511 Y56.9830
G01 X10.1645 Y57.0473
G01 X10.0719 Y57.1028
G01 X9.9744 Y57.1489
G01 X9.8728 Y57.1852
G01 X9.7682 Y57.2115
G01 X9.6615 Y57.2273
G01 X9.5537 Y57.2326
G01 X9.4460 Y57.2273
G01 X9.3392 Y57.2115
G01 X9.2346 Y57.1852
G01 X9.1330 Y57.1489
G01 X9.0355 Y57.1028
G01 X8.9429 Y57.0473
G01 X8.8563 Y56.9830
G01 X8.7764 Y56.9106
G01 X8.7039 Y56.8307
G01 X8.6396 Y56.7440
G01 X8.5842 Y56.6515
G01 X8.5380 Y56.5539
G01 X8.5017 Y56.4524
G01 X8.4755 Y56.3477
G01 X8.4597 Y56.2410
G01 X8.4545 Y56.1373
G00 Z1.0000
G00 X8.5042 Y55.2538
G01 F25.00
G01 Z-0.1000
G01 F120.00
G01 X8.5042 Y55.5889
G01 X8.5092 Y55.5784
G01 X8.5142 Y55.5695
G01 X8.5660 Y55.4831
G01 X8.5732 Y55.4720
G01 X8.6388 Y55.3837
G01 X8.6857 Y55.3316
G01 X8.6600 Y55.3311
G01 X8.6518 Y55.3303
G01 X8.6417 Y55.3288
G01 X8.6317 Y55.3267
G01 X8.6238 Y55.3246
G01 X8.6140 Y55.3214
G01 X8.6045 Y55.3176
G01 X8.5546 Y55.2934
G01 X8.5404 Y55.2852
G01 X8.5302 Y55.2781
G01 X8.5206 Y55.2704
G01 X8.5117 Y55.2619
G01 X8.5042 Y55.2538
G00 Z1.0000
G00 X10.8411 Y50.5139
G01 F25.00
G01 Z-0.1000
G01 F120.00
G01 X10.8492 Y50.5117
G01 X10.8553 Y50.5107
G01 X10.8616 Y50.5100
G01 X10.8699 Y50.5100
G01 X10.9224 Y50.5158
G01 X10.9347 Y50.5185
G01 X10.9445 Y50.5221
G01 X10.9537 Y50.5269
G01 X10.9948 Y50.5530
G01 X11.0013 Y50.5578
G01 X11.0074 Y50.5633
G01 X12.8635 Y52.4194
G01 X12.8710 Y52.4286
G01 X12.8945 Y52.4632
G01 X12.8989 Y52.4704
G01 X12.9025 Y52.4779
G01 X12.9046 Y52.4838
G01 X12.9069 Y52.4919
G01 X12.9149 Y52.5331
G01 X12.9162 Y52.5430
G01 X12.9164 Y62.6511
G01 X12.9162 Y62.6576
G01 X12.9151 Y62.6661
G01 X12.9081 Y62.7042
G01 X12.9066 Y62.7102
G01 X12.9040 Y62.7179
G01 X12.8986 Y62.7290
G01 X12.8782 Y62.7623
G01 X12.8737 Y62.7689
G01 X12.8686 Y62.7751
G01 X12.8614 Y62.7820
G01 X12.8550 Y62.7869
G01 X12.7013 Y62.8947
G01 X12.6045 Y62.9826
G01 X12.5195 Y63.0821
G01 X12.4482 Y63.1920
G01 X12.3913 Y63.3099
G01 X12.3500 Y63.4338
G01 X12.3251 Y63.5625
G01 X12.3167 Y63.6930
G01 X12.3251 Y63.8236
G01 X12.3500 Y63.9518
G01 X12.3913 Y64.0762
G01 X12.4482 Y64.1941
G01 X12.5206 Y64.3060
G01 X12.5252 Y64.3150
G01 X12.5389 Y64.3470
G01 X12.5418 Y64.3550
G01 X12.5439 Y64.3632
G01 X12.5452 Y64.3715
G01 X12.5480 Y64.4097
G01 X12.5478 Y64.4216
G01 X12.5467 Y64.4295
G01 X12.5453 Y64.4354
G01 X12.5345 Y64.4723
G01 X12.5316 Y64.4801
G01 X12.5280 Y64.4875
G01 X12.5236 Y64.4945
G01 X12.5025 Y64.5247
G01 X12.4957 Y64.5328
G01 X11.9697 Y65.0587
G01 X11.9620 Y65.0650
G01 X11.9273 Y65.0884
G01 X11.9201 Y65.0928
G01 X11.9126 Y65.0964
G01 X11.9047 Y65.0992
G01 X11.8986 Y65.1008
G01 X11.8574 Y65.1089
G01 X11.8475 Y65.1102
G01 X10.5664 Y65.1104
G01 X10.5584 Y65.1100
G01 X10.5524 Y65.1092
G01 X10.5052 Y65.0998
G01 X10.4934 Y65.0956
G01 X10.4823 Y65.0896
G01 X10.4475 Y65.0661
G01 X10.4397 Y65.0601
G01 X10.3689 Y64.9896
G01 X10.3649 Y64.9850
G01 X10.3601 Y64.9786
G01 X10.3356 Y64.9403
G01 X10.3315 Y64.9331
G01 X10.3281 Y64.9254
G01 X10.3255 Y64.9175
G01 X10.3237 Y64.9093
G01 X10.3166 Y64.8585
G01 X10.3167 Y64.8464
G01 X10.3185 Y64.8344
G01 X10.3328 Y64.7868
G01 X10.3348 Y64.7810
G01 X10.3382 Y64.7734
G01 X10.3423 Y64.7662
G01 X10.3471 Y64.7594
G01 X10.3795 Y64.7223
G01 X10.3852 Y64.7167
G01 X10.3930 Y64.7105
G01 X10.3997 Y64.7062
G01 X10.4050 Y64.7034
G01 X10.4464 Y64.6848
G01 X10.4558 Y64.6813
G01 X10.4656 Y64.6789
G01 X10.4775 Y64.6776
G01 X10.5247 Y64.6780
G01 X10.5326 Y64.6785
G01 X10.5423 Y64.6801
G01 X10.6351 Y64.7013
G01 X10.7652 Y64.7139
G01 X10.8961 Y64.7097
G01 X11.0253 Y64.6886
G01 X11.1507 Y64.6515
G01 X11.2705 Y64.5984
G01 X11.3822 Y64.5308
G01 X11.4846 Y64.4491
G01 X11.5756 Y64.3553
G01 X11.6536 Y64.2501
G01 X11.7180 Y64.1358
G01 X11.7673 Y64.0146
G01 X11.8006 Y63.8884
G01 X11.8171 Y63.7584
G01 X11.8171 Y63.6277
G01 X11.8006 Y63.4973
G01 X11.7547 Y63.3174
G01 X11.7530 Y63.3072
G01 X11.7526 Y63.2988
G01 X11.7526 Y52.8333
G01 X11.7508 Y52.7924
G01 X11.7461 Y52.7560
G01 X11.7381 Y52.7201
G01 X11.7271 Y52.6855
G01 X11.7125 Y52.6508
G01 X11.6959 Y52.6184
G01 X11.6763 Y52.5875
G01 X11.6538 Y52.5586
G01 X11.6258 Y52.5279
G01 X10.7209 Y51.6240
G01 X10.7125 Y51.6143
G01 X10.6905 Y51.5826
G01 X10.6860 Y51.5754
G01 X10.6815 Y51.5659
G01 X10.6782 Y51.5558
G01 X10.6677 Y51.5141
G01 X10.6665 Y51.5017
G01 X10.6671 Y51.4892
G01 X10.6720 Y51.4505
G01 X10.6736 Y51.4422
G01 X10.7063 Y51.3373
G01 X10.7319 Y51.1963
G01 X10.7410 Y51.0530
G01 X10.7319 Y50.9102
G01 X10.7062 Y50.7689
G01 X10.6995 Y50.7468
G01 X10.6974 Y50.7369
G01 X10.6930 Y50.6842
G01 X10.6929 Y50.6760
G01 X10.6937 Y50.6679
G01 X10.6952 Y50.6599
G01 X10.6975 Y50.6520
G01 X10.7155 Y50.6047
G01 X10.7191 Y50.5974
G01 X10.7223 Y50.5922
G01 X10.7259 Y50.5872
G01 X10.7311 Y50.5810
G01 X10.7674 Y50.5457
G01 X10.7736 Y50.5405
G01 X10.7802 Y50.5360
G01 X10.7873 Y50.5321
G01 X10.7947 Y50.5289
G01 X10.8411 Y50.5139
G00 Z1.0000
G00 X8.3916 Y49.1837
G01 F25.00
G01 Z-0.1000
G01 F120.00
G01 X8.4083 Y49.1749
G01 X8.4254 Y49.1640
G01 X8.4409 Y49.1524
G01 X8.4548 Y49.1401
G01 X8.4947 Y49.2067
G01 X8.5022 Y49.2183
G01 X8.5675 Y49.3067
G01 X8.5777 Y49.3195
G01 X8.6500 Y49.3996
G01 X8.6592 Y49.4092
G01 X8.7412 Y49.4839
G01 X8.7537 Y49.4945
G01 X8.8403 Y49.5588
G01 X8.8512 Y49.5665
G01 X8.9462 Y49.6237
G01 X8.9578 Y49.6303
G01 X9.0580 Y49.6779
G01 X9.0702 Y49.6833
G01 X9.0807 Y49.6873
G01 X9.1852 Y49.7245
G01 X9.1980 Y49.7280
G01 X9.3057 Y49.7547
G01 X9.3183 Y49.7570
G01 X9.4179 Y49.7718
G01 X9.4306 Y49.7733
G01 X9.4419 Y49.7741
G01 X9.5430 Y49.7790
G01 X9.5644 Y49.7790
G01 X9.6656 Y49.7741
G01 X9.6788 Y49.7731
G01 X9.6900 Y49.7717
G01 X9.7997 Y49.7551
G01 X9.8127 Y49.7523
G01 X9.9202 Y49.7251
G01 X9.9324 Y49.7211
G01 X10.0221 Y49.6890
G01 X10.7150 Y50.3819
G01 X10.6988 Y50.3905
G01 X10.6819 Y50.4012
G01 X10.6666 Y50.4127
G01 X10.6520 Y50.4254
G01 X10.6127 Y50.3598
G01 X10.6052 Y50.3482
G01 X10.5399 Y50.2597
G01 X10.5298 Y50.2469
G01 X10.4574 Y50.1669
G01 X10.4482 Y50.1573
G01 X10.3662 Y50.0826
G01 X10.3537 Y50.0720
G01 X10.2671 Y50.0076
G01 X10.2562 Y50.0000
G01 X10.1612 Y49.9427
G01 X10.1496 Y49.9362
G01 X10.0494 Y49.8885
G01 X10.0373 Y49.8832
G01 X10.0268 Y49.8791
G01 X9.9222 Y49.8420
G01 X9.9094 Y49.8384
G01 X9.8017 Y49.8117
G01 X9.7891 Y49.8095
G01 X9.6895 Y49.7947
G01 X9.6768 Y49.7932
G01 X9.6656 Y49.7924
G01 X9.5644 Y49.7874
G01 X9.5430 Y49.7874
G01 X9.4419 Y49.7924
G01 X9.4286 Y49.7934
G01 X9.4174 Y49.7948
G01 X9.3077 Y49.8113
G01 X9.2947 Y49.8142
G01 X9.1872 Y49.8414
G01 X9.1750 Y49.8454
G01 X9.0853 Y49.8775
G01 X8.3916 Y49.1837
G01 X8.4708 Y48.9870
G01 X8.5111 Y49.0716
G01 X8.5660 Y49.1634
G01 X8.5744 Y49.1762
G01 X8.6351 Y49.2579
G01 X8.6448 Y49.2697
G01 X8.7167 Y49.3488
G01 X8.7233 Y49.3552
G01 X8.8042 Y49.4281
G01 X8.8975 Y49.4972
G01 X8.9891 Y49.5522
G01 X9.0035 Y49.5600
G01 X9.0946 Y49.6030
G01 X9.1087 Y49.6088
G01 X9.2094 Y49.6447
G01 X9.3150 Y49.6714
G01 X9.3300 Y49.6744
G01 X9.4297 Y49.6892
G01 X9.4459 Y49.6908
G01 X9.5547 Y49.6959
G01 X9.6615 Y49.6908
G01 X9.6727 Y49.6899
G01 X9.7834 Y49.6734
G01 X9.8921 Y49.6464
G01 X9.9048 Y49.6424
G01 X10.0016 Y49.6078
G01 X10.0110 Y49.6039
G01 X10.0408 Y49.5898
G01 X10.8780 Y50.4269
G01 X10.8638 Y50.4266
G01 X10.8492 Y50.4275
G01 X10.8368 Y50.4292
G01 X10.8226 Y50.4325
G01 X10.7644 Y50.4513
G01 X10.7497 Y50.4577
G01 X10.7357 Y50.4656
G01 X10.7225 Y50.4747
G01 X10.7117 Y50.4838
G01 X10.6753 Y50.5189
G01 X10.6669 Y50.5278
G01 X10.6567 Y50.5405
G01 X10.6489 Y50.5524
G01 X10.6421 Y50.5650
G01 X10.6362 Y50.5786
G01 X10.5963 Y50.4948
G01 X10.5415 Y50.4031
G01 X10.5330 Y50.3903
G01 X10.4724 Y50.3086
G01 X10.4626 Y50.2967
G01 X10.3907 Y50.2177
G01 X10.3102 Y50.1443
G01 X10.3032 Y50.1383
G01 X10.2099 Y50.0693
G01 X10.1183 Y50.0142
G01 X10.1039 Y50.0065
G01 X10.0129 Y49.9634
G01 X9.9987 Y49.9576
G01 X9.8980 Y49.9218
G01 X9.7924 Y49.8950
G01 X9.7774 Y49.8920
G01 X9.6778 Y49.8772
G01 X9.6615 Y49.8756
G01 X9.5527 Y49.8705
G01 X9.4459 Y49.8756
G01 X9.4347 Y49.8766
G01 X9.3240 Y49.8931
G01 X9.2153 Y49.9201
G01 X9.2026 Y49.9240
G01 X9.1059 Y49.9587
G01 X9.0964 Y49.9626
G01 X9.0666 Y49.9766
G01 X8.2290 Y49.1390
G01 X8.2424 Y49.1394
G01 X8.2565 Y49.1386
G01 X8.2705 Y49.1367
G01 X8.2843 Y49.1335
G01 X8.3423 Y49.1143
G01 X8.3572 Y49.1077
G01 X8.3714 Y49.0998
G01 X8.3832 Y49.0917
G01 X8.3942 Y49.0827
G01 X8.4307 Y49.0480
G01 X8.4394 Y49.0390
G01 X8.4486 Y49.0276
G01 X8.4580 Y49.0137
G01 X8.4649 Y49.0008
G01 X8.4708 Y48.9870
G00 Z1.0000
G00 X8.8153 Y47.1862
G01 F25.00
G01 Z-0.1000
G01 F120.00
G01 X8.3406 Y46.7112
G01 X8.6301 Y46.7112
G01 X8.6375 Y46.7211
G01 X8.6441 Y46.7290
G01 X8.7167 Y46.8088
G01 X8.7980 Y46.8828
G01 X8.8058 Y46.8894
G01 X8.8153 Y46.8965
G01 X8.8153 Y47.1862
G01 X8.5911 Y46.7945
G01 X8.6578 Y46.8677
G01 X8.6670 Y46.8766
G01 X8.7319 Y46.9354
G01 X8.7319 Y46.9848
G01 X8.5419 Y46.7945
G01 X8.5911 Y46.7945
G00 Z1.0000
G00 X10.2083 Y46.9621
G01 F25.00
G01 Z-0.1000
G01 F120.00
G01 X10.2279 Y46.9502
G01 X10.3409 Y46.8619
G01 X10.4424 Y46.7604
G01 X10.5307 Y46.6475
G01 X10.5425 Y46.6278
G01 X10.4354 Y46.6278
G01 X10.4022 Y46.6722
G01 X10.3311 Y46.7506
G01 X10.2527 Y46.8217
G01 X10.2083 Y46.8549
G01 X10.2083 Y46.9621
G00 Z1.0000
G00 X10.2083 Y44.9839
G01 F25.00
G01 Z-0.1000
G01 F120.00
G01 X10.2083 Y45.0915
G01 X10.2527 Y45.1247
G01 X10.3311 Y45.1959
G01 X10.4022 Y45.2742
G01 X10.4350 Y45.3181
G01 X10.5425 Y45.3181
G01 X10.5306 Y45.2984
G01 X10.4425 Y45.1856
G01 X10.3409 Y45.0845
G01 X10.2278 Y44.9957
G01 X10.2083 Y44.9839
G00 Z1.0000
G00 X9.1264 Y44.5423
G01 F25.00
G01 Z-0.1000
G01 F120.00
G01 X9.1389 Y44.5452
G01 X9.2692 Y44.5859
G01 X9.4106 Y44.6120
G01 X9.5535 Y44.6205
G01 X9.6968 Y44.6120
G01 X9.8377 Y44.5859
G01 X9.9686 Y44.5452
G01 X9.9804 Y44.5424
G01 X9.9870 Y44.5382
G01 X9.9941 Y44.5346
G01 X10.1054 Y44.4843
G01 X10.2279 Y44.4102
G01 X10.3409 Y44.3219
G01 X10.4424 Y44.2204
G01 X10.5307 Y44.1075
G01 X10.6047 Y43.9850
G01 X10.6636 Y43.8540
G01 X10.7063 Y43.7173
G01 X10.7319 Y43.5763
G01 X10.7410 Y43.4330
G01 X10.7319 Y43.2902
G01 X10.7063 Y43.1492
G01 X10.6748 Y43.0484
G01 X10.6728 Y43.0406
G01 X10.6715 Y43.0327
G01 X10.6675 Y42.9962
G01 X10.6670 Y42.9858
G01 X10.6675 Y42.9775
G01 X10.6688 Y42.9693
G01 X10.6785 Y42.9297
G01 X10.6817 Y42.9200
G01 X10.6852 Y42.9126
G01 X10.6893 Y42.9056
G01 X10.7138 Y42.8705
G01 X10.7208 Y42.8625
G01 X11.7993 Y41.7840
G01 X11.8075 Y41.7768
G01 X11.8386 Y41.7543
G01 X11.8475 Y41.7493
G01 X11.8551 Y41.7460
G01 X11.8895 Y41.7350
G01 X11.9019 Y41.7321
G01 X11.9146 Y41.7311
G01 X11.9487 Y41.7312
G01 X11.9567 Y41.7318
G01 X12.0618 Y41.7497
G01 X12.1846 Y41.7539
G01 X12.3071 Y41.7413
G01 X12.4269 Y41.7128
G01 X12.5419 Y41.6686
G01 X12.6494 Y41.6095
G01 X12.7487 Y41.5363
G01 X12.8372 Y41.4511
G01 X12.9135 Y41.3543
G01 X12.9760 Y41.2484
G01 X13.0244 Y41.1353
G01 X13.0566 Y41.0166
G01 X13.0734 Y40.8944
G01 X13.0734 Y40.7718
G01 X13.0536 Y40.6312
G01 X13.0530 Y40.6225
G01 X13.0536 Y40.5873
G01 X13.0546 Y40.5773
G01 X13.0575 Y40.5654
G01 X13.0689 Y40.5322
G01 X13.0721 Y40.5247
G01 X13.0750 Y40.5194
G01 X13.0794 Y40.5126
G01 X13.0988 Y40.4856
G01 X13.1064 Y40.4769
G01 X13.6825 Y39.9008
G01 X13.6887 Y39.8952
G01 X13.6937 Y39.8914
G01 X13.7301 Y39.8673
G01 X13.7390 Y39.8625
G01 X13.7485 Y39.8587
G01 X13.7583 Y39.8562
G01 X13.7989 Y39.8482
G01 X13.8069 Y39.8472
G01 X13.8130 Y39.8470
G01 X15.9919 Y39.8470
G01 X16.0041 Y39.8482
G01 X16.0468 Y39.8567
G01 X16.0565 Y39.8593
G01 X16.0641 Y39.8622
G01 X16.0713 Y39.8658
G01 X16.0764 Y39.8689
G01 X16.1116 Y39.8934
G01 X16.1181 Y39.8984
G01 X16.1254 Y39.9055
G01 X16.1306 Y39.9117
G01 X16.1352 Y39.9185
G01 X16.1576 Y39.9553
G01 X16.1630 Y39.9666
G01 X16.1656 Y39.9745
G01 X16.1674 Y39.9826
G01 X16.1741 Y40.0278
G01 X16.1747 Y40.0358
G01 X16.1747 Y40.0418
G01 X16.1739 Y40.0498
G01 X16.1728 Y40.0558
G01 X16.1607 Y40.1012
G01 X16.1581 Y40.1088
G01 X16.1538 Y40.1178
G01 X16.1496 Y40.1246
G01 X16.1460 Y40.1295
G01 X16.1193 Y40.1631
G01 X16.1134 Y40.1694
G01 X16.0033 Y40.2613
G01 X15.8834 Y40.3847
G01 X15.7764 Y40.5197
G01 X15.6840 Y40.6649
G01 X15.6071 Y40.8187
G01 X15.5466 Y40.9798
G01 X15.5025 Y41.1464
G01 X15.4759 Y41.3161
G01 X15.4672 Y41.4879
G01 X15.4759 Y41.6601
G01 X15.5025 Y41.8298
G01 X15.5466 Y41.9964
G01 X15.6071 Y42.1575
G01 X15.6840 Y42.3113
G01 X15.7764 Y42.4565
G01 X15.8834 Y42.5915
G01 X16.0034 Y42.7149
G01 X16.1354 Y42.8252
G01 X16.2781 Y42.9210
G01 X16.4300 Y43.0018
G01 X16.5898 Y43.0666
G01 X16.7547 Y43.1150
G01 X16.9240 Y43.1455
G01 X17.0959 Y43.1590
G01 X17.2676 Y43.1547
G01 X17.4383 Y43.1324
G01 X17.6058 Y43.0928
G01 X17.7684 Y43.0361
G01 X17.9242 Y42.9635
G01 X18.0717 Y42.8751
G01 X18.2091 Y42.7715
G01 X18.3354 Y42.6549
G01 X18.4491 Y42.5252
G01 X18.5488 Y42.3854
G01 X18.6335 Y42.2354
G01 X18.7027 Y42.0776
G01 X18.7549 Y41.9136
G01 X18.7902 Y41.7453
G01 X18.8077 Y41.5740
G01 X18.8077 Y41.4020
G01 X18.8050 Y41.3751
G01 X18.8046 Y41.3669
G01 X18.8050 Y41.3587
G01 X18.8091 Y41.3176
G01 X18.8099 Y41.3115
G01 X18.8117 Y41.3036
G01 X18.8158 Y41.2921
G01 X18.8194 Y41.2849
G01 X18.8407 Y41.2471
G01 X18.8477 Y41.2371
G01 X18.8531 Y41.2311
G01 X18.8575 Y41.2270
G01 X18.8952 Y41.1983
G01 X18.9053 Y41.1917
G01 X18.9144 Y41.1875
G01 X18.9239 Y41.1843
G01 X18.9679 Y41.1737
G01 X18.9799 Y41.1720
G01 X18.9899 Y41.1719
G01 X18.9999 Y41.1731
G01 X19.0425 Y41.1806
G01 X19.0485 Y41.1820
G01 X19.0563 Y41.1846
G01 X19.0620 Y41.1870
G01 X19.0692 Y41.1909
G01 X19.1060 Y41.2144
G01 X19.1142 Y41.2203
G01 X19.1201 Y41.2257
G01 X19.8274 Y41.9336
G01 X19.8335 Y41.9412
G01 X19.8576 Y41.9765
G01 X19.8617 Y41.9835
G01 X19.8650 Y41.9908
G01 X19.8687 Y42.0024
G01 X19.8777 Y42.0444
G01 X19.8789 Y42.0543
G01 X19.8790 Y42.0642
G01 X19.8782 Y42.0721
G01 X19.8713 Y42.1122
G01 X19.8695 Y42.1201
G01 X19.8677 Y42.1258
G01 X19.8646 Y42.1333
G01 X19.8609 Y42.1404
G01 X19.8395 Y42.1746
G01 X19.8360 Y42.1798
G01 X19.8307 Y42.1863
G01 X19.8216 Y42.1950
G01 X19.7857 Y42.2216
G01 X19.7754 Y42.2277
G01 X19.7681 Y42.2310
G01 X19.7605 Y42.2335
G01 X19.7210 Y42.2437
G01 X19.7132 Y42.2453
G01 X19.7054 Y42.2462
G01 X19.5706 Y42.2545
G01 X19.4296 Y42.2801
G01 X19.2925 Y42.3228
G01 X19.1620 Y42.3817
G01 X19.0390 Y42.4562
G01 X18.9260 Y42.5445
G01 X18.8250 Y42.6455
G01 X18.7367 Y42.7585
G01 X18.6621 Y42.8816
G01 X18.6033 Y43.0120
G01 X18.5606 Y43.1491
G01 X18.5350 Y43.2901
G01 X18.5264 Y43.4330
G01 X18.5350 Y43.5764
G01 X18.5606 Y43.7173
G01 X18.6033 Y43.8540
G01 X18.6621 Y43.9849
G01 X18.7367 Y44.1074
G01 X18.8251 Y44.2205
G01 X18.9261 Y44.3220
G01 X19.0389 Y44.4102
G01 X19.1620 Y44.4843
G01 X19.2733 Y44.5346
G01 X19.2805 Y44.5382
G01 X19.2872 Y44.5426
G01 X19.3203 Y44.5661
G01 X19.3294 Y44.5739
G01 X19.3348 Y44.5799
G01 X19.3407 Y44.5879
G01 X19.3626 Y44.6222
G01 X19.3682 Y44.6332
G01 X19.3703 Y44.6389
G01 X19.3726 Y44.6468
G01 X19.3806 Y44.6864
G01 X19.3818 Y44.6946
G01 X19.3823 Y44.7029
G01 X19.3819 Y44.7111
