(G-CODE GENERATED BY FLATCAM v8.994 - www.flatcam.org - Version Date: 2020/11/7)

(Name: Gerber_BottomLayer.GBL_cutout_cnc)
(Type: G-code from Geometry)
(Units: MM)

(Created on Wednesday, 18 September 2024 at 09:23)

(This preprocessor is the default preprocessor used by FlatCAM.)
(It is made to work with MACH3 compatible motion controllers.)

(TOOL DIAMETER: 1.0 mm)
(Feedrate_XY: 120.0 mm/min)
(Feedrate_Z: 25.0 mm/min)
(Feedrate rapids 1500.0 mm/min)

(Z_Cut: -2.4 mm)
(DepthPerCut: 0.8 mm <=>3 passes)
(Z_Move: 1.0 mm)
(Z Start: None mm)
(Z End: 15.0 mm)
(X,Y End: 0.0000, 0.0000 mm)
(Steps per circle: 64)
(Preprocessor Geometry: default)

(X range:   -2.3409 ...   32.3408  mm)
(Y range:   -0.3409 ...   76.3408  mm)

(Spindle Speed: 1000.0 RPM)
G21
G90
G94

G01 F120.00

M5
G00 Z15.0000
G00 X0.0000 Y0.0000
T1
M6    
(MSG, Change to Tool Dia = 1.0000)
M0
G00 Z15.0000

M03 S1000.0
G01 F120.00
G00 X-2.3409 Y35.5999
G01 F25.00
G01 Z-0.8000
G01 F120.00
G01 X-2.3409 Y0.2591
G01 X-2.3380 Y0.2003
G01 X-2.3294 Y0.1420
G01 X-2.3151 Y0.0849
G01 X-2.2952 Y0.0295
G01 X-2.2701 Y-0.0238
G01 X-2.2398 Y-0.0743
G01 X-2.2047 Y-0.1216
G01 X-2.1652 Y-0.1652
G01 X-2.1215 Y-0.2047
G01 X-2.0743 Y-0.2398
G01 X-2.0237 Y-0.2701
G01 X-1.9705 Y-0.2952
G01 X-1.9151 Y-0.3151
G01 X-1.8580 Y-0.3294
G01 X-1.7997 Y-0.3380
G01 X-1.7409 Y-0.3409
G01 X31.7408 Y-0.3409
G01 X31.7997 Y-0.3380
G01 X31.8579 Y-0.3294
G01 X31.9150 Y-0.3151
G01 X31.9705 Y-0.2952
G01 X32.0237 Y-0.2701
G01 X32.0742 Y-0.2398
G01 X32.1215 Y-0.2047
G01 X32.1651 Y-0.1652
G01 X32.2047 Y-0.1216
G01 X32.2397 Y-0.0743
G01 X32.2700 Y-0.0238
G01 X32.2952 Y0.0295
G01 X32.3150 Y0.0849
G01 X32.3293 Y0.1420
G01 X32.3380 Y0.2003
G01 X32.3408 Y0.2591
G01 X32.3408 Y35.5999
G00 X32.3408 Y35.5999
G01 F25.00
G01 Z-1.6000
G01 F120.00
G01 X32.3408 Y0.2591
G01 X32.3380 Y0.2003
G01 X32.3293 Y0.1420
G01 X32.3150 Y0.0849
G01 X32.2952 Y0.0295
G01 X32.2700 Y-0.0238
G01 X32.2397 Y-0.0743
G01 X32.2047 Y-0.1216
G01 X32.1651 Y-0.1652
G01 X32.1215 Y-0.2047
G01 X32.0742 Y-0.2398
G01 X32.0237 Y-0.2701
G01 X31.9705 Y-0.2952
G01 X31.9150 Y-0.3151
G01 X31.8579 Y-0.3294
G01 X31.7997 Y-0.3380
G01 X31.7408 Y-0.3409
G01 X-1.7409 Y-0.3409
G01 X-1.7997 Y-0.3380
G01 X-1.8580 Y-0.3294
G01 X-1.9151 Y-0.3151
G01 X-1.9705 Y-0.2952
G01 X-2.0237 Y-0.2701
G01 X-2.0743 Y-0.2398
G01 X-2.1215 Y-0.2047
G01 X-2.1652 Y-0.1652
G01 X-2.2047 Y-0.1216
G01 X-2.2398 Y-0.0743
G01 X-2.2701 Y-0.0238
G01 X-2.2952 Y0.0295
G01 X-2.3151 Y0.0849
G01 X-2.3294 Y0.1420
G01 X-2.3380 Y0.2003
G01 X-2.3409 Y0.2591
G01 X-2.3409 Y35.5999
G00 X-2.3409 Y35.5999
G01 F25.00
G01 Z-2.4000
G01 F120.00
G01 X-2.3409 Y0.2591
G01 X-2.3380 Y0.2003
G01 X-2.3294 Y0.1420
G01 X-2.3151 Y0.0849
G01 X-2.2952 Y0.0295
G01 X-2.2701 Y-0.0238
G01 X-2.2398 Y-0.0743
G01 X-2.2047 Y-0.1216
G01 X-2.1652 Y-0.1652
G01 X-2.1215 Y-0.2047
G01 X-2.0743 Y-0.2398
G01 X-2.0237 Y-0.2701
G01 X-1.9705 Y-0.2952
G01 X-1.9151 Y-0.3151
G01 X-1.8580 Y-0.3294
G01 X-1.7997 Y-0.3380
G01 X-1.7409 Y-0.3409
G01 X31.7408 Y-0.3409
G01 X31.7997 Y-0.3380
G01 X31.8579 Y-0.3294
G01 X31.9150 Y-0.3151
G01 X31.9705 Y-0.2952
G01 X32.0237 Y-0.2701
G01 X32.0742 Y-0.2398
G01 X32.1215 Y-0.2047
G01 X32.1651 Y-0.1652
G01 X32.2047 Y-0.1216
G01 X32.2397 Y-0.0743
G01 X32.2700 Y-0.0238
G01 X32.2952 Y0.0295
G01 X32.3150 Y0.0849
G01 X32.3293 Y0.1420
G01 X32.3380 Y0.2003
G01 X32.3408 Y0.2591
G01 X32.3408 Y35.5999
G00 Z1.0000
G00 X-2.3409 Y40.5999
G01 F25.00
G01 Z-0.8000
G01 F120.00
G01 X-2.3409 Y75.7408
G01 X-2.3380 Y75.7996
G01 X-2.3294 Y75.8578
G01 X-2.3151 Y75.9149
G01 X-2.2952 Y75.9704
G01 X-2.2701 Y76.0236
G01 X-2.2398 Y76.0741
G01 X-2.2047 Y76.1214
G01 X-2.1652 Y76.1650
G01 X-2.1215 Y76.2046
G01 X-2.0743 Y76.2396
G01 X-2.0237 Y76.2699
G01 X-1.9705 Y76.2951
G01 X-1.9151 Y76.3149
G01 X-1.8580 Y76.3292
G01 X-1.7997 Y76.3379
G01 X-1.7409 Y76.3408
G01 X31.7408 Y76.3408
G01 X31.7997 Y76.3379
G01 X31.8579 Y76.3292
G01 X31.9150 Y76.3149
G01 X31.9705 Y76.2951
G01 X32.0237 Y76.2699
G01 X32.0742 Y76.2396
G01 X32.1215 Y76.2046
G01 X32.1651 Y76.1650
G01 X32.2047 Y76.1214
G01 X32.2397 Y76.0741
G01 X32.2700 Y76.0236
G01 X32.2952 Y75.9704
G01 X32.3150 Y75.9149
G01 X32.3293 Y75.8578
G01 X32.3380 Y75.7996
G01 X32.3408 Y75.7408
G01 X32.3408 Y40.5999
G00 X32.3408 Y40.5999
G01 F25.00
G01 Z-1.6000
G01 F120.00
G01 X32.3408 Y75.7408
G01 X32.3380 Y75.7996
G01 X32.3293 Y75.8578
G01 X32.3150 Y75.9149
G01 X32.2952 Y75.9704
G01 X32.2700 Y76.0236
G01 X32.2397 Y76.0741
G01 X32.2047 Y76.1214
G01 X32.1651 Y76.1650
G01 X32.1215 Y76.2046
G01 X32.0742 Y76.2396
G01 X32.0237 Y76.2699
G01 X31.9705 Y76.2951
G01 X31.9150 Y76.3149
G01 X31.8579 Y76.3292
G01 X31.7997 Y76.3379
G01 X31.7408 Y76.3408
G01 X-1.7409 Y76.3408
G01 X-1.7997 Y76.3379
G01 X-1.8580 Y76.3292
G01 X-1.9151 Y76.3149
G01 X-1.9705 Y76.2951
G01 X-2.0237 Y76.2699
G01 X-2.0743 Y76.2396
G01 X-2.1215 Y76.2046
G01 X-2.1652 Y76.1650
G01 X-2.2047 Y76.1214
G01 X-2.2398 Y76.0741
G01 X-2.2701 Y76.0236
G01 X-2.2952 Y75.9704
G01 X-2.3151 Y75.9149
G01 X-2.3294 Y75.8578
G01 X-2.3380 Y75.7996
G01 X-2.3409 Y75.7408
G01 X-2.3409 Y40.5999
G00 X-2.3409 Y40.5999
G01 F25.00
G01 Z-2.4000
G01 F120.00
G01 X-2.3409 Y75.7408
G01 X-2.3380 Y75.7996
G01 X-2.3294 Y75.8578
G01 X-2.3151 Y75.9149
G01 X-2.2952 Y75.9704
G01 X-2.2701 Y76.0236
G01 X-2.2398 Y76.0741
G01 X-2.2047 Y76.1214
G01 X-2.1652 Y76.1650
G01 X-2.1215 Y76.2046
G01 X-2.0743 Y76.2396
G01 X-2.0237 Y76.2699
G01 X-1.9705 Y76.2951
G01 X-1.9151 Y76.3149
G01 X-1.8580 Y76.3292
G01 X-1.7997 Y76.3379
G01 X-1.7409 Y76.3408
G01 X31.7408 Y76.3408
G01 X31.7997 Y76.3379
G01 X31.8579 Y76.3292
G01 X31.9150 Y76.3149
G01 X31.9705 Y76.2951
G01 X32.0237 Y76.2699
G01 X32.0742 Y76.2396
G01 X32.1215 Y76.2046
G01 X32.1651 Y76.1650
G01 X32.2047 Y76.1214
G01 X32.2397 Y76.0741
G01 X32.2700 Y76.0236
G01 X32.2952 Y75.9704
G01 X32.3150 Y75.9149
G01 X32.3293 Y75.8578
G01 X32.3380 Y75.7996
G01 X32.3408 Y75.7408
G01 X32.3408 Y40.5999
G00 Z1.0000
M05
G00 Z1.0000
G00 Z15.00
G00 X0.0 Y0.0


